; generated by PrusaSlicer 2.5.0+win64 on 2022-11-19 at 00:40:18 UTC


;
;
; 

; external perimeters extrusion width = 0.60mm
; perimeters extrusion width = 0.50mm
; infill extrusion width = 0.50mm
; solid infill extrusion width = 0.50mm
; top infill extrusion width = 0.45mm
; support material extrusion width = 0.38mm
; first layer extrusion width = 0.42mm

M73 P0 R50
M73 Q0 S50
M201 X1000 Y1000 Z200 E5000 ; sets maximum accelerations, mm/sec^2
M203 X200 Y200 Z12 E120 ; sets maximum feedrates, mm / sec
M204 P1250 R1250 T1250 ; sets acceleration (P, T) and retract acceleration (R), mm/sec^2
M205 X8.00 Y8.00 Z0.40 E4.50 ; sets the jerk limits, mm/sec
M205 S0 T0 ; sets the minimum extruding and travel feed rate, mm/sec
M107
;TYPE:Custom
M862.3 P "MK3" ; printer model check
M862.1 P0.4 ; nozzle diameter check
M115 U3.11.0 ; tell printer latest fw version
G90 ; use absolute coordinates
M83 ; extruder relative mode
M104 S215 ; set extruder temp
M140 S60 ; set bed temp
M190 S60 ; wait for bed temp
M109 S215 ; wait for extruder temp
G28 W ; home all without mesh bed level
G80 ; mesh bed leveling

G1 Z0.2 F720
G1 Y-3 F1000 ; go outside print area
G92 E0
G1 X60 E9 F1000 ; intro line
G1 X100 E12.5 F1000 ; intro line

G92 E0
M221 S95

; Don't change E values below. Excessive value can damage the printer.

M907 E538 ; set extruder motor current
G21 ; set units to millimeters
G90 ; use absolute coordinates
M83 ; use relative distances for extrusion
M900 K0.05 ; Filament gcode LA 1.5
M900 K30 ; Filament gcode LA 1.0
M107
;LAYER_CHANGE
;Z:0.2
;HEIGHT:0.2
;BEFORE_LAYER_CHANGE
G92 E0.0
;0.2


G1 E-.8 F2100
G1 Z.4 F720
;AFTER_LAYER_CHANGE
;0.2
G1 X190.727 Y52.385 F10800
G1 Z.2 F720
G1 E.8 F2100
M204 S800
;TYPE:Skirt/Brim
;WIDTH:0.42
G1 F1200
G1 X191.119 Y51.078 E.04278
G1 X191.786 Y50.408 E.02966
G1 X206.786 Y40.408 E.56525
G1 X208.105 Y40.008 E.0432
G1 X213.105 Y40.008 E.15677
G1 X214.412 Y40.4 E.04278
G1 X215.022 Y40.98 E.0264
G1 X230.346 Y61.884 E.81267
G1 X230.806 Y63.289 E.04637
G1 X230.806 Y75.816 E.39276
G1 X230.109 Y77.497 E.05704
G1 X220.163 Y87.444 E.44106
G1 X218.482 Y88.14 E.05704
G1 X205.569 Y88.14 E.40486
G1 X204.262 Y87.748 E.04278
G1 X203.726 Y87.264 E.02266
G1 X191.261 Y71.958 E.61891
G1 X190.727 Y70.457 E.04995
G1 X190.727 Y52.445 E.56474
M204 S1000
; printing object LeftGuide.stl id:0 copy 0
;WIPE_START
G1 F8640
G1 X191.119 Y51.078 E-.32835
G1 X191.786 Y50.408 E-.21842
G1 X192.554 Y49.895 E-.21324
;WIPE_END
G1 E-.04 F2100
G1 Z.6 F720
G1 X228.429 Y75.816 F10800
G1 Z.2 F720
G1 E.8 F2100
M204 S800
;TYPE:Support material
G1 F1200
G1 X225.113 Y75.816 E.10396
G1 X225.113 Y79.131 E.10396
G1 X221.797 Y79.131 E.10396
G1 X221.797 Y82.447 E.10396
G1 X218.482 Y82.447 E.10396
G1 X218.482 Y85.763 E.10396
G1 X205.569 Y85.763 E.40486
G1 X207.265 Y84.067 E.0752
G1 X210.317 Y84.067 E.09566
G1 X210.541 Y83.974 E.00761
G1 X225.265 Y69.25 E.65292
G1 X225.335 Y68.88 E.0118
G1 X222.895 Y63.289 E.19126
G1 X228.429 Y63.289 E.1735
G1 X228.429 Y75.759 E.39099
M204 S1000
G1 X227.757 Y75.646 F10800
M204 S800
G1 F1200
G1 X227.757 Y63.629 E.3768
G1 X227.338 Y63.629 E.01314
G1 X227.338 Y75.476 E.37148
G1 X226.919 Y75.476 E.01314
G1 X226.919 Y63.629 E.37148
G1 X226.5 Y63.629 E.01314
G1 X226.5 Y75.476 E.37148
G1 X226.081 Y75.476 E.01314
G1 X226.081 Y63.629 E.37148
G1 X225.662 Y63.629 E.01314
G1 X225.662 Y75.476 E.37148
G1 X225.243 Y75.476 E.01314
G1 X225.243 Y69.752 E.17949
G1 X224.824 Y70.171 E.01858
G1 X224.824 Y75.476 E.16635
G1 X224.774 Y75.476 E.00158
G1 X224.774 Y78.792 E.10396
G1 X224.405 Y78.792 E.01156
G1 X224.405 Y70.59 E.25717
G1 X223.986 Y71.009 E.01858
G1 X223.986 Y78.792 E.24404
G1 X223.567 Y78.792 E.01314
G1 X223.567 Y71.428 E.2309
G1 X223.148 Y71.847 E.01858
G1 X223.148 Y78.792 E.21776
G1 X222.729 Y78.792 E.01314
G1 X222.729 Y72.266 E.20463
G1 X222.31 Y72.685 E.01858
G1 X222.31 Y78.792 E.19149
G1 X221.891 Y78.792 E.01314
G1 X221.891 Y73.104 E.17835
G1 X221.472 Y73.523 E.01858
G1 X221.458 Y82.108 E.26917
G1 X221.053 Y82.108 E.01269
G1 X221.053 Y73.942 E.25604
G1 X220.634 Y74.361 E.01858
G1 X220.634 Y82.108 E.2429
G1 X220.215 Y82.108 E.01314
G1 X220.215 Y74.78 E.22976
G1 X219.796 Y75.199 E.01858
G1 X219.796 Y82.108 E.21663
G1 X219.377 Y82.108 E.01314
G1 X219.377 Y75.618 E.20349
G1 X218.958 Y76.037 E.01858
G1 X218.958 Y82.108 E.19035
G1 X218.539 Y82.108 E.01314
G1 X218.539 Y76.456 E.17722
G1 X218.12 Y76.875 E.01858
G1 X218.12 Y85.423 E.26804
G1 X217.701 Y85.423 E.01314
M73 Q1 S50
G1 X217.701 Y77.294 E.2549
G1 X217.282 Y77.713 E.01858
M73 P1 R50
G1 X217.282 Y85.423 E.24177
G1 X216.863 Y85.423 E.01314
G1 X216.863 Y78.132 E.22863
G1 X216.444 Y78.55 E.01858
G1 X216.444 Y85.423 E.21549
G1 X216.025 Y85.423 E.01314
G1 X216.025 Y78.969 E.20236
M73 P1 R49
G1 X215.606 Y79.388 E.01858
G1 X215.606 Y85.423 E.18922
G1 X215.187 Y85.423 E.01314
G1 X215.187 Y79.807 E.17608
G1 X214.768 Y80.226 E.01858
G1 X214.768 Y85.423 E.16295
G1 X214.349 Y85.423 E.01314
G1 X214.349 Y80.645 E.14981
G1 X213.93 Y81.064 E.01858
G1 X213.93 Y85.423 E.13667
G1 X213.511 Y85.423 E.01314
G1 X213.511 Y81.483 E.12354
G1 X213.093 Y81.902 E.01858
G1 X213.093 Y85.423 E.1104
G1 X212.674 Y85.423 E.01314
G1 X212.674 Y82.321 E.09726
G1 X212.255 Y82.74 E.01858
G1 X212.255 Y85.423 E.08413
G1 X211.836 Y85.423 E.01314
G1 X211.836 Y83.159 E.07099
G1 X211.417 Y83.578 E.01858
G1 X211.417 Y85.423 E.05785
G1 X210.998 Y85.423 E.01314
G1 X210.998 Y83.997 E.04471
G1 X210.733 Y84.262 E.01174
G1 X210.579 Y84.326 E.00524
G1 X210.579 Y85.423 E.03441
G1 X210.16 Y85.423 E.01314
G1 X210.16 Y84.406 E.03188
G1 X209.741 Y84.406 E.01314
G1 X209.741 Y85.423 E.03188
G1 X209.322 Y85.423 E.01314
G1 X209.322 Y84.406 E.03188
G1 X208.903 Y84.406 E.01314
G1 X208.903 Y85.423 E.03188
G1 X208.484 Y85.423 E.01314
G1 X208.484 Y84.406 E.03188
G1 X208.065 Y84.406 E.01314
G1 X208.065 Y85.423 E.03188
G1 X207.646 Y85.423 E.01314
G1 X207.646 Y84.406 E.03188
G1 X207.406 Y84.406 E.00752
G1 X207.227 Y84.585 E.00794
G1 X207.227 Y85.423 E.02627
G1 X206.808 Y85.423 E.01314
G1 X206.808 Y85.004 E.01314
G1 X206.389 Y85.423 E.01858
G1 X206.389 Y85.593 E.00532
M204 S1000
;WIPE_START
G1 F8640
G1 X206.389 Y85.423 E-.03921
G1 X206.808 Y85.004 E-.13679
G1 X206.808 Y85.423 E-.09674
G1 X207.227 Y85.423 E-.09674
G1 X207.227 Y84.585 E-.19346
G1 X207.406 Y84.406 E-.05848
G1 X207.646 Y84.406 E-.05538
G1 X207.646 Y84.767 E-.08318
;WIPE_END
G1 E-.04 F2100
G1 Z.6 F720
G1 X225.243 Y68.244 F10800
G1 Z.2 F720
G1 E.8 F2100
M204 S800
G1 F1200
G1 X225.243 Y63.629 E.14471
G1 X224.824 Y63.629 E.01314
G1 X224.824 Y66.86 E.10132
G1 X224.405 Y65.9 E.03284
G1 X224.405 Y63.629 E.07122
G1 X223.986 Y63.629 E.01314
G1 X223.986 Y64.94 E.04113
G1 X223.567 Y63.98 E.03284
G1 X223.567 Y63.459 E.01635
M204 S1000
;WIPE_START
G1 F8640
G1 X223.567 Y63.98 E-.12042
G1 X223.986 Y64.94 E-.24182
G1 X223.986 Y63.629 E-.30287
G1 X224.397 Y63.629 E-.09489
;WIPE_END
G1 E-.04 F2100
G1 Z.6 F720
G1 X198.255 Y53.164 F10800
G1 Z.2 F720
G1 E.8 F2100
M204 S800
;TYPE:Perimeter
;WIDTH:0.419999
G1 F1200
G1 X198.352 Y53.151 E.00308
G1 X198.596 Y53.007 E.00887
G1 X208.431 Y43.173 E.43607
G1 X212.589 Y43.173 E.13039
G1 X223.765 Y68.774 E.87587
G1 X209.869 Y82.67 E.61616
M73 Q1 S49
G1 X206.431 Y82.67 E.10781
G1 X193.892 Y70.131 E.556
G1 X193.892 Y53.173 E.53172
G1 X198.196 Y53.173 E.13496
M204 S1000
G1 X198.183 Y52.795 F10800
M204 S800
;TYPE:External perimeter
G1 F1200
G1 X198.33 Y52.74 E.00492
G1 X208.274 Y42.795 E.44097
G1 X212.836 Y42.795 E.14303
G1 X224.213 Y68.859 E.89167
G1 X210.025 Y83.047 E.62912
G1 X206.274 Y83.047 E.11761
G1 X193.515 Y70.287 E.56579
G1 X193.515 Y52.795 E.54844
G1 X198.123 Y52.795 E.14449
M204 S1000
G1 X198.329 Y52.852 F10800
;WIPE_START
G1 F8640
G1 X198.33 Y52.74 E-.04943
G1 X200.506 Y50.564 E-.71057
;WIPE_END
G1 E-.04 F2100
G1 Z.6 F720
G1 X213.111 Y44.651 F10800
G1 Z.2 F720
G1 E.8 F2100
M204 S800
;TYPE:Solid infill
;WIDTH:0.420323
G1 F1200
G1 X211.916 Y43.455 E.05307
G1 X211.382 Y43.455 E.01675
G1 X213.196 Y45.27 E.08053
G1 X213.61 Y46.217 E.03243
G1 X210.848 Y43.455 E.12256
G1 X210.314 Y43.455 E.01675
G1 X214.023 Y47.164 E.1646
G1 X214.437 Y48.111 E.03243
G1 X209.781 Y43.455 E.20663
G1 X209.247 Y43.455 E.01675
G1 X214.85 Y49.059 E.24867
G1 X215.264 Y50.006 E.03243
G1 X208.713 Y43.455 E.29071
G1 X208.548 Y43.455 E.00519
G1 X208.363 Y43.639 E.00817
G1 X215.677 Y50.953 E.32458
G1 X216.091 Y51.9 E.03243
G1 X208.096 Y43.906 E.35478
G1 X207.829 Y44.173 E.01184
G1 X216.504 Y52.847 E.38498
G1 X216.917 Y53.795 E.03243
G1 X207.562 Y44.439 E.41517
G1 X207.295 Y44.706 E.01184
G1 X217.331 Y54.742 E.44537
G1 X217.744 Y55.689 E.03243
G1 X207.028 Y44.973 E.47557
G1 X206.761 Y45.24 E.01184
G1 X218.158 Y56.636 E.50577
G1 X218.571 Y57.583 E.03243
G1 X206.494 Y45.506 E.53597
G1 X206.227 Y45.773 E.01184
G1 X218.985 Y58.53 E.56617
G1 X219.398 Y59.478 E.03243
G1 X205.96 Y46.04 E.59637
G1 X205.693 Y46.306 E.01184
G1 X219.812 Y60.425 E.62657
G1 X220.225 Y61.372 E.03243
M73 P2 R49
M73 Q2 S49
G1 X205.426 Y46.573 E.65677
G1 X205.159 Y46.84 E.01184
G1 X220.639 Y62.319 E.68697
G1 X221.052 Y63.266 E.03243
G1 X204.892 Y47.107 E.71717
G1 X204.625 Y47.373 E.01184
G1 X221.466 Y64.214 E.74737
G1 X221.879 Y65.161 E.03243
G1 X204.358 Y47.64 E.77757
G1 X204.091 Y47.907 E.01184
G1 X222.292 Y66.108 E.80777
G1 X222.706 Y67.055 E.03243
G1 X203.824 Y48.173 E.83797
G1 X203.557 Y48.44 E.01184
G1 X223.119 Y68.002 E.86817
G1 X223.429 Y68.711 E.02425
G1 X223.361 Y68.778 E.00299
G1 X203.29 Y48.707 E.89075
G1 X203.023 Y48.973 E.01184
G1 X223.094 Y69.045 E.89076
G1 X222.827 Y69.312 E.01184
G1 X202.756 Y49.24 E.89077
G1 X202.489 Y49.507 E.01184
G1 X222.561 Y69.579 E.89078
G1 X222.294 Y69.845 E.01184
G1 X202.222 Y49.774 E.89078
G1 X201.955 Y50.04 E.01184
G1 X222.027 Y70.112 E.89079
G1 X221.76 Y70.379 E.01184
G1 X201.688 Y50.307 E.8908
G1 X201.421 Y50.574 E.01184
G1 X221.493 Y70.646 E.8908
G1 X221.226 Y70.913 E.01184
G1 X201.154 Y50.84 E.89081
G1 X200.887 Y51.107 E.01184
G1 X220.959 Y71.18 E.89082
G1 X220.693 Y71.447 E.01184
G1 X200.62 Y51.374 E.89083
G1 X200.353 Y51.64 E.01184
G1 X220.426 Y71.713 E.89083
G1 X220.159 Y71.98 E.01184
G1 X200.086 Y51.907 E.89084
G1 X199.819 Y52.174 E.01184
G1 X219.892 Y72.247 E.89085
G1 X219.625 Y72.514 E.01184
M73 P3 R49
M73 Q3 S49
G1 X199.552 Y52.441 E.89085
G1 X199.285 Y52.707 E.01184
M73 P3 R48
G1 X219.358 Y72.781 E.89086
G1 X219.091 Y73.048 E.01184
G1 X199.018 Y52.974 E.89087
G1 X198.751 Y53.241 E.01184
G1 X218.825 Y73.315 E.89088
G1 X218.558 Y73.582 E.01184
G1 X198.403 Y53.427 E.89445
G1 X198.203 Y53.455 E.00635
G1 X197.898 Y53.455 E.00958
G1 X218.291 Y73.848 E.90504
G1 X218.024 Y74.115 E.01184
G1 X197.364 Y53.455 E.91688
G1 X196.83 Y53.455 E.01675
M73 Q3 S48
G1 X217.757 Y74.382 E.92872
G1 X217.49 Y74.649 E.01184
G1 X196.297 Y53.455 E.94057
G1 X195.763 Y53.455 E.01675
G1 X217.223 Y74.916 E.95241
G1 X216.956 Y75.183 E.01184
G1 X195.229 Y53.455 E.96425
G1 X194.695 Y53.455 E.01675
G1 X216.69 Y75.45 E.9761
G1 X216.423 Y75.716 E.01184
G1 X194.174 Y53.468 E.98737
G1 X194.174 Y54.002 E.01675
G1 X216.156 Y75.983 E.97553
G1 X215.889 Y76.25 E.01184
G1 X194.174 Y54.536 E.96369
G1 X194.174 Y55.069 E.01675
G1 X215.622 Y76.517 E.95184
G1 X215.355 Y76.784 E.01184
G1 X194.174 Y55.603 E.94
G1 X194.174 Y56.137 E.01675
G1 X215.088 Y77.051 E.92816
G1 X214.822 Y77.318 E.01184
G1 X194.174 Y56.67 E.91631
G1 X194.174 Y57.204 E.01675
G1 X214.555 Y77.584 E.90447
G1 X214.288 Y77.851 E.01184
M73 P4 R48
M73 Q4 S48
G1 X194.174 Y57.738 E.89263
G1 X194.174 Y58.272 E.01675
G1 X214.021 Y78.118 E.88078
G1 X213.754 Y78.385 E.01184
G1 X194.174 Y58.805 E.86894
G1 X194.174 Y59.339 E.01675
G1 X213.487 Y78.652 E.8571
G1 X213.22 Y78.919 E.01184
G1 X194.174 Y59.873 E.84525
G1 X194.174 Y60.407 E.01675
G1 X212.954 Y79.186 E.83341
G1 X212.687 Y79.453 E.01184
G1 X194.174 Y60.94 E.82157
G1 X194.174 Y61.474 E.01675
G1 X212.42 Y79.719 E.80972
G1 X212.153 Y79.986 E.01184
G1 X194.174 Y62.008 E.79788
G1 X194.174 Y62.542 E.01675
G1 X211.886 Y80.253 E.78604
G1 X211.619 Y80.52 E.01184
G1 X194.174 Y63.075 E.77419
G1 X194.174 Y63.609 E.01675
G1 X211.352 Y80.787 E.76235
G1 X211.085 Y81.054 E.01184
G1 X194.174 Y64.143 E.75051
G1 X194.174 Y64.676 E.01675
G1 X210.819 Y81.321 E.73866
G1 X210.552 Y81.587 E.01184
G1 X194.174 Y65.21 E.72682
G1 X194.174 Y65.744 E.01675
G1 X210.285 Y81.854 E.71498
G1 X210.018 Y82.121 E.01184
G1 X194.174 Y66.278 E.70313
G1 X194.174 Y66.811 E.01675
G1 X209.75 Y82.387 E.69125
G1 X209.217 Y82.387 E.01675
G1 X194.174 Y67.345 E.66756
G1 X194.174 Y67.879 E.01675
G1 X208.683 Y82.387 E.64388
G1 X208.149 Y82.387 E.01675
G1 X194.174 Y68.413 E.62019
G1 X194.174 Y68.946 E.01675
G1 X207.615 Y82.387 E.5965
G1 X207.082 Y82.387 E.01675
G1 X194.174 Y69.48 E.57282
G1 X194.174 Y70.014 E.01675
G1 X206.718 Y82.557 E.55666
M204 S1000
; stop printing object LeftGuide.stl id:0 copy 0
M106 S84.15
;LAYER_CHANGE
;Z:0.444444
;HEIGHT:0.244444
;BEFORE_LAYER_CHANGE
G92 E0.0
;0.444444


;WIPE_START
G1 F8640
G1 X204.39 Y80.229 E-.76
;WIPE_END
G1 E-.04 F2100
G1 Z.6 F720
;AFTER_LAYER_CHANGE
;0.444444
; printing object LeftGuide.stl id:0 copy 0
G1 X214.83 Y79.611 F10800
G1 Z.444 F720
G1 E.8 F2100
;TYPE:Support material
;WIDTH:0.38
G1 F2700
G1 X211.626 Y82.815 E.15083
G1 X215.534 Y82.815 E.13008
G1 X215.534 Y79.752 E.10196
;WIPE_START
G1 F8640
M73 P5 R48
G1 X215.534 Y82.815 E-.70728
G1 X215.306 Y82.815 E-.05272
;WIPE_END
M73 Q5 S48
G1 E-.04 F2100
G1 Z.844 F720
G1 X218.85 Y79.499 F10800
G1 Z.444 F720
M73 P5 R47
G1 E.8 F2100
G1 F2700
G1 X214.942 Y79.499 E.13008
G1 X218.257 Y76.184 E.15608
G1 X222.165 Y76.184 E.13008
G1 X222.165 Y73.121 E.10196
;WIPE_START
G1 F8640
G1 X222.165 Y76.184 E-.70728
G1 X221.937 Y76.184 E-.05272
;WIPE_END
G1 E-.04 F2100
G1 Z.844 F720
G1 X225.481 Y72.868 F10800
G1 Z.444 F720
G1 E.8 F2100
G1 F2700
G1 X221.573 Y72.868 E.13008
G1 X224.889 Y69.552 E.15608
G1 X225.481 Y69.552 E.01971
G1 X225.481 Y66.237 E.11037
G1 X224.125 Y66.237 E.04514
; stop printing object LeftGuide.stl id:0 copy 0
;LAYER_CHANGE
;Z:0.5
;HEIGHT:0.0555556
;BEFORE_LAYER_CHANGE
G92 E0.0
;0.5


;WIPE_START
G1 F8640
G1 X225.481 Y66.237 E-.31314
G1 X225.481 Y68.172 E-.44686
;WIPE_END
G1 E-.04 F2100
G1 Z.844 F720
;AFTER_LAYER_CHANGE
;0.5
G1 X230.806 Y68.172 F10800
G1 Z.5 F720
G1 E.8 F2100
;TYPE:Skirt/Brim
;WIDTH:0.42
;HEIGHT:0.3
G1 F2700
G1 X230.806 Y75.816 E.33903
G1 X230.109 Y77.497 E.0807
G1 X220.163 Y87.444 E.62394
G1 X218.482 Y88.14 E.0807
G1 X205.569 Y88.14 E.57273
G1 X204.262 Y87.748 E.06052
G1 X203.726 Y87.264 E.03205
G1 X191.261 Y71.958 E.87552
G1 X190.727 Y70.457 E.07067
G1 X190.727 Y52.385 E.80156
G1 X191.119 Y51.078 E.06052
G1 X191.786 Y50.408 E.04196
G1 X206.786 Y40.408 E.79962
G1 X208.105 Y40.008 E.06111
G1 X213.105 Y40.008 E.22177
G1 X214.412 Y40.4 E.06052
G1 X215.022 Y40.98 E.03734
G1 X230.346 Y61.884 E1.14963
G1 X230.806 Y63.289 E.06559
G1 X230.806 Y68.112 E.21392
; printing object LeftGuide.stl id:0 copy 0
;WIPE_START
G1 F8640
G1 X230.806 Y71.404 E-.76
;WIPE_END
G1 E-.04 F2100
G1 Z.9 F720
G1 X198.259 Y53.143 F10800
G1 Z.5 F720
G1 E.8 F2100
M204 S800
;TYPE:Perimeter
;WIDTH:0.5
G1 F3000
G1 X198.402 Y53.115 E.00791
G1 X198.651 Y52.95 E.01622
G1 X208.43 Y43.171 E.75143
G1 X212.59 Y43.171 E.22604
G1 X223.767 Y68.775 E1.51787
G1 X209.87 Y82.671 E1.06781
G1 X206.43 Y82.671 E.18689
G1 X193.89 Y70.132 E.96354
G1 X193.89 Y53.171 E.92151
M73 Q5 S47
G1 X198.118 Y53.171 E.2297
G1 X198.2 Y53.155 E.00455
M204 S1000
G1 X198.158 Y52.682 F10800
M204 S800
;TYPE:External perimeter
;WIDTH:0.6
G1 F2100
G1 X198.307 Y52.607 E.01118
G1 X208.229 Y42.685 E.93736
G1 X212.908 Y42.685 E.31261
G1 X224.344 Y68.884 E1.90967
G1 X210.071 Y83.157 E1.34849
G1 X206.229 Y83.157 E.25667
G1 X193.405 Y70.333 E1.2116
G1 X193.405 Y52.685 E1.17894
G1 X198.098 Y52.685 E.31354
M204 S1000
G1 X198.318 Y52.732 F10800
;WIPE_START
G1 F8640
G1 X198.307 Y52.607 E-.05161
G1 X200.477 Y50.438 E-.70839
;WIPE_END
G1 E-.04 F2100
G1 Z.9 F720
G1 X223.527 Y68.551 F10800
G1 Z.5 F720
G1 E.8 F2100
;TYPE:Solid infill
;WIDTH:0.501315
G1 F4800
G1 X209.733 Y82.345 E1.06304
G1 X209.116 Y82.345 E.03367
G1 X223.19 Y68.27 E1.08472
G1 X223.002 Y67.84 E.02558
G1 X208.498 Y82.345 E1.11787
