; generated by PrusaSlicer 2.5.0+win64 on 2022-11-19 at 00:26:16 UTC


;
;
; 

; external perimeters extrusion width = 0.45mm
; perimeters extrusion width = 0.45mm
; infill extrusion width = 0.45mm
; solid infill extrusion width = 0.45mm
; top infill extrusion width = 0.40mm
; support material extrusion width = 0.35mm
; first layer extrusion width = 0.42mm

M73 P0 R11
M73 Q0 S11
M201 X1000 Y1000 Z200 E5000 ; sets maximum accelerations, mm/sec^2
M203 X200 Y200 Z12 E120 ; sets maximum feedrates, mm / sec
M204 P1250 R1250 T1250 ; sets acceleration (P, T) and retract acceleration (R), mm/sec^2
M205 X8.00 Y8.00 Z0.40 E4.50 ; sets the jerk limits, mm/sec
M205 S0 T0 ; sets the minimum extruding and travel feed rate, mm/sec
M107
;TYPE:Custom
M862.3 P "MK3" ; printer model check
M862.1 P0.4 ; nozzle diameter check
M115 U3.11.0 ; tell printer latest fw version
G90 ; use absolute coordinates
M83 ; extruder relative mode
M104 S215 ; set extruder temp
M140 S60 ; set bed temp
M190 S60 ; wait for bed temp
M109 S215 ; wait for extruder temp
G28 W ; home all without mesh bed level
G80 ; mesh bed leveling

G1 Z0.2 F720
G1 Y-3 F1000 ; go outside print area
G92 E0
G1 X60 E9 F1000 ; intro line
G1 X100 E12.5 F1000 ; intro line

G92 E0
M221 S95

; Don't change E values below. Excessive value can damage the printer.

G21 ; set units to millimeters
G90 ; use absolute coordinates
M83 ; use relative distances for extrusion
M900 K0.05 ; Filament gcode LA 1.5
M900 K30 ; Filament gcode LA 1.0
M107
;LAYER_CHANGE
;Z:0.2
;HEIGHT:0.2
;BEFORE_LAYER_CHANGE
G92 E0.0
;0.2


G1 E-.8 F2100
M73 P0 R10
G1 Z.4 F720
;AFTER_LAYER_CHANGE
;0.2
G1 X171.019 Y73.848 F10800
G1 Z.2 F720
M73 P1 R10
M73 Q1 S11
G1 E.8 F2100
M204 S800
;TYPE:Skirt/Brim
;WIDTH:0.42
G1 F1200
G1 X172.133 Y72.81 E.04773
G1 X182.352 Y67.618 E.3594
G1 X184.08 Y66.851 E.05927
G1 X185.887 Y66.298 E.05927
G1 X187.748 Y65.967 E.05927
G1 X189.675 Y65.864 E.06048
G1 X191.522 Y65.987 E.05805
G1 X193.218 Y66.298 E.05406
G1 X194.289 Y66.597 E.03486
G1 X195.901 Y67.208 E.05406
G1 X206.972 Y72.81 E.38904
G1 X208.058 Y73.803 E.04612
G1 X208.478 Y75.266 E.04773
G1 X208.478 Y87.767 E.39196
G1 X208.086 Y89.184 E.04612
G1 X206.972 Y90.222 E.04773
G1 X196.753 Y95.415 E.3594
G1 X195.025 Y96.181 E.05927
M73 Q1 S10
G1 X193.218 Y96.734 E.05927
G1 X191.357 Y97.065 E.05927
G1 X189.469 Y97.169 E.05927
G1 X187.748 Y97.065 E.05406
G1 X186.611 Y96.89 E.03608
G1 X184.816 Y96.436 E.05805
G1 X183.204 Y95.824 E.05406
G1 X172.133 Y90.222 E.38904
G1 X171.047 Y89.23 E.04612
G1 X170.627 Y87.767 E.04773
G1 X170.627 Y75.266 E.39196
G1 X171.003 Y73.906 E.04424
M204 S1000
G1 X171.377 Y74.018 F10800
M204 S800
G1 F1200
G1 X171.395 Y73.959 E.00195
G1 X172.304 Y73.147 E.03821
G1 X183.218 Y67.615 E.38363
G1 X184.939 Y66.953 E.05784
M73 P2 R10
M73 Q2 S10
G1 X186.728 Y66.503 E.05784
G1 X188.559 Y66.272 E.05784
G1 X189.663 Y66.241 E.03465
G1 X191.465 Y66.36 E.05662
G1 X193.139 Y66.667 E.05334
G1 X194.166 Y66.953 E.03343
G1 X195.757 Y67.557 E.05335
G1 X206.801 Y73.147 E.38813
G1 X207.789 Y74.088 E.04278
G1 X208.101 Y75.266 E.03821
G1 X208.101 Y87.767 E.39196
G1 X207.71 Y89.074 E.04278
G1 X206.801 Y89.886 E.03821
G1 X195.887 Y95.417 E.38363
G1 X194.718 Y95.889 E.03953
G1 X193.139 Y96.365 E.05174
G1 X191.323 Y96.689 E.05784
G1 X189.481 Y96.792 E.05784
G1 X187.783 Y96.689 E.05335
G1 X186.69 Y96.521 E.03465
G1 X184.939 Y96.079 E.05662
G1 X183.349 Y95.476 E.05334
G1 X172.304 Y89.886 E.38813
G1 X171.316 Y88.945 E.04278
G1 X171.004 Y87.767 E.03821
G1 X171.004 Y75.266 E.39196
G1 X171.36 Y74.076 E.03895
M204 S1000
; printing object Battery_Lid.stl id:0 copy 0
;WIPE_START
G1 F8640
G1 X171.395 Y73.959 E-.0282
G1 X172.304 Y73.147 E-.28138
G1 X174.044 Y72.265 E-.45042
;WIPE_END
G1 E-.04 F2100
G1 Z.6 F720
G1 X177.258 Y75.92 F10800
G1 Z.2 F720
G1 E.8 F2100
M204 S800
;TYPE:Support material
G1 F1200
G1 X176.917 Y76.734 E.02767
G1 X176.652 Y77.506 E.02559
G1 X176.433 Y78.292 E.02559
G1 X176.262 Y79.09 E.02559
G1 X176.14 Y79.897 E.02559
G1 X176.067 Y80.71 E.02559
G1 X176.043 Y81.525 E.02559
G1 X176.067 Y82.323 E.02501
G1 X176.14 Y83.135 E.02559
G1 X176.262 Y83.942 E.02559
G1 X176.433 Y84.74 E.02559
G1 X176.652 Y85.527 E.02559
G1 X176.917 Y86.298 E.02559
G1 X177.229 Y87.052 E.02559
G1 X177.576 Y87.767 E.0249
G1 X173.381 Y87.767 E.13154
G1 X173.381 Y75.266 E.39196
G1 X177.576 Y75.266 E.13154
M73 P3 R10
M73 Q3 S10
G1 X177.282 Y75.869 E.02104
M204 S1000
;WIPE_START
G1 F8640
G1 X177.576 Y75.266 E-.15493
G1 X174.956 Y75.266 E-.60507
;WIPE_END
G1 E-.04 F2100
G1 Z.6 F720
G1 X176.983 Y87.597 F10800
G1 Z.2 F720
G1 E.8 F2100
M204 S800
G1 F1200
G1 X176.983 Y87.324 E.00855
G1 X176.564 Y86.316 E.03424
G1 X176.564 Y87.427 E.03485
G1 X176.145 Y87.427 E.01314
G1 X176.145 Y84.209 E.10091
M204 S1000
;WIPE_START
G1 F8640
G1 X176.145 Y87.427 E-.74314
G1 X176.218 Y87.427 E-.01686
;WIPE_END
G1 E-.04 F2100
G1 Z.6 F720
G1 X176.983 Y76.13 F10800
G1 Z.2 F720
G1 E.8 F2100
M204 S800
G1 F1200
G1 X176.983 Y75.605 E.01645
G1 X176.564 Y75.605 E.01314
G1 X176.564 Y76.717 E.03485
G1 X176.335 Y77.382 E.02208
G1 X176.145 Y78.058 E.022
G1 X176.145 Y75.605 E.07691
G1 X175.726 Y75.605 E.01314
G1 X175.726 Y87.427 E.37068
G1 X175.307 Y87.427 E.01314
G1 X175.307 Y75.605 E.37068
G1 X174.888 Y75.605 E.01314
G1 X174.888 Y87.427 E.37068
G1 X174.469 Y87.427 E.01314
G1 X174.469 Y75.605 E.37068
G1 X174.05 Y75.605 E.01314
G1 X174.05 Y87.597 E.376
M204 S1000
;WIPE_START
G1 F8640
G1 X174.05 Y84.306 E-.76
;WIPE_END
G1 E-.04 F2100
G1 Z.6 F720
G1 X183.02 Y78.171 F10800
G1 Z.2 F720
G1 E.8 F2100
M204 S800
G1 F1200
G1 X183.388 Y78.251 E.01183
G1 X183.736 Y78.368 E.01151
G1 X184.069 Y78.522 E.01151
G1 X184.383 Y78.711 E.01151
G1 X184.676 Y78.933 E.01151
G1 X184.942 Y79.186 E.01151
G1 X185.18 Y79.465 E.01151
G1 X185.385 Y79.769 E.01151
G1 X185.557 Y80.093 E.01151
G1 X185.693 Y80.434 E.01151
G1 X185.791 Y80.788 E.01151
G1 X185.851 Y81.15 E.01151
G1 X185.9 Y81.978 E.02601
G1 X185.983 Y82.414 E.01392
G1 X186.117 Y82.837 E.01392
G1 X186.301 Y83.241 E.01392
G1 X186.511 Y83.59 E.01277
G1 X186.783 Y83.941 E.01392
G1 X187.095 Y84.257 E.01392
G1 X187.443 Y84.533 E.01392
G1 X187.774 Y84.736 E.01218
G1 X188.26 Y84.963 E.0168
G1 X188.649 Y85.085 E.01277
G1 X189.085 Y85.167 E.01392
G1 X189.913 Y85.219 E.02601
G1 X190.275 Y85.279 E.01151
G1 X190.628 Y85.377 E.01151
G1 X190.969 Y85.514 E.01151
G1 X191.293 Y85.686 E.01151
G1 X191.596 Y85.893 E.01151
G1 X191.875 Y86.131 E.01151
G1 X192.12 Y86.39 E.01118
G1 X192.349 Y86.69 E.01183
G1 X192.537 Y87.005 E.01151
G1 X192.691 Y87.338 E.01151
G1 X192.808 Y87.686 E.01151
G1 X192.886 Y88.045 E.01151
M73 P4 R10
G1 X192.925 Y88.41 E.01151
M73 Q4 S10
G1 X192.924 Y88.777 E.01151
G1 X192.884 Y89.141 E.01151
G1 X192.804 Y89.5 E.01151
G1 X192.687 Y89.847 E.01151
G1 X192.532 Y90.18 E.01151
G1 X192.342 Y90.494 E.01151
G1 X192.126 Y90.778 E.01118
G1 X191.867 Y91.052 E.01183
G1 X191.587 Y91.289 E.01151
G1 X191.283 Y91.494 E.01151
G1 X190.958 Y91.666 E.01151
G1 X190.617 Y91.801 E.01151
G1 X190.263 Y91.898 E.01151
G1 X189.901 Y91.957 E.01151
G1 X189.528 Y91.977 E.01172
G1 X188.878 Y91.955 E.02036
G1 X188.225 Y91.892 E.02058
G1 X187.528 Y91.778 E.02216
G1 X186.936 Y91.645 E.019
G1 X186.306 Y91.461 E.02058
G1 X185.689 Y91.237 E.02058
G1 X185.087 Y90.976 E.02058
G1 X184.502 Y90.677 E.02058
G1 X183.938 Y90.342 E.02058
G1 X183.395 Y89.973 E.02058
G1 X182.877 Y89.57 E.02058
G1 X182.349 Y89.1 E.02216
G1 X181.921 Y88.671 E.019
G1 X181.487 Y88.178 E.02058
G1 X181.085 Y87.659 E.02058
G1 X180.717 Y87.116 E.02058
G1 X180.383 Y86.551 E.02058
G1 X180.065 Y85.919 E.02216
G1 X179.825 Y85.363 E.019
G1 X179.603 Y84.745 E.02058
G1 X179.42 Y84.115 E.02058
G1 X179.269 Y83.425 E.02216
G1 X179.174 Y82.826 E.019
G1 X179.112 Y82.172 E.02058
G1 X179.092 Y81.523 E.02036
G1 X179.112 Y81.15 E.01172
G1 X179.172 Y80.788 E.01151
G1 X179.27 Y80.434 E.01151
G1 X179.406 Y80.093 E.01151
G1 X179.578 Y79.769 E.01151
G1 X179.778 Y79.474 E.01118
G1 X180.021 Y79.185 E.01183
G1 X180.287 Y78.933 E.01151
G1 X180.58 Y78.711 E.01151
G1 X180.894 Y78.522 E.01151
G1 X181.227 Y78.368 E.01151
G1 X181.575 Y78.251 E.01151
G1 X181.933 Y78.172 E.01151
G1 X182.298 Y78.132 E.01151
G1 X182.665 Y78.132 E.01151
G1 X182.963 Y78.165 E.00941
M204 S1000
;WIPE_START
G1 F8640
G1 X182.665 Y78.132 E-.06931
G1 X182.298 Y78.132 E-.08473
G1 X181.933 Y78.172 E-.08473
G1 X181.575 Y78.251 E-.08474
G1 X181.227 Y78.368 E-.08473
G1 X180.894 Y78.522 E-.08473
G1 X180.58 Y78.711 E-.08474
G1 X180.287 Y78.933 E-.08473
G1 X180.021 Y79.185 E-.08473
G1 X179.985 Y79.228 E-.01283
;WIPE_END
G1 E-.04 F2100
G1 Z.6 F720
G1 X192.485 Y89.877 F10800
G1 Z.2 F720
G1 E.8 F2100
M204 S800
G1 F1200
G1 X192.485 Y87.802 E.06508
G1 X192.375 Y87.463 E.01116
G1 X192.237 Y87.164 E.01035
G1 X192.066 Y86.879 E.01039
G1 X192.066 Y90.294 E.10707
G1 X191.861 Y90.565 E.01066
G1 X191.647 Y90.79 E.00972
G1 X191.647 Y86.384 E.13815
G1 X191.39 Y86.163 E.01064
G1 X191.228 Y86.053 E.00612
G1 X191.228 Y91.121 E.15891
G1 X190.809 Y91.359 E.01511
G1 X190.809 Y85.816 E.17382
G1 X190.391 Y85.663 E.01398
G1 X190.391 Y91.511 E.18335
G1 X189.972 Y91.602 E.01344
G1 X189.972 Y85.572 E.18905
G1 X189.553 Y85.538 E.01318
G1 X189.553 Y91.636 E.19117
G1 X189.134 Y91.624 E.01314
G1 X189.134 Y85.513 E.19162
G1 X188.715 Y85.444 E.01331
G1 X188.715 Y91.599 E.19297
G1 X188.296 Y91.558 E.0132
G1 X188.296 Y85.33 E.19529
G1 X187.877 Y85.165 E.01412
G1 X187.877 Y91.493 E.19842
G1 X187.458 Y91.414 E.01337
G1 X187.458 Y84.941 E.20295
G1 X187.242 Y84.806 E.00799
G1 X187.039 Y84.647 E.00809
G1 X187.039 Y91.32 E.20922
G1 X186.62 Y91.198 E.01368
G1 X186.62 Y84.261 E.21752
G1 X186.522 Y84.158 E.00444
M73 P5 R10
M73 Q5 S10
G1 X186.201 Y83.732 E.01673
G1 X186.201 Y91.061 E.2298
G1 X185.782 Y90.908 E.01399
G1 X185.782 Y82.911 E.25074
G1 X185.642 Y82.449 E.01511
G1 X185.565 Y82.029 E.01341
G1 X185.513 Y81.187 E.02646
G1 X185.459 Y80.861 E.01035
G1 X185.363 Y80.522 E.01105
G1 X185.363 Y90.726 E.31994
G1 X184.944 Y90.522 E.01461
G1 X184.944 Y79.722 E.33861
G1 X184.695 Y79.419 E.01229
G1 X184.525 Y79.258 E.00736
G1 X184.525 Y90.296 E.34609
G1 X184.106 Y90.046 E.01529
G1 X184.106 Y78.94 E.34823
G1 X183.91 Y78.822 E.00717
G1 X183.687 Y78.719 E.0077
G1 X183.687 Y89.761 E.34621
G1 X183.268 Y89.444 E.01647
G1 X183.268 Y78.572 E.3409
G1 X182.849 Y78.493 E.01336
G1 X182.849 Y89.092 E.33233
G1 X182.43 Y88.7 E.018
G1 X182.43 Y78.471 E.32072
G1 X182.011 Y78.505 E.01318
G1 X182.011 Y88.259 E.30585
G1 X181.592 Y87.759 E.02046
G1 X181.592 Y78.603 E.28708
G1 X181.173 Y78.767 E.0141
M73 P6 R10
G1 X181.173 Y87.184 E.26391
G1 X180.754 Y86.512 E.02483
M73 Q6 S10
G1 X180.754 Y79.005 E.23537
G1 X180.507 Y79.192 E.00971
G1 X180.335 Y79.355 E.00744
G1 X180.335 Y85.688 E.19856
G1 X180.141 Y85.238 E.01537
G1 X179.916 Y84.608 E.02098
G1 X179.916 Y79.874 E.14841
G1 X179.714 Y80.236 E.01298
G1 X179.592 Y80.543 E.01035
G1 X179.497 Y80.9 E.01159
G1 X179.497 Y83.683 E.08725
M204 S1000
;WIPE_START
G1 F8640
G1 X179.497 Y80.9 E-.64257
G1 X179.592 Y80.543 E-.08537
G1 X179.643 Y80.414 E-.03206
;WIPE_END
G1 E-.04 F2100
G1 Z.6 F720
G1 X190.159 Y71.074 F10800
G1 Z.2 F720
G1 E.8 F2100
M204 S800
G1 F1200
G1 X190.864 Y71.138 E.02218
G1 X191.513 Y71.241 E.0206
G1 X192.154 Y71.384 E.02061
G1 X192.785 Y71.567 E.0206
G1 X193.403 Y71.79 E.0206
G1 X194.007 Y72.051 E.02061
G1 X194.592 Y72.349 E.0206
G1 X195.158 Y72.684 E.02061
G1 X195.701 Y73.053 E.0206
G1 X196.221 Y73.456 E.02061
G1 X196.713 Y73.891 E.0206
G1 X197.178 Y74.355 E.02061
G1 X197.613 Y74.848 E.0206
G1 X198.015 Y75.367 E.0206
G1 X198.385 Y75.911 E.02061
G1 X198.719 Y76.477 E.0206
G1 X199.018 Y77.062 E.0206
G1 X199.279 Y77.665 E.0206
G1 X199.501 Y78.284 E.0206
G1 X199.685 Y78.915 E.0206
G1 X199.828 Y79.556 E.02061
G1 X199.931 Y80.205 E.0206
G1 X199.993 Y80.859 E.0206
G1 X200.013 Y81.509 E.02039
G1 X199.993 Y81.883 E.01172
G1 X199.933 Y82.245 E.01151
G1 X199.835 Y82.598 E.01151
G1 X199.7 Y82.939 E.01151
G1 X199.528 Y83.263 E.01151
G1 X199.322 Y83.567 E.01151
G1 X199.084 Y83.847 E.01151
G1 X198.825 Y84.092 E.01118
G1 X198.526 Y84.321 E.01183
G1 X198.211 Y84.511 E.01151
G1 X197.878 Y84.665 E.01151
G1 X197.53 Y84.782 E.01151
G1 X197.172 Y84.861 E.01151
G1 X196.807 Y84.9 E.01151
G1 X196.44 Y84.9 E.01151
G1 X196.075 Y84.861 E.01151
G1 X195.717 Y84.782 E.01151
G1 X195.369 Y84.665 E.01151
G1 X195.036 Y84.511 E.01151
G1 X194.722 Y84.321 E.01151
G1 X194.43 Y84.099 E.01151
G1 X194.163 Y83.847 E.01151
G1 X193.926 Y83.567 E.01151
G1 X193.725 Y83.272 E.01118
G1 X193.548 Y82.939 E.01183
G1 X193.412 Y82.598 E.01151
G1 X193.314 Y82.245 E.01151
G1 X193.254 Y81.883 E.01151
G1 X193.205 Y81.054 E.02602
G1 X193.122 Y80.617 E.01394
G1 X193.001 Y80.228 E.01278
G1 X192.821 Y79.822 E.01394
G1 X192.592 Y79.44 E.01394
G1 X192.32 Y79.089 E.01394
G1 X192.007 Y78.773 E.01394
G1 X191.659 Y78.497 E.01394
G1 X191.327 Y78.294 E.0122
G1 X190.841 Y78.068 E.01682
G1 X190.416 Y77.938 E.01394
G1 X190.015 Y77.864 E.01278
G1 X189.186 Y77.814 E.02602
G1 X188.824 Y77.755 E.01151
G1 X188.47 Y77.657 E.01151
G1 X188.13 Y77.521 E.01151
G1 X187.805 Y77.349 E.01151
G1 X187.502 Y77.143 E.01151
G1 X187.23 Y76.912 E.01119
G1 X186.97 Y76.639 E.01182
G1 X186.747 Y76.347 E.01151
G1 X186.558 Y76.033 E.01151
G1 X186.404 Y75.7 E.01151
G1 X186.287 Y75.352 E.01151
G1 X186.208 Y74.993 E.01151
G1 X186.168 Y74.629 E.01151
G1 X186.168 Y74.262 E.01151
G1 X186.207 Y73.907 E.01119
G1 X186.287 Y73.538 E.01182
G1 X186.404 Y73.191 E.01151
G1 X186.558 Y72.858 E.01151
G1 X186.747 Y72.543 E.01151
G1 X186.97 Y72.251 E.01151
G1 X187.222 Y71.985 E.01151
G1 X187.502 Y71.747 E.01151
G1 X187.797 Y71.547 E.01118
G1 X188.13 Y71.369 E.01183
G1 X188.47 Y71.233 E.01151
G1 X188.824 Y71.135 E.01151
G1 X189.186 Y71.076 E.01151
G1 X189.559 Y71.056 E.01172
G1 X190.103 Y71.073 E.01703
M204 S1000
G1 X199.608 Y82.71 F10800
M204 S800
G1 F1200
G1 X199.608 Y80.396 E.07257
G1 X199.594 Y80.248 E.00467
G1 X199.495 Y79.62 E.01994
G1 X199.356 Y78.999 E.01994
G1 X199.189 Y78.425 E.01874
G1 X199.189 Y83.158 E.1484
G1 X199.051 Y83.362 E.00771
G1 X198.77 Y83.677 E.01325
G1 X198.77 Y77.344 E.19855
G1 X198.351 Y76.521 E.02898
G1 X198.351 Y84.028 E.23538
G1 X197.932 Y84.266 E.01511
G1 X197.932 Y75.849 E.26391
G1 X197.513 Y75.274 E.02231
G1 X197.513 Y84.429 E.28708
G1 X197.094 Y84.528 E.01349
M73 P7 R10
M73 Q7 S10
G1 X197.094 Y74.773 E.30585
G1 X196.675 Y74.332 E.01907
G1 X196.675 Y84.561 E.32071
G1 X196.256 Y84.539 E.01315
G1 X196.256 Y73.94 E.33233
G1 X195.837 Y73.588 E.01715
G1 X195.837 Y84.461 E.3409
G1 X195.418 Y84.313 E.01393
G1 X195.418 Y73.271 E.34622
G1 X194.999 Y72.987 E.01588
G1 X194.999 Y84.092 E.34821
G1 X194.58 Y83.775 E.01649
G1 X194.58 Y72.737 E.34609
G1 X194.428 Y72.647 E.00553
G1 X194.161 Y72.511 E.0094
G1 X194.161 Y83.31 E.33861
G1 X194.011 Y83.088 E.0084
G1 X193.856 Y82.797 E.01035
G1 X193.742 Y82.511 E.00965
G1 X193.742 Y72.306 E.31995
G1 X193.323 Y72.125 E.01431
G1 X193.323 Y80.122 E.25074
G1 X193.126 Y79.673 E.01537
G1 X192.904 Y79.3 E.0136
G1 X192.904 Y71.971 E.2298
G1 X192.485 Y71.834 E.01382
G1 X192.485 Y78.771 E.21752
G1 X192.24 Y78.526 E.01088
M73 P8 R10
G1 X192.066 Y78.385 E.007
G1 X192.066 Y71.712 E.20923
G1 X191.647 Y71.619 E.01346
M73 Q8 S10
G1 X191.647 Y78.091 E.20294
G1 X191.446 Y77.97 E.00737
G1 X191.228 Y77.868 E.00754
G1 X191.228 Y71.539 E.19842
G1 X190.809 Y71.474 E.0133
G1 X190.809 Y77.703 E.1953
G1 X190.391 Y77.588 E.01362
G1 X190.391 Y71.434 E.19295
G1 X189.972 Y71.408 E.01316
G1 X189.972 Y77.519 E.19161
G1 X189.553 Y77.494 E.01316
G1 X189.553 Y71.396 E.19121
G1 X189.134 Y71.428 E.01318
G1 X189.134 Y77.462 E.18917
G1 X188.715 Y77.372 E.01343
G1 X188.715 Y71.518 E.18357
G1 X188.296 Y71.668 E.01396
G1 X188.296 Y77.222 E.17413
G1 X187.877 Y76.987 E.01505
G1 X187.877 Y71.903 E.15943
G1 X187.707 Y72.018 E.00642
G1 X187.458 Y72.23 E.01027
G1 X187.458 Y76.661 E.13893
G1 X187.229 Y76.419 E.01044
G1 X187.039 Y76.169 E.00984
G1 X187.039 Y72.721 E.10813
G1 X186.859 Y73.017 E.01086
G1 X186.72 Y73.316 E.01035
G1 X186.62 Y73.614 E.00984
G1 X186.62 Y75.761 E.06734
M204 S1000
;WIPE_START
G1 F8640
G1 X186.62 Y73.614 E-.49588
G1 X186.72 Y73.316 E-.07244
G1 X186.859 Y73.017 E-.07624
