; generated by PrusaSlicer 2.5.0+win64 on 2022-11-19 at 00:25:11 UTC


;
;
; 

; external perimeters extrusion width = 0.45mm
; perimeters extrusion width = 0.45mm
; infill extrusion width = 0.45mm
; solid infill extrusion width = 0.45mm
; top infill extrusion width = 0.40mm
; support material extrusion width = 0.35mm
; first layer extrusion width = 0.42mm

M73 P0 R17
M73 Q0 S17
M201 X1000 Y1000 Z200 E5000 ; sets maximum accelerations, mm/sec^2
M203 X200 Y200 Z12 E120 ; sets maximum feedrates, mm / sec
M204 P1250 R1250 T1250 ; sets acceleration (P, T) and retract acceleration (R), mm/sec^2
M205 X8.00 Y8.00 Z0.40 E4.50 ; sets the jerk limits, mm/sec
M205 S0 T0 ; sets the minimum extruding and travel feed rate, mm/sec
M107
;TYPE:Custom
M862.3 P "MK3" ; printer model check
M862.1 P0.4 ; nozzle diameter check
M115 U3.11.0 ; tell printer latest fw version
G90 ; use absolute coordinates
M83 ; extruder relative mode
M104 S215 ; set extruder temp
M140 S60 ; set bed temp
M190 S60 ; wait for bed temp
M109 S215 ; wait for extruder temp
G28 W ; home all without mesh bed level
G80 ; mesh bed leveling

G1 Z0.2 F720
G1 Y-3 F1000 ; go outside print area
G92 E0
G1 X60 E9 F1000 ; intro line
G1 X100 E12.5 F1000 ; intro line

G92 E0
M221 S95

; Don't change E values below. Excessive value can damage the printer.

G21 ; set units to millimeters
G90 ; use absolute coordinates
M83 ; use relative distances for extrusion
M900 K0.05 ; Filament gcode LA 1.5
M900 K30 ; Filament gcode LA 1.0
M107
;LAYER_CHANGE
;Z:0.2
;HEIGHT:0.2
;BEFORE_LAYER_CHANGE
G92 E0.0
;0.2


G1 E-.8 F2100
G1 Z.4 F720
;AFTER_LAYER_CHANGE
;0.2
G1 X206.128 Y31.935 F10800
G1 Z.2 F720
G1 E.8 F2100
M204 S800
;TYPE:Skirt/Brim
;WIDTH:0.42
G1 F1200
G1 X206.935 Y29.987 E.06609
G1 X213.935 Y22.987 E.31039
G1 X215.882 Y22.18 E.06609
G1 X227.882 Y22.18 E.37625
G1 X229.83 Y22.987 E.06609
G1 X236.83 Y29.987 E.31039
G1 X237.637 Y31.935 E.06609
G1 X237.637 Y43.611 E.3661
G1 X236.83 Y45.558 E.06609
G1 X229.83 Y52.558 E.31039
G1 X227.882 Y53.365 E.06609
M73 Q1 S17
G1 X215.882 Y53.365 E.37625
M73 P1 R17
G1 X213.935 Y52.558 E.06609
G1 X206.935 Y45.558 E.31039
G1 X206.128 Y43.611 E.06609
G1 X206.128 Y31.995 E.36422
M204 S1000
G1 X206.505 Y31.995 F10800
M204 S800
G1 F1200
G1 X206.505 Y31.935 E.00188
G1 X207.202 Y30.254 E.05704
G1 X214.202 Y23.254 E.31039
G1 X215.882 Y22.558 E.05704
G1 X227.882 Y22.558 E.37625
G1 X229.563 Y23.254 E.05704
G1 X236.563 Y30.254 E.31039
G1 X237.26 Y31.935 E.05704
G1 X237.26 Y43.611 E.3661
G1 X236.563 Y45.292 E.05704
G1 X229.563 Y52.292 E.31039
G1 X227.882 Y52.988 E.05704
G1 X215.882 Y52.988 E.37625
G1 X214.202 Y52.292 E.05704
G1 X207.202 Y45.292 E.31039
G1 X206.505 Y43.611 E.05704
G1 X206.505 Y32.055 E.36233
M204 S1000
; printing object Battery_Holder.stl id:0 copy 0
;WIPE_START
G1 F8640
G1 X206.505 Y31.935 E-.02771
G1 X207.202 Y30.254 E-.42009
G1 X208.158 Y29.298 E-.3122
;WIPE_END
G1 E-.04 F2100
G1 Z.6 F720
G1 X211.635 Y40.512 F10800
G1 Z.2 F720
G1 E.8 F2100
M204 S800
;TYPE:Support material
G1 F1200
G1 X211.869 Y41.28 E.02516
G1 X212.14 Y41.974 E.02335
G1 X212.449 Y42.628 E.0227
G1 X212.858 Y43.347 E.02593
G1 X212.217 Y43.796 E.02456
G1 X211.887 Y43.233 E.02045
G1 X211.6 Y42.671 E.01979
G1 X211.344 Y42.094 E.01979
G1 X211.121 Y41.504 E.01979
G1 X210.931 Y40.902 E.01979
G1 X210.798 Y40.383 E.0168
G1 X211.604 Y40.383 E.02526
G1 X211.621 Y40.457 E.0024
M204 S1000
G1 X212.246 Y43.512 F10800
M204 S800
G1 F1200
G1 X212.246 Y42.962 E.01726
G1 X211.827 Y42.106 E.02987
G1 X211.827 Y42.346 E.00753
G1 X211.658 Y41.965 E.01305
G1 X211.408 Y41.285 E.02272
G1 X211.408 Y40.552 E.02298
M204 S1000
;WIPE_START
G1 F8640
G1 X211.408 Y41.285 E-.16924
G1 X211.658 Y41.965 E-.16731
G1 X211.827 Y42.346 E-.09613
G1 X211.827 Y42.106 E-.05543
G1 X212.246 Y42.962 E-.22
G1 X212.246 Y43.186 E-.05189
;WIPE_END
G1 E-.04 F2100
G1 Z.6 F720
G1 X231.56 Y31.767 F10800
G1 Z.2 F720
G1 E.8 F2100
M204 S800
G1 F1200
G1 X231.878 Y32.312 E.0198
G1 X232.165 Y32.874 E.01979
G1 X232.421 Y33.451 E.01979
G1 X232.644 Y34.042 E.01979
G1 X232.834 Y34.644 E.01979
G1 X232.967 Y35.163 E.0168
G1 X232.161 Y35.163 E.02526
G1 X231.896 Y34.266 E.02933
G1 X231.634 Y33.591 E.0227
G1 X231.316 Y32.917 E.02335
G1 X230.907 Y32.198 E.02593
G1 X231.519 Y31.77 E.02344
M204 S1000
G1 X232.357 Y34.993 F10800
M204 S800
G1 F1200
G1 X232.357 Y34.26 E.02298
G1 X232.107 Y33.58 E.02272
G1 X231.938 Y33.199 E.01305
G1 X231.938 Y33.439 E.00753
G1 X231.519 Y32.584 E.02987
G1 X231.519 Y32.033 E.01726
M204 S1000
;WIPE_START
G1 F8640
G1 X231.519 Y32.584 E-.12712
G1 X231.938 Y33.439 E-.22
G1 X231.938 Y33.199 E-.05543
G1 X232.107 Y33.58 E-.09613
G1 X232.357 Y34.26 E-.16731
G1 X232.357 Y34.667 E-.09401
;WIPE_END
G1 E-.04 F2100
G1 Z.6 F720
G1 X232.84 Y31.082 F10800
G1 Z.2 F720
G1 E.8 F2100
M204 S800
;TYPE:Perimeter
;WIDTH:0.527826
G1 F1200
M73 Q2 S17
G1 X234.042 Y32.284 E.06855
G1 X234.048 Y33.668 E.05582
G1 X233.757 Y32.885 E.0337
G1 X233.468 Y32.235 E.02869
G1 X233.143 Y31.601 E.02869
G1 X232.87 Y31.134 E.02183
M204 S1000
;WIPE_START
M73 P2 R17
G1 F8640
G1 X234.042 Y32.284 E-.37919
G1 X234.048 Y33.668 E-.31966
G1 X233.955 Y33.42 E-.06115
;WIPE_END
G1 E-.04 F2100
G1 Z.6 F720
G1 X229.27 Y32.209 F10800
G1 Z.2 F720
G1 E.8 F2100
M204 S800
;WIDTH:0.419999
G1 F1200
G1 X229.298 Y32.287 E.00258
G1 X229.772 Y33.016 E.02726
G1 X230.078 Y33.565 E.01971
G1 X230.346 Y34.133 E.01971
G1 X230.574 Y34.719 E.01971
G1 X230.762 Y35.319 E.01971
G1 X230.956 Y36.126 E.02603
G1 X231.042 Y36.318 E.00659
G1 X231.251 Y36.499 E.00866
G1 X231.509 Y36.56 E.00833
G1 X233.969 Y36.545 E.07714
G1 X234.108 Y36.428 E.0057
G1 X234.096 Y43.284 E.21498
G1 X227.556 Y49.824 E.28997
G1 X216.209 Y49.824 E.35581
G1 X211.816 Y45.431 E.19479
G1 X212.318 Y45.431 E.01574
G1 X214.318 Y44.03 E.07656
G1 X214.415 Y43.944 E.00407
G1 X214.518 Y43.779 E.00612
G1 X214.555 Y43.502 E.00876
G1 X214.467 Y43.259 E.0081
G1 X213.993 Y42.53 E.02726
G1 X213.687 Y41.981 E.01971
G1 X213.419 Y41.412 E.01971
G1 X213.191 Y40.826 E.01971
G1 X213.003 Y40.226 E.01971
G1 X212.809 Y39.419 E.02603
G1 X212.723 Y39.227 E.00659
G1 X212.514 Y39.046 E.00866
G1 X212.256 Y38.986 E.00833
G1 X209.796 Y39 E.07714
G1 X209.657 Y39.14 E.00618
G1 X209.669 Y32.261 E.21568
G1 X216.209 Y25.722 E.28997
G1 X227.556 Y25.722 E.35581
G1 X231.949 Y30.115 E.19479
G1 X231.447 Y30.114 E.01574
G1 X229.447 Y31.515 E.07656
G1 X229.35 Y31.601 E.00407
G1 X229.247 Y31.767 E.00612
G1 X229.21 Y32.044 E.00876
G1 X229.249 Y32.153 E.00364
M204 S1000
G1 X229.614 Y32.081 F10800
M204 S800
;TYPE:External perimeter
G1 F1200
G1 X229.588 Y31.934 E.00468
G1 X229.664 Y31.824 E.00418
G1 X231.664 Y30.423 E.07656
;WIDTH:0.465374
G1 X231.749 Y30.405 E.00306
;WIDTH:0.510749
G1 X231.834 Y30.386 E.00339
;WIDTH:0.556124
G1 X231.919 Y30.368 E.00372
G1 X232.087 Y30.653 E.01414
;WIDTH:0.510749
G1 X232.256 Y30.939 E.01289
;WIDTH:0.465374
G1 X232.424 Y31.224 E.01164
;WIDTH:0.419999
G1 X232.771 Y31.818 E.02156
G1 X233.084 Y32.431 E.02156
G1 X233.363 Y33.059 E.02156
G1 X233.606 Y33.703 E.02157
G1 X233.814 Y34.358 E.02156
G1 X233.983 Y35.025 E.02158
G1 X234.128 Y35.86 E.02656
;WIDTH:0.404644
G1 X234.142 Y36.011 E.00455
;WIDTH:0.419999
G1 X233.967 Y36.168 E.00737
G1 X231.507 Y36.183 E.07714
G1 X231.363 Y36.117 E.00495
G1 X231.028 Y34.906 E.0394
G1 X230.811 Y34.289 E.02051
M73 P2 R16
G1 X230.553 Y33.688 E.02051
G1 X230.254 Y33.107 E.02051
G1 X229.646 Y32.131 E.03603
M204 S1000
G1 X229.468 Y32.046 F10800
;WIPE_START
G1 F8640
G1 X229.588 Y31.934 E-.0475
G1 X229.664 Y31.824 E-.03079
G1 X231.664 Y30.423 E-.5638
G1 X231.749 Y30.405 E-.02013
G1 X231.834 Y30.386 E-.02013
G1 X231.919 Y30.368 E-.02013
G1 X232.046 Y30.582 E-.05753
;WIPE_END
G1 E-.04 F2100
G1 Z.6 F720
G1 X210.925 Y44.464 F10800
G1 Z.2 F720
G1 E.8 F2100
M204 S800
;TYPE:Perimeter
;WIDTH:0.527826
G1 F1200
G1 X209.723 Y43.261 E.06855
G1 X209.717 Y41.877 E.05582
G1 X210.008 Y42.661 E.0337
G1 X210.297 Y43.311 E.02869
G1 X210.622 Y43.944 E.02869
G1 X210.894 Y44.412 E.02183
M204 S1000
;WIPE_START
G1 F8640
G1 X209.723 Y43.261 E-.37919
G1 X209.717 Y41.877 E-.31967
G1 X209.81 Y42.125 E-.06115
;WIPE_END
G1 E-.04 F2100
G1 Z.6 F720
G1 X211.846 Y45.178 F10800
G1 Z.2 F720
G1 E.8 F2100
M204 S800
;TYPE:External perimeter
;WIDTH:0.556124
G1 F1200
G1 X211.677 Y44.892 E.01414
;WIDTH:0.510749
G1 X211.509 Y44.607 E.01289
;WIDTH:0.465374
G1 X211.341 Y44.321 E.01164
;WIDTH:0.419999
G1 X210.994 Y43.727 E.02156
G1 X210.681 Y43.115 E.02156
G1 X210.402 Y42.486 E.02156
G1 X210.159 Y41.843 E.02156
G1 X209.951 Y41.187 E.02157
G1 X209.782 Y40.52 E.02158
G1 X209.637 Y39.685 E.02656
;WIDTH:0.404586
G1 X209.622 Y39.566 E.00363
;WIDTH:0.419999
G1 X209.798 Y39.378 E.00808
G1 X212.258 Y39.363 E.07714
G1 X212.402 Y39.428 E.00495
G1 X212.737 Y40.639 E.0394
G1 X212.954 Y41.256 E.02051
G1 X213.212 Y41.857 E.02051
G1 X213.511 Y42.439 E.02051
G1 X214.151 Y43.464 E.03791
G1 X214.177 Y43.611 E.00468
G1 X214.101 Y43.722 E.00418
G1 X212.101 Y45.122 E.07656
;WIDTH:0.465374
G1 X212.016 Y45.141 E.00306
;WIDTH:0.510749
G1 X211.931 Y45.159 E.00339
;WIDTH:0.556124
G1 X211.904 Y45.165 E.00116
M204 S1000
;WIPE_START
G1 F8640
G1 X211.677 Y44.892 E-.08193
G1 X211.509 Y44.607 E-.07653
G1 X211.341 Y44.321 E-.07653
G1 X210.994 Y43.727 E-.15881
G1 X210.681 Y43.115 E-.15881
G1 X210.402 Y42.486 E-.15881
G1 X210.328 Y42.289 E-.04859
;WIPE_END
G1 E-.04 F2100
G1 Z.6 F720
G1 X216.052 Y50.201 F10800
G1 Z.2 F720
G1 E.8 F2100
M204 S800
;WIDTH:0.419999
G1 F1200
G1 X212.011 Y46.159 E.17922
;WIDTH:0.465836
G1 X211.801 Y45.917 E.01126
;WIDTH:0.511672
G1 X211.591 Y45.675 E.01248
;WIDTH:0.557508
G1 X211.382 Y45.433 E.0137
G1 X211.154 Y45.237 E.01286
;WIDTH:0.511672
G1 X210.926 Y45.042 E.01171
;WIDTH:0.465836
G1 X210.697 Y44.846 E.01057
;WIDTH:0.419999
G1 X209.292 Y43.441 E.06231
G1 X209.267 Y39.565 E.12152
G1 X209.292 Y32.105 E.23392
M73 Q2 S16
G1 X216.052 Y25.345 E.29975
G1 X227.713 Y25.345 E.3656
M73 Q3 S16
G1 X231.754 Y29.386 E.17922
;WIDTH:0.465836
M73 P3 R16
G1 X231.964 Y29.628 E.01126
;WIDTH:0.511672
G1 X232.174 Y29.87 E.01248
;WIDTH:0.557508
G1 X232.383 Y30.112 E.0137
G1 X232.611 Y30.308 E.01286
;WIDTH:0.511672
G1 X232.839 Y30.504 E.01171
;WIDTH:0.465836
G1 X233.067 Y30.699 E.01057
;WIDTH:0.419999
G1 X234.473 Y32.105 E.06231
G1 X234.474 Y32.382 E.0087
G1 X234.496 Y36.042 E.11475
G1 X234.473 Y43.441 E.23198
G1 X227.713 Y50.201 E.29975
G1 X216.112 Y50.201 E.36372
M204 S1000
G1 X216.006 Y49.804 F10800
;WIPE_START
G1 F8640
G1 X213.768 Y47.891 E-.76
;WIPE_END
G1 E-.04 F2100
G1 Z.6 F720
G1 X227.266 Y25.835 F10800
G1 Z.2 F720
G1 E.8 F2100
M204 S800
;TYPE:Solid infill
;WIDTH:0.425664
G1 F1200
G1 X231.302 Y29.871 E.18166
G1 X230.983 Y30.094 E.01237
G1 X226.894 Y26.005 E.18406
G1 X226.353 Y26.005 E.01723
G1 X230.665 Y30.317 E.19409
G1 X230.347 Y30.54 E.01237
G1 X225.811 Y26.005 E.20413
G1 X225.27 Y26.005 E.01723
G1 X230.028 Y30.763 E.21416
G1 X229.71 Y30.986 E.01237
G1 X224.729 Y26.005 E.22419
G1 X224.188 Y26.005 E.01723
G1 X229.392 Y31.209 E.23423
G1 X229.281 Y31.286 E.00432
G1 X229.103 Y31.461 E.00793
G1 X223.646 Y26.005 E.24559
G1 X223.105 Y26.005 E.01723
G1 X228.939 Y31.839 E.2626
G1 X228.927 Y31.889 E.00165
G1 X228.941 Y32.153 E.0084
G1 X229.002 Y32.338 E.00619
G1 X229.19 Y32.63 E.01106
G1 X222.564 Y26.005 E.29821
G1 X222.022 Y26.005 E.01723
G1 X229.928 Y33.91 E.3558
G1 X230.086 Y34.245 E.0118
G1 X230.315 Y34.839 E.02025
G1 X221.481 Y26.005 E.3976
G1 X220.94 Y26.005 E.01723
G1 X230.771 Y35.836 E.44248
M204 S1000
;WIPE_START
G1 F8640
G1 X228.444 Y33.508 E-.76
;WIPE_END
G1 E-.04 F2100
G1 Z.6 F720
G1 X233.222 Y36.663 F10800
G1 Z.2 F720
G1 E.8 F2100
M204 S800
G1 F1200
G1 X233.824 Y37.265 E.0271
G1 X233.823 Y37.805 E.0172
G1 X232.852 Y36.835 E.04368
G1 X232.314 Y36.838 E.01712
G1 X233.822 Y38.345 E.06785
G1 X233.821 Y38.886 E.0172
G1 X231.608 Y36.672 E.09962
M204 S1000
;WIPE_START
G1 F8640
G1 X233.821 Y38.886 E-.72274
G1 X233.821 Y38.724 E-.03726
;WIPE_END
G1 E-.04 F2100
G1 Z.6 F720
G1 X233.989 Y39.595 F10800
G1 Z.2 F720
G1 E.8 F2100
M204 S800
M73 Q4 S16
G1 F1200
G1 X220.399 Y26.005 E.61169
G1 X219.857 Y26.005 E.01723
M73 P4 R16
G1 X233.819 Y39.966 E.62839
G1 X233.818 Y40.507 E.0172
G1 X219.316 Y26.005 E.65271
G1 X218.775 Y26.005 E.01723
G1 X233.817 Y41.047 E.67702
G1 X233.816 Y41.587 E.0172
G1 X218.233 Y26.005 E.70134
G1 X217.692 Y26.005 E.01723
G1 X233.815 Y42.127 E.72566
G1 X233.814 Y42.668 E.0172
G1 X217.151 Y26.005 E.74998
G1 X216.61 Y26.005 E.01723
G1 X233.793 Y43.188 E.77337
G1 X233.522 Y43.458 E.01218
G1 X216.197 Y26.133 E.77976
G1 X215.926 Y26.404 E.01218
G1 X233.251 Y43.729 E.77976
G1 X232.981 Y43.999 E.01218
M73 P5 R16
M73 Q5 S16
G1 X215.656 Y26.674 E.77976
G1 X215.385 Y26.945 E.01218
G1 X232.71 Y44.27 E.77976
G1 X232.439 Y44.541 E.01218
G1 X215.114 Y27.216 E.77976
G1 X214.844 Y27.486 E.01218
G1 X232.169 Y44.811 E.77976
G1 X231.898 Y45.082 E.01218
G1 X214.573 Y27.757 E.77976
G1 X214.302 Y28.028 E.01218
G1 X231.628 Y45.353 E.77976
G1 X231.357 Y45.623 E.01218
G1 X214.032 Y28.298 E.77976
G1 X213.761 Y28.569 E.01218
G1 X231.086 Y45.894 E.77976
G1 X230.816 Y46.165 E.01218
M73 P6 R16
M73 Q6 S16
G1 X213.491 Y28.84 E.77976
G1 X213.22 Y29.11 E.01218
G1 X230.545 Y46.435 E.77976
G1 X230.274 Y46.706 E.01218
G1 X212.949 Y29.381 E.77976
G1 X212.679 Y29.651 E.01218
G1 X230.004 Y46.977 E.77976
G1 X229.733 Y47.247 E.01218
G1 X212.408 Y29.922 E.77976
G1 X212.137 Y30.193 E.01218
G1 X229.462 Y47.518 E.77976
G1 X229.192 Y47.788 E.01218
G1 X211.867 Y30.463 E.77976
G1 X211.596 Y30.734 E.01218
G1 X228.921 Y48.059 E.77976
G1 X228.65 Y48.33 E.01218
M73 Q7 S16
G1 X211.325 Y31.005 E.77976
G1 X211.055 Y31.275 E.01218
M73 P7 R16
G1 X228.38 Y48.6 E.77976
G1 X228.109 Y48.871 E.01218
G1 X210.784 Y31.546 E.77976
G1 X210.514 Y31.817 E.01218
G1 X227.839 Y49.142 E.77976
G1 X227.568 Y49.412 E.01218
G1 X210.243 Y32.087 E.77976
G1 X209.972 Y32.358 E.01218
G1 X227.155 Y49.541 E.77337
G1 X226.614 Y49.541 E.01723
G1 X209.951 Y32.878 E.74997
G1 X209.95 Y33.418 E.0172
G1 X226.073 Y49.541 E.72565
G1 X225.531 Y49.541 E.01723
G1 X209.949 Y33.958 E.70134
G1 X209.948 Y34.499 E.0172
M73 P8 R16
M73 Q8 S16
G1 X224.99 Y49.541 E.67702
G1 X224.449 Y49.541 E.01723
G1 X209.947 Y35.039 E.6527
G1 X209.946 Y35.579 E.0172
G1 X223.908 Y49.541 E.62838
G1 X223.366 Y49.541 E.01723
M73 P8 R15
G1 X209.945 Y36.12 E.60406
G1 X209.944 Y36.66 E.0172
G1 X211.989 Y38.704 E.09202
G1 X211.45 Y38.708 E.01712
G1 X209.943 Y37.2 E.06785
G1 X209.942 Y37.74 E.0172
G1 X210.912 Y38.711 E.04368
G1 X210.374 Y38.714 E.01712
G1 X209.772 Y38.111 E.02713
M204 S1000
;WIPE_START
G1 F8640
G1 X210.374 Y38.714 E-.19684
G1 X210.912 Y38.711 E-.12424
G1 X209.942 Y37.74 E-.31691
G1 X209.943 Y37.212 E-.12202
;WIPE_END
G1 E-.04 F2100
G1 Z.6 F720
G1 X212.994 Y39.71 F10800
G1 Z.2 F720
G1 E.8 F2100
M204 S800
G1 F1200
G1 X222.825 Y49.541 E.44247
G1 X222.284 Y49.541 E.01723
G1 X213.45 Y40.707 E.39759
G1 X213.679 Y41.3 E.02024
M73 Q8 S15
G1 X213.837 Y41.636 E.01181
G1 X221.742 Y49.541 E.35579
G1 X221.201 Y49.541 E.01723
G1 X214.576 Y42.915 E.2982
G1 X214.763 Y43.208 E.01104
G1 X214.824 Y43.392 E.00619
G1 X214.838 Y43.656 E.0084
G1 X214.826 Y43.707 E.00165
G1 X220.66 Y49.541 E.26259
G1 X220.119 Y49.541 E.01723
G1 X214.662 Y44.084 E.24559
G1 X214.484 Y44.259 E.00793
G1 X214.373 Y44.337 E.00432
G1 X219.577 Y49.541 E.23422
G1 X219.036 Y49.541 E.01723
G1 X214.055 Y44.56 E.22419
G1 X213.736 Y44.783 E.01237
G1 X218.495 Y49.541 E.21416
G1 X217.953 Y49.541 E.01723
G1 X213.418 Y45.006 E.20412
G1 X213.1 Y45.228 E.01237
M73 P9 R15
M73 Q9 S15
G1 X217.412 Y49.541 E.19409
G1 X216.871 Y49.541 E.01723
G1 X212.781 Y45.451 E.18406
G1 X212.463 Y45.674 E.01237
G1 X216.499 Y49.711 E.18166
M204 S1000
; stop printing object Battery_Holder.stl id:0 copy 0
M106 S84.15
;LAYER_CHANGE
;Z:0.4
;HEIGHT:0.2
;BEFORE_LAYER_CHANGE
G92 E0.0
;0.4


;WIPE_START
G1 F8640
G1 X214.172 Y47.383 E-.76
;WIPE_END
G1 E-.04 F2100
G1 Z.6 F720
;AFTER_LAYER_CHANGE
;0.4
G1 X211.466 Y50.089 F10800
G1 Z.4 F720
G1 E.8 F2100
;TYPE:Skirt/Brim
;WIDTH:0.42
G1 F3000
G1 X206.935 Y45.558 E.20091
G1 X206.128 Y43.611 E.06609
G1 X206.128 Y31.935 E.3661
G1 X206.935 Y29.987 E.06609
G1 X213.935 Y22.987 E.31039
G1 X215.882 Y22.18 E.06609
