; generated by PrusaSlicer 2.5.0+win64 on 2022-11-19 at 00:30:01 UTC


;
;
; 

; external perimeters extrusion width = 0.45mm
; perimeters extrusion width = 0.45mm
; infill extrusion width = 0.45mm
; solid infill extrusion width = 0.45mm
; top infill extrusion width = 0.40mm
; support material extrusion width = 0.35mm
; first layer extrusion width = 0.42mm

M73 P0 R79
M73 Q0 S79
M201 X1000 Y1000 Z200 E5000 ; sets maximum accelerations, mm/sec^2
M203 X200 Y200 Z12 E120 ; sets maximum feedrates, mm / sec
M204 P1250 R1250 T1250 ; sets acceleration (P, T) and retract acceleration (R), mm/sec^2
M205 X8.00 Y8.00 Z0.40 E4.50 ; sets the jerk limits, mm/sec
M205 S0 T0 ; sets the minimum extruding and travel feed rate, mm/sec
M107
;TYPE:Custom
M862.3 P "MK3" ; printer model check
M862.1 P0.4 ; nozzle diameter check
M115 U3.11.0 ; tell printer latest fw version
G90 ; use absolute coordinates
M83 ; extruder relative mode
M104 S215 ; set extruder temp
M140 S60 ; set bed temp
M190 S60 ; wait for bed temp
M109 S215 ; wait for extruder temp
G28 W ; home all without mesh bed level
G80 ; mesh bed leveling

G1 Z0.2 F720
G1 Y-3 F1000 ; go outside print area
G92 E0
G1 X60 E9 F1000 ; intro line
G1 X100 E12.5 F1000 ; intro line

G92 E0
M221 S95

; Don't change E values below. Excessive value can damage the printer.

G21 ; set units to millimeters
G90 ; use absolute coordinates
M83 ; use relative distances for extrusion
M900 K0.05 ; Filament gcode LA 1.5
M900 K30 ; Filament gcode LA 1.0
M107
;LAYER_CHANGE
;Z:0.2
;HEIGHT:0.2
;BEFORE_LAYER_CHANGE
G92 E0.0
;0.2


G1 E-.8 F2100
G1 Z.4 F720
;AFTER_LAYER_CHANGE
;0.2
G1 X147.725 Y61.727 F10800
G1 Z.2 F720
G1 E.8 F2100
M204 S800
;TYPE:Skirt/Brim
;WIDTH:0.42
G1 F1200
G1 X151.032 Y55.113 E.23186
G1 X151.478 Y54.496 E.02388
G1 X158.092 Y47.881 E.29328
G1 X159.773 Y47.185 E.05704
G1 X178.888 Y47.185 E.59934
G1 X180.569 Y47.881 E.05704
G1 X187.183 Y54.496 E.29328
G1 X187.628 Y55.113 E.02388
G1 X190.935 Y61.727 E.23186
G1 X191.186 Y62.791 E.03425
G1 X191.186 Y98.441 E1.1178
G1 X190.49 Y100.122 E.05704
G1 X183.876 Y106.736 E.29328
G1 X182.195 Y107.432 E.05704
G1 X156.465 Y107.432 E.80673
G1 X154.785 Y106.736 E.05704
G1 X148.17 Y100.122 E.29328
G1 X147.474 Y98.441 E.05704
G1 X147.474 Y62.791 E1.1178
G1 X147.711 Y61.786 E.03237
M204 S1000
; printing object Box.stl id:0 copy 0
;WIPE_START
G1 F8640
G1 X149.178 Y58.839 E-.76
;WIPE_END
G1 E-.04 F2100
G1 Z.6 F720
G1 X168.967 Y52.869 F10800
G1 Z.2 F720
G1 E.8 F2100
M204 S800
;TYPE:Support material
G1 F1200
G1 X169.694 Y52.869 E.0228
G1 X169.694 Y49.562 E.10369
G1 X178.888 Y49.562 E.28827
G1 X178.888 Y52.869 E.10369
G1 X182.195 Y52.869 E.10369
G1 X182.195 Y56.176 E.10369
G1 X185.502 Y56.176 E.10369
G1 X185.502 Y62.791 E.20738
G1 X188.809 Y62.791 E.10369
G1 X188.809 Y98.441 E1.1178
G1 X185.502 Y98.441 E.10369
G1 X185.502 Y101.748 E.10369
G1 X182.195 Y101.748 E.10369
G1 X182.195 Y105.055 E.10369
G1 X156.465 Y105.055 E.80673
G1 X156.465 Y101.748 E.10369
G1 X153.158 Y101.748 E.10369
G1 X153.158 Y98.441 E.10369
G1 X149.851 Y98.441 E.10369
G1 X149.851 Y62.791 E1.1178
G1 X153.158 Y62.791 E.10369
G1 X153.158 Y56.176 E.20738
G1 X156.465 Y56.176 E.10369
G1 X156.465 Y52.869 E.10369
G1 X159.773 Y52.869 E.10369
G1 X159.773 Y49.562 E.10369
G1 X168.967 Y49.562 E.28827
G1 X168.967 Y52.813 E.10192
M204 S1000
;WIPE_START
G1 F8640
G1 X168.967 Y49.562 E-.75055
G1 X168.926 Y49.562 E-.00945
;WIPE_END
G1 E-.04 F2100
G1 Z.6 F720
G1 X162.352 Y88.52 F10800
G1 Z.2 F720
G1 E.8 F2100
M204 S800
G1 F1200
G1 X162.352 Y89.247 E.0228
G1 X165.659 Y89.247 E.10369
G1 X165.659 Y92.554 E.10369
G1 X173.001 Y92.554 E.23019
G1 X173.001 Y89.247 E.10369
G1 X176.308 Y89.247 E.10369
G1 X176.308 Y88.52 E.0228
G1 X162.409 Y88.52 E.43579
M204 S1000
;WIPE_START
G1 F8640
G1 X165.7 Y88.52 E-.76
;WIPE_END
G1 E-.04 F2100
G1 Z.6 F720
G1 X168.941 Y61.954 F10800
G1 Z.2 F720
G1 E.8 F2100
M204 S800
G1 F1200
G1 X168.068 Y62.034 E.02749
G1 X167.24 Y62.19 E.02641
G1 X166.433 Y62.423 E.02633
G1 X165.655 Y62.73 E.02622
G1 X164.914 Y63.108 E.02609
G1 X164.217 Y63.554 E.02594
G1 X163.572 Y64.064 E.02578
G1 X163.009 Y64.607 E.02452
G1 X162.462 Y65.252 E.02652
G1 X162.01 Y65.92 E.02528
G1 X161.633 Y66.626 E.0251
G1 X161.343 Y67.343 E.02425
M73 P0 R78
G1 X161.121 Y68.126 E.02551
G1 X160.993 Y68.884 E.02411
G1 X160.946 Y69.739 E.02685
G1 X160.99 Y70.508 E.02415
G1 X161.121 Y71.285 E.02471
G1 X161.335 Y72.046 E.02478
G1 X161.631 Y72.78 E.02482
G1 X162.01 Y73.49 E.02521
G1 X162.462 Y74.158 E.02529
G1 X162.985 Y74.779 E.02545
G1 X163.572 Y75.347 E.02561
G1 X164.217 Y75.856 E.02578
G1 X164.914 Y76.302 E.02594
G1 X165.655 Y76.681 E.02609
G1 X166.433 Y76.988 E.02622
G1 X167.24 Y77.221 E.02633
G1 X168.068 Y77.377 E.02641
G1 X168.908 Y77.455 E.02646
G1 X169.752 Y77.455 E.02648
G1 X170.593 Y77.377 E.02646
G1 X171.42 Y77.22 E.02641
G1 X172.227 Y76.988 E.02633
G1 X173.005 Y76.681 E.02622
G1 X173.746 Y76.302 E.02609
G1 X174.443 Y75.856 E.02594
G1 X175.088 Y75.347 E.02578
G1 X175.651 Y74.804 E.02452
G1 X176.198 Y74.158 E.02652
G1 X176.65 Y73.491 E.02528
G1 X177.027 Y72.784 E.0251
G1 X177.317 Y72.068 E.02424
G1 X177.54 Y71.285 E.0255
G1 X177.668 Y70.527 E.02412
G1 X177.714 Y69.672 E.02685
G1 X177.67 Y68.903 E.02415
G1 X177.54 Y68.126 E.02471
G1 X177.325 Y67.365 E.02478
G1 X177.029 Y66.629 E.02488
G1 X176.651 Y65.921 E.02517
G1 X176.198 Y65.253 E.02529
G1 X175.676 Y64.632 E.02545
G1 X175.089 Y64.064 E.02561
G1 X174.443 Y63.554 E.02578
G1 X173.746 Y63.108 E.02594
G1 X173.005 Y62.73 E.02609
G1 X172.227 Y62.423 E.02622
G1 X171.42 Y62.19 E.02633
G1 X170.593 Y62.034 E.02641
G1 X169.752 Y61.955 E.02646
G1 X168.997 Y61.954 E.02367
M204 S1000
;WIPE_START
G1 F8640
G1 X169.752 Y61.955 E-.1743
G1 X170.593 Y62.034 E-.19486
G1 X171.42 Y62.19 E-.1945
G1 X172.227 Y62.423 E-.19391
G1 X172.237 Y62.427 E-.00242
;WIPE_END
G1 E-.04 F2100
G1 Z.6 F720
G1 X188.184 Y98.271 F10800
G1 Z.2 F720
G1 E.8 F2100
M204 S800
G1 F1200
G1 X188.184 Y63.13 E1.10184
G1 X187.765 Y63.13 E.01314
G1 X187.765 Y98.102 E1.09652
G1 X187.346 Y98.102 E.01314
G1 X187.346 Y63.13 E1.09652
G1 X186.927 Y63.13 E.01314
G1 X186.927 Y98.102 E1.09652
G1 X186.508 Y98.102 E.01314
G1 X186.508 Y63.13 E1.09652
G1 X186.089 Y63.13 E.01314
G1 X186.089 Y98.102 E1.09652
G1 X185.67 Y98.102 E.01314
G1 X185.67 Y63.13 E1.09652
G1 X185.251 Y63.13 E.01314
G1 X185.251 Y98.102 E1.09652
G1 X185.163 Y98.102 E.00278
G1 X185.163 Y101.409 E.10369
G1 X184.832 Y101.409 E.01035
M73 Q1 S79
G1 X184.832 Y56.516 E1.40759
G1 X184.413 Y56.516 E.01314
M73 P1 R78
G1 X184.413 Y101.409 E1.40759
G1 X183.994 Y101.409 E.01314
G1 X183.994 Y56.516 E1.40759
G1 X183.575 Y56.516 E.01314
G1 X183.575 Y101.409 E1.40759
G1 X183.156 Y101.409 E.01314
M73 Q1 S78
G1 X183.156 Y56.516 E1.40759
G1 X182.737 Y56.516 E.01314
G1 X182.737 Y101.409 E1.40759
G1 X182.318 Y101.409 E.01314
G1 X182.318 Y56.516 E1.40759
G1 X181.899 Y56.516 E.01314
G1 X181.899 Y101.409 E1.40759
G1 X181.855 Y101.409 E.00138
G1 X181.855 Y104.716 E.10369
G1 X181.48 Y104.716 E.01176
G1 X181.481 Y53.209 E1.61497
G1 X181.062 Y53.209 E.01314
G1 X181.062 Y104.716 E1.61497
G1 X180.643 Y104.716 E.01314
G1 X180.643 Y53.209 E1.61497
G1 X180.224 Y53.209 E.01314
G1 X180.224 Y104.716 E1.61497
G1 X179.805 Y104.716 E.01314
G1 X179.805 Y53.209 E1.61497
G1 X179.386 Y53.209 E.01314
G1 X179.386 Y104.716 E1.61497
G1 X178.967 Y104.716 E.01314
G1 X178.967 Y53.209 E1.61497
G1 X178.548 Y53.209 E.01311
G1 X178.548 Y49.902 E.10369
G1 X178.548 Y104.716 E1.71867
G1 X178.129 Y104.716 E.01314
G1 X178.129 Y49.902 E1.71867
G1 X177.71 Y49.902 E.01314
G1 X177.71 Y67.475 E.55099
G1 X177.634 Y67.222 E.00826
M73 P1 R77
G1 X177.291 Y66.397 E.02802
G1 X177.291 Y49.902 E.51721
G1 X176.872 Y49.902 E.01314
G1 X176.872 Y65.64 E.49347
G1 X176.453 Y65.027 E.02327
G1 X176.453 Y49.902 E.47426
G1 X176.034 Y49.902 E.01314
G1 X176.034 Y64.529 E.45863
G1 X175.615 Y64.1 E.01881
G1 X175.615 Y49.902 E.44517
G1 X175.196 Y49.902 E.01314
G1 X175.196 Y63.715 E.43311
G1 X174.777 Y63.384 E.01674
M73 P2 R77
M73 Q2 S78
G1 X174.777 Y49.902 E.42274
G1 X174.358 Y49.902 E.01314
G1 X174.358 Y63.096 E.4137
G1 X173.939 Y62.828 E.01559
G1 X173.939 Y49.902 E.4053
G1 X173.52 Y49.902 E.01314
G1 X173.52 Y62.611 E.39849
G1 X173.101 Y62.402 E.01468
G1 X173.101 Y49.902 E.39194
G1 X172.682 Y49.902 E.01314
G1 X172.682 Y62.237 E.38676
G1 X172.263 Y62.079 E.01403
G1 X172.263 Y49.902 E.38182
G1 X171.844 Y49.902 E.01314
G1 X171.844 Y61.958 E.37803
G1 X171.425 Y61.845 E.01361
G1 X171.425 Y49.902 E.37447
G1 X171.006 Y49.902 E.01314
G1 X171.006 Y61.766 E.37199
G1 X170.587 Y61.692 E.01334
G1 X170.587 Y49.902 E.36967
G1 X170.168 Y49.902 E.01314
G1 X170.168 Y61.652 E.36844
G1 X169.749 Y61.615 E.01319
G1 X169.749 Y53.209 E.26359
G1 X169.33 Y53.209 E.01314
G1 X169.33 Y61.615 E.26357
G1 X168.911 Y61.616 E.01314
G1 X168.911 Y53.209 E.26359
G1 X168.627 Y53.209 E.00891
G1 X168.627 Y49.902 E.10369
G1 X168.492 Y49.902 E.00423
G1 X168.492 Y61.652 E.36844
G1 X168.073 Y61.692 E.01319
G1 X168.073 Y49.902 E.36967
G1 X167.654 Y49.902 E.01314
G1 X167.654 Y61.766 E.37199
G1 X167.235 Y61.845 E.01337
G1 X167.235 Y49.902 E.37447
G1 X166.816 Y49.902 E.01314
G1 X166.816 Y61.958 E.37803
G1 X166.397 Y62.079 E.01367
G1 X166.397 Y49.902 E.38182
G1 X165.978 Y49.902 E.01314
G1 X165.978 Y62.237 E.38676
G1 X165.559 Y62.402 E.01412
G1 X165.559 Y49.902 E.39194
G1 X165.14 Y49.902 E.01314
G1 X165.14 Y62.611 E.39849
G1 X164.721 Y62.828 E.01479
G1 X164.721 Y49.902 E.40529
G1 X164.302 Y49.902 E.01314
G1 X164.302 Y63.096 E.4137
G1 X163.883 Y63.384 E.01595
G1 X163.883 Y49.902 E.42274
G1 X163.464 Y49.902 E.01314
G1 X163.464 Y63.715 E.43311
G1 X163.046 Y64.1 E.01783
G1 X163.046 Y49.902 E.44517
G1 X162.627 Y49.902 E.01314
G1 X162.627 Y64.529 E.45863
G1 X162.208 Y65.028 E.02042
G1 X162.208 Y49.902 E.47427
G1 X161.789 Y49.902 E.01314
G1 X161.789 Y65.64 E.49347
M73 Q2 S77
G1 X161.37 Y66.397 E.02714
G1 X161.37 Y49.902 E.51721
G1 X160.951 Y49.902 E.01314
G1 X160.951 Y67.475 E.55099
G1 X160.79 Y68.051 E.01875
G1 X160.657 Y68.833 E.02489
G1 X160.606 Y69.684 E.02672
G1 X160.657 Y70.577 E.02806
G1 X160.79 Y71.36 E.0249
G1 X160.951 Y71.936 E.01874
G1 X160.951 Y104.716 E1.02779
G1 X161.37 Y104.716 E.01314
G1 X161.37 Y73.013 E.99402
G1 X161.789 Y73.77 E.02714
G1 X161.789 Y104.716 E.97027
G1 X162.208 Y104.716 E.01314
G1 X162.208 Y89.587 E.47437
G1 X162.627 Y89.587 E.01314
G1 X162.627 Y104.716 E.47437
G1 X163.046 Y104.716 E.01314
G1 X163.046 Y89.587 E.47437
G1 X163.464 Y89.587 E.01314
G1 X163.464 Y104.716 E.47437
G1 X163.883 Y104.716 E.01314
G1 X163.883 Y89.587 E.47437
G1 X164.302 Y89.587 E.01314
G1 X164.302 Y104.716 E.47437
G1 X164.721 Y104.716 E.01314
G1 X164.721 Y89.587 E.47437
G1 X165.14 Y89.587 E.01314
G1 X165.14 Y104.716 E.47437
G1 X165.559 Y104.716 E.01314
G1 X165.559 Y92.894 E.37068
G1 X165.978 Y92.894 E.01314
G1 X165.978 Y104.716 E.37068
G1 X166.397 Y104.716 E.01314
G1 X166.397 Y92.894 E.37068
G1 X166.816 Y92.894 E.01314
G1 X166.816 Y104.716 E.37068
G1 X167.235 Y104.716 E.01314
G1 X167.235 Y92.894 E.37068
G1 X167.654 Y92.894 E.01314
G1 X167.654 Y104.716 E.37068
G1 X168.073 Y104.716 E.01314
G1 X168.073 Y92.894 E.37068
G1 X168.492 Y92.894 E.01314
G1 X168.492 Y104.716 E.37068
G1 X168.911 Y104.716 E.01314
G1 X168.911 Y92.894 E.37068
G1 X169.33 Y92.894 E.01314
G1 X169.33 Y104.716 E.37068
G1 X169.749 Y104.716 E.01314
G1 X169.749 Y92.894 E.37068
G1 X170.168 Y92.894 E.01314
G1 X170.168 Y104.716 E.37068
G1 X170.587 Y104.716 E.01314
G1 X170.587 Y92.894 E.37068
G1 X171.006 Y92.894 E.01314
G1 X171.006 Y104.716 E.37068
G1 X171.425 Y104.716 E.01314
G1 X171.425 Y92.894 E.37068
G1 X171.844 Y92.894 E.01314
G1 X171.844 Y104.716 E.37068
G1 X172.263 Y104.716 E.01314
G1 X172.263 Y92.894 E.37068
G1 X172.682 Y92.894 E.01314
G1 X172.682 Y104.716 E.37068
G1 X173.101 Y104.716 E.01314
G1 X173.101 Y92.894 E.37068
G1 X173.34 Y92.894 E.0075
G1 X173.34 Y89.587 E.10369
G1 X173.52 Y89.587 E.00563
G1 X173.52 Y104.716 E.47437
G1 X173.939 Y104.716 E.01314
M73 P3 R77
G1 X173.939 Y89.587 E.47437
G1 X174.358 Y89.587 E.01314
M73 Q3 S77
G1 X174.358 Y104.716 E.47437
G1 X174.777 Y104.716 E.01314
G1 X174.777 Y89.587 E.47437
G1 X175.196 Y89.587 E.01314
G1 X175.196 Y104.716 E.47437
G1 X175.615 Y104.716 E.01314
G1 X175.615 Y89.587 E.47437
G1 X176.034 Y89.587 E.01314
G1 X176.034 Y104.716 E.47437
G1 X176.453 Y104.716 E.01314
G1 X176.453 Y89.587 E.47437
G1 X176.647 Y89.587 E.0061
G1 X176.647 Y88.181 E.04408
G1 X176.453 Y88.181 E.0061
G1 X176.453 Y74.383 E.43261
G1 X176.034 Y74.881 E.02042
G1 X176.034 Y88.181 E.41698
G1 X175.615 Y88.181 E.01314
G1 X175.615 Y75.311 E.40352
G1 X175.196 Y75.695 E.01783
M73 P3 R76
G1 X175.196 Y88.181 E.39146
G1 X174.777 Y88.181 E.01314
G1 X174.777 Y76.026 E.38109
G1 X174.358 Y76.315 E.01595
G1 X174.358 Y88.181 E.37205
G1 X173.939 Y88.181 E.01314
G1 X173.939 Y76.583 E.36364
G1 X173.52 Y76.8 E.01479
G1 X173.52 Y88.181 E.35684
G1 X173.101 Y88.181 E.01314
G1 X173.101 Y77.008 E.35029
G1 X172.682 Y77.174 E.01412
G1 X172.682 Y88.181 E.34511
G1 X172.263 Y88.181 E.01314
G1 X172.263 Y77.331 E.34017
G1 X171.844 Y77.452 E.01367
G1 X171.844 Y88.181 E.33638
G1 X171.425 Y88.181 E.01314
G1 X171.425 Y77.566 E.33282
G1 X171.006 Y77.645 E.01337
G1 X171.006 Y88.181 E.33034
G1 X170.587 Y88.181 E.01314
G1 X170.587 Y77.719 E.32801
G1 X170.168 Y77.758 E.01319
G1 X170.168 Y88.181 E.32679
G1 X169.749 Y88.181 E.01314
G1 X169.749 Y77.795 E.32563
G1 X169.33 Y77.796 E.01314
G1 X169.33 Y88.181 E.32561
G1 X168.911 Y88.181 E.01314
G1 X168.911 Y77.795 E.32563
G1 X168.492 Y77.758 E.01319
G1 X168.492 Y88.181 E.32679
G1 X168.073 Y88.181 E.01314
G1 X168.073 Y77.719 E.32801
G1 X167.654 Y77.645 E.01334
G1 X167.654 Y88.181 E.33034
G1 X167.235 Y88.181 E.01314
G1 X167.235 Y77.566 E.33282
G1 X166.816 Y77.452 E.01361
G1 X166.816 Y88.181 E.33638
G1 X166.397 Y88.181 E.01314
G1 X166.397 Y77.331 E.34017
G1 X165.978 Y77.174 E.01403
G1 X165.978 Y88.181 E.34511
G1 X165.559 Y88.181 E.01314
G1 X165.559 Y77.008 E.35029
G1 X165.14 Y76.8 E.01468
G1 X165.14 Y88.181 E.35684
G1 X164.721 Y88.181 E.01314
G1 X164.721 Y76.582 E.36365
G1 X164.302 Y76.315 E.01559
G1 X164.302 Y88.181 E.37205
G1 X163.883 Y88.181 E.01314
G1 X163.883 Y76.026 E.38109
G1 X163.464 Y75.695 E.01674
G1 X163.464 Y88.181 E.39146
G1 X163.046 Y88.181 E.01314
G1 X163.046 Y75.311 E.40352
G1 X162.627 Y74.881 E.01881
G1 X162.627 Y88.181 E.41698
G1 X162.208 Y88.181 E.01314
G1 X162.208 Y74.086 E.44192
M204 S1000
;WIPE_START
G1 F8640
G1 X162.208 Y77.378 E-.76
;WIPE_END
G1 E-.04 F2100
G1 Z.6 F720
G1 X177.71 Y104.886 F10800
G1 Z.2 F720
G1 E.8 F2100
M204 S800
G1 F1200
G1 X177.71 Y71.936 E1.03311
G1 X177.634 Y72.188 E.00826
G1 X177.291 Y73.013 E.02801
G1 X177.291 Y104.716 E.99402
G1 X176.872 Y104.716 E.01314
G1 X176.872 Y73.438 E.98069
M204 S1000
;WIPE_START
G1 F8640
G1 X176.872 Y76.73 E-.76
;WIPE_END
G1 E-.04 F2100
G1 Z.6 F720
G1 X160.532 Y104.886 F10800
G1 Z.2 F720
M73 Q3 S76
G1 E.8 F2100
M204 S800
G1 F1200
G1 X160.532 Y49.902 E1.72399
G1 X160.113 Y49.902 E.01314
G1 X160.113 Y104.716 E1.71867
G1 X159.694 Y104.716 E.01314
G1 X159.694 Y53.209 E1.61497
G1 X159.275 Y53.209 E.01314
G1 X159.275 Y104.716 E1.61497
G1 X158.856 Y104.716 E.01314
G1 X158.856 Y53.209 E1.61497
G1 X158.437 Y53.209 E.01314
G1 X158.437 Y104.716 E1.61497
G1 X158.018 Y104.716 E.01314
M73 P4 R76
M73 Q4 S76
G1 X158.018 Y53.209 E1.61497
G1 X157.599 Y53.209 E.01314
G1 X157.599 Y104.716 E1.61497
G1 X157.18 Y104.716 E.01314
G1 X157.18 Y53.209 E1.61497
G1 X156.805 Y53.209 E.01176
G1 X156.805 Y56.516 E.10369
G1 X156.761 Y56.516 E.00138
G1 X156.761 Y101.409 E1.40759
G1 X156.342 Y101.409 E.01314
G1 X156.342 Y56.516 E1.40759
G1 X155.923 Y56.516 E.01314
G1 X155.923 Y101.409 E1.40759
G1 X155.504 Y101.409 E.01314
G1 X155.504 Y56.516 E1.40759
G1 X155.085 Y56.516 E.01314
G1 X155.085 Y101.409 E1.40759
G1 X154.666 Y101.409 E.01314
M73 P4 R75
G1 X154.666 Y56.516 E1.40759
G1 X154.247 Y56.516 E.01314
G1 X154.247 Y101.409 E1.40759
G1 X153.828 Y101.409 E.01314
G1 X153.828 Y56.516 E1.40759
G1 X153.498 Y56.516 E.01035
G1 X153.498 Y63.13 E.20738
G1 X153.409 Y63.13 E.00278
G1 X153.409 Y98.102 E1.09652
G1 X152.99 Y98.102 E.01314
G1 X152.99 Y63.13 E1.09652
G1 X152.571 Y63.13 E.01314
