; generated by PrusaSlicer 2.5.0+win64 on 2022-11-19 at 00:30:50 UTC


;
;
; 

; external perimeters extrusion width = 0.45mm
; perimeters extrusion width = 0.45mm
; infill extrusion width = 0.45mm
; solid infill extrusion width = 0.45mm
; top infill extrusion width = 0.40mm
; support material extrusion width = 0.35mm
; first layer extrusion width = 0.42mm

M73 P0 R7
M73 Q0 S7
M201 X1000 Y1000 Z200 E5000 ; sets maximum accelerations, mm/sec^2
M203 X200 Y200 Z12 E120 ; sets maximum feedrates, mm / sec
M204 P1250 R1250 T1250 ; sets acceleration (P, T) and retract acceleration (R), mm/sec^2
M205 X8.00 Y8.00 Z0.40 E4.50 ; sets the jerk limits, mm/sec
M205 S0 T0 ; sets the minimum extruding and travel feed rate, mm/sec
M107
;TYPE:Custom
M862.3 P "MK3" ; printer model check
M862.1 P0.4 ; nozzle diameter check
M115 U3.11.0 ; tell printer latest fw version
G90 ; use absolute coordinates
M83 ; extruder relative mode
M104 S215 ; set extruder temp
M140 S60 ; set bed temp
M190 S60 ; wait for bed temp
M109 S215 ; wait for extruder temp
G28 W ; home all without mesh bed level
G80 ; mesh bed leveling

G1 Z0.2 F720
G1 Y-3 F1000 ; go outside print area
G92 E0
G1 X60 E9 F1000 ; intro line
G1 X100 E12.5 F1000 ; intro line

G92 E0
M221 S95

; Don't change E values below. Excessive value can damage the printer.

G21 ; set units to millimeters
G90 ; use absolute coordinates
M83 ; use relative distances for extrusion
M900 K0.05 ; Filament gcode LA 1.5
M900 K30 ; Filament gcode LA 1.0
M107
;LAYER_CHANGE
;Z:0.2
;HEIGHT:0.2
;BEFORE_LAYER_CHANGE
G92 E0.0
;0.2


G1 E-.8 F2100
M73 P1 R7
M73 Q1 S7
G1 Z.4 F720
;AFTER_LAYER_CHANGE
;0.2
G1 X174.913 Y64.572 F10800
G1 Z.2 F720
G1 E.8 F2100
M204 S800
;TYPE:Skirt/Brim
;WIDTH:0.42
G1 F1200
G1 X175.719 Y62.624 E.06609
G1 X183.075 Y55.269 E.32617
G1 X183.638 Y54.835 E.02228
G1 X186.932 Y52.92 E.11948
G1 X188.317 Y52.546 E.04496
G1 X195.517 Y52.546 E.22575
G1 X196.901 Y52.92 E.04496
G1 X200.196 Y54.835 E.11948
G1 X200.759 Y55.269 E.02228
G1 X208.114 Y62.624 E.32617
G1 X208.921 Y64.572 E.06609
M73 P2 R7
M73 Q2 S7
G1 X208.921 Y84.159 E.61413
G1 X208.114 Y86.106 E.06609
G1 X200.759 Y93.462 E.32616
G1 X198.811 Y94.268 E.06609
G1 X185.023 Y94.268 E.43234
G1 X183.075 Y93.462 E.06609
G1 X175.719 Y86.106 E.32616
G1 X174.913 Y84.159 E.06609
G1 X174.913 Y64.632 E.61225
M204 S1000
G1 X175.29 Y64.632 F10800
M204 S800
G1 F1200
M73 Q3 S7
G1 X175.29 Y64.572 E.00188
G1 X175.986 Y62.891 E.05704
G1 X183.342 Y55.535 E.32617
M73 P3 R7
G1 X183.828 Y55.161 E.01923
G1 X187.122 Y53.246 E.11948
G1 X188.317 Y52.923 E.0388
G1 X195.517 Y52.923 E.22575
G1 X196.712 Y53.246 E.0388
G1 X200.006 Y55.161 E.11948
G1 X200.492 Y55.535 E.01923
G1 X207.848 Y62.891 E.32617
G1 X208.544 Y64.572 E.05704
G1 X208.544 Y84.159 E.61413
G1 X207.848 Y85.84 E.05704
G1 X200.492 Y93.195 E.32616
G1 X198.811 Y93.891 E.05704
G1 X185.023 Y93.891 E.43234
G1 X183.342 Y93.195 E.05704
M73 P4 R7
M73 Q4 S7
G1 X175.986 Y85.84 E.32616
G1 X175.29 Y84.159 E.05704
G1 X175.29 Y64.692 E.61037
M204 S1000
; printing object Box_Lid.stl id:0 copy 0
;WIPE_START
G1 F8640
G1 X175.29 Y64.572 E-.02771
G1 X175.986 Y62.891 E-.42009
G1 X176.942 Y61.935 E-.3122
;WIPE_END
G1 E-.04 F2100
G1 Z.6 F720
G1 X195.597 Y58.003 F10800
G1 Z.2 F720
G1 E.8 F2100
M204 S800
;TYPE:Perimeter
;WIDTH:0.419999
G1 F1200
G1 X198.485 Y58.003 E.09055
G1 X199.716 Y59.234 E.05456
;WIDTH:0.432244
G1 X200.711 Y60.219 E.04534
;WIDTH:0.405378
G1 X201.05 Y60.539 E.01404
;WIDTH:0.378512
G1 X201.715 Y61.188 E.02595
;WIDTH:0.364525
G1 X202.37 Y61.849 E.02488
;WIDTH:0.404346
G1 X203.016 Y62.523 E.02804
;WIDTH:0.434181
G1 X203.336 Y62.865 E.01526
;WIDTH:0.464015
G1 X203.657 Y63.207 E.01642
G1 X204.298 Y63.816 E.03095
;WIDTH:0.419999
G1 X205.38 Y64.898 E.04798
G1 X205.38 Y65.121 E.00699
G1 X205.38 Y68.333 E.10073
G1 X205.209 Y67.622 E.02295
G1 X204.935 Y66.742 E.02889
G1 X204.602 Y65.883 E.02889
G1 X204.213 Y65.048 E.02889
G1 X203.77 Y64.24 E.02889
;WIDTH:0.445457
G1 X203.531 Y63.845 E.01545
;WIDTH:0.470914
G1 X203.293 Y63.449 E.01643
G1 X203.006 Y63.089 E.0164
;WIDTH:0.436187
G1 X202.718 Y62.729 E.01507
;WIDTH:0.40146
G1 X202.109 Y62.04 E.02742
;WIDTH:0.363354
G1 X201.466 Y61.383 E.02449
;WIDTH:0.380505
G1 X200.791 Y60.757 E.02583
;WIDTH:0.407808
G1 X200.438 Y60.461 E.01399
;WIDTH:0.43511
G1 X200.084 Y60.166 E.01504
G1 X199.319 Y59.651 E.03005
;WIDTH:0.419999
G1 X198.526 Y59.183 E.02889
G1 X197.703 Y58.769 E.02889
G1 X196.854 Y58.41 E.02889
G1 X195.654 Y58.022 E.03955
M204 S1000
G1 X194.996 Y57.847 F10800
M204 S800
G1 F1200
G1 X194.382 Y57.722 E.01966
G1 X193.278 Y57.563 E.03496
G1 X192.359 Y57.503 E.02889
G1 X191.435 Y57.504 E.02895
G1 X190.468 Y57.573 E.03039
G1 X189.605 Y57.691 E.02732
G1 X188.837 Y57.847 E.02456
G1 X189.104 Y57.437 E.01531
G1 X189.104 Y56.087 E.04233
G1 X194.73 Y56.087 E.17639
G1 X194.73 Y57.437 E.04233
M73 P5 R7
M73 Q5 S7
G1 X194.964 Y57.796 E.01343
M204 S1000
;WIPE_START
G1 F8640
G1 X194.382 Y57.722 E-.13542
G1 X193.278 Y57.563 E-.25748
G1 X192.359 Y57.503 E-.21275
G1 X191.69 Y57.504 E-.15435
;WIPE_END
G1 E-.04 F2100
G1 Z.6 F720
G1 X188.243 Y58.003 F10800
G1 Z.2 F720
G1 E.8 F2100
M204 S800
G1 F1200
G1 X187.767 Y58.137 E.01551
G1 X186.944 Y58.424 E.02732
G1 X185.779 Y58.945 E.04001
G1 X185.275 Y59.201 E.01775
G1 X184.482 Y59.672 E.02889
;WIDTH:0.432243
G1 X183.72 Y60.189 E.02984
G1 X183.367 Y60.486 E.0149
;WIDTH:0.405377
G1 X183.015 Y60.782 E.01387
;WIDTH:0.378511
G1 X182.342 Y61.407 E.02565
;WIDTH:0.364525
G1 X181.7 Y62.066 E.02459
;WIDTH:0.404345
G1 X181.092 Y62.757 E.02768
;WIDTH:0.436071
G1 X180.806 Y63.12 E.01509
;WIDTH:0.467796
G1 X180.52 Y63.482 E.01631
G1 X180.045 Y64.273 E.03256
;WIDTH:0.419999
G1 X179.48 Y65.347 E.03806
G1 X179.217 Y65.918 E.0197
G1 X178.887 Y66.778 E.02889
G1 X178.615 Y67.658 E.02889
G1 X178.454 Y68.333 E.02176
G1 X178.454 Y64.898 E.10772
G1 X179.536 Y63.816 E.04798
;WIDTH:0.445457
G1 X179.877 Y63.493 E.0157
;WIDTH:0.470915
G1 X180.217 Y63.171 E.01669
G1 X180.535 Y62.829 E.01661
;WIDTH:0.436188
G1 X180.852 Y62.487 E.01526
;WIDTH:0.401461
G1 X181.496 Y61.815 E.02774
;WIDTH:0.363355
G1 X182.151 Y61.155 E.02477
;WIDTH:0.380506
G1 X182.818 Y60.506 E.02614
;WIDTH:0.40831
G1 X183.159 Y60.185 E.01421
;WIDTH:0.436114
G1 X184.118 Y59.234 E.04417
;WIDTH:0.419999
G1 X185.349 Y58.003 E.05456
G1 X188.183 Y58.003 E.08887
M204 S1000
;WIPE_START
G1 F8640
G1 X187.767 Y58.137 E-.10096
G1 X186.944 Y58.424 E-.20117
G1 X185.779 Y58.945 E-.29467
G1 X185.275 Y59.201 E-.1307
G1 X185.154 Y59.273 E-.0325
;WIPE_END
G1 E-.04 F2100
G1 Z.6 F720
G1 X178.454 Y74.231 F10800
G1 Z.2 F720
G1 E.8 F2100
M204 S800
G1 F1200
G1 X178.625 Y74.943 E.02295
G1 X178.899 Y75.823 E.02889
G1 X179.231 Y76.682 E.02889
G1 X179.62 Y77.517 E.02889
G1 X180.064 Y78.325 E.02889
G1 X180.561 Y79.101 E.02889
G1 X181.109 Y79.842 E.02889
G1 X181.704 Y80.544 E.02889
G1 X182.346 Y81.206 E.02889
G1 X183.247 Y81.994 E.03755
G1 X183.754 Y82.393 E.02022
G1 X184.417 Y82.848 E.02522
;WIDTH:0.466883
G1 X184.546 Y82.954 E.00589
;WIDTH:0.513766
G1 X184.675 Y83.061 E.00654
;WIDTH:0.560649
G1 X184.804 Y83.167 E.00719
;WIDTH:0.595709
G1 X185.239 Y83.444 E.02372
G1 X185.365 Y83.484 E.00607
;WIDTH:0.551782
G1 X185.491 Y83.523 E.00559
;WIDTH:0.507854
G1 X185.617 Y83.562 E.0051
;WIDTH:0.463927
G1 X185.743 Y83.602 E.00462
;WIDTH:0.419999
G1 X186.979 Y84.155 E.04247
G1 X187.85 Y84.456 E.02889
G1 X188.501 Y84.634 E.02117
G1 X189.642 Y84.88 E.03659
G1 X190.942 Y85.028 E.041
G1 X190.657 Y85.136 E.00957
G1 X190.23 Y85.374 E.01532
G1 X189.864 Y85.663 E.01463
G1 X189.517 Y86.038 E.01601
G1 X189.342 Y86.307 E.01008
G1 X189.052 Y86.894 E.02051
G1 X188.949 Y87.278 E.01248
G1 X188.881 Y87.853 E.01814
G1 X188.903 Y88.214 E.01135
G1 X189.023 Y88.817 E.01926
G1 X189.229 Y89.305 E.01661
G1 X189.462 Y89.686 E.01402
G1 X189.781 Y90.056 E.01532
G1 X190.23 Y90.423 E.01816
G1 X190.832 Y90.727 E.02116
G1 X185.349 Y90.727 E.17193
G1 X178.454 Y83.833 E.30572
G1 X178.454 Y74.291 E.29916
M204 S1000
;WIPE_START
M73 P6 R7
M73 Q6 S7
G1 F8640
G1 X178.625 Y74.943 E-.15555
G1 X178.899 Y75.823 E-.21275
G1 X179.231 Y76.682 E-.21275
G1 X179.559 Y77.385 E-.17895
;WIPE_END
G1 E-.04 F2100
G1 Z.6 F720
G1 X185.153 Y84.258 F10800
G1 Z.2 F720
G1 E.8 F2100
M204 S800
;WIDTH:0.507854
G1 F1200
G1 X185.224 Y84.36 E.00481
;WIDTH:0.463927
G1 X185.329 Y84.511 E.00645
;WIDTH:0.419999
G1 X185.513 Y84.987 E.01599
G1 X185.565 Y85.469 E.0152
G1 X185.497 Y85.894 E.01351
G1 X185.329 Y86.291 E.0135
G1 X185.042 Y86.661 E.01467
G1 X184.738 Y86.908 E.01231
G1 X184.349 Y87.094 E.0135
G1 X183.928 Y87.181 E.0135
G1 X183.497 Y87.164 E.0135
G1 X183.084 Y87.045 E.0135
G1 X182.71 Y86.831 E.0135
G1 X182.399 Y86.533 E.0135
G1 X182.168 Y86.17 E.0135
G1 X182.031 Y85.762 E.0135
G1 X181.999 Y85.388 E.01176
G1 X182.064 Y84.908 E.0152
G1 X182.232 Y84.511 E.01351
G1 X182.49 Y84.167 E.0135
G1 X182.839 Y83.885 E.01406
G1 X183.211 Y83.708 E.01293
G1 X183.633 Y83.621 E.0135
G1 X184.14 Y83.657 E.01594
;WIDTH:0.465395
G1 X184.256 Y83.672 E.0041
;WIDTH:0.51079
G1 X184.371 Y83.688 E.00454
;WIDTH:0.556186
G1 X184.487 Y83.704 E.00498
;WIDTH:0.601581
G1 X184.602 Y83.72 E.00542
G1 X184.908 Y83.905 E.01662
;WIDTH:0.595709
G1 X185.013 Y84.057 E.00848
;WIDTH:0.551782
G1 X185.118 Y84.208 E.0078
M204 S1000
G1 X184.912 Y84.574 F10800
M204 S800
;TYPE:External perimeter
;WIDTH:0.419999
G1 F1200
G1 X185.039 Y84.766 E.00722
G1 X185.14 Y85.043 E.00925
G1 X185.19 Y85.423 E.01203
G1 X185.144 Y85.761 E.01067
G1 X185.018 Y86.077 E.01066
G1 X184.792 Y86.378 E.01182
G1 X184.563 Y86.575 E.00947
G1 X184.259 Y86.728 E.01066
G1 X183.928 Y86.804 E.01066
G1 X183.588 Y86.798 E.01066
G1 X183.259 Y86.712 E.01066
G1 X182.96 Y86.549 E.01066
G1 X182.71 Y86.319 E.01066
G1 X182.521 Y86.036 E.01066
G1 X182.405 Y85.716 E.01066
G1 X182.374 Y85.423 E.00925
G1 X182.416 Y85.042 E.01203
G1 X182.542 Y84.726 E.01067
G1 X182.74 Y84.449 E.01066
G1 X183.014 Y84.219 E.01122
G1 X183.301 Y84.074 E.01009
G1 X183.633 Y83.998 E.01066
G1 X184.05 Y84.023 E.0131
G1 X184.385 Y84.134 E.01107
G1 X184.636 Y84.285 E.00919
G1 X184.878 Y84.524 E.01067
M204 S1000
G1 X185.139 Y84.537 F10800
;WIPE_START
G1 F8640
G1 X185.039 Y84.766 E-.06705
G1 X185.14 Y85.043 E-.06813
G1 X185.19 Y85.423 E-.08858
G1 X185.144 Y85.761 E-.07858
G1 X185.018 Y86.077 E-.07851
G1 X184.792 Y86.378 E-.08708
G1 X184.563 Y86.575 E-.06974
G1 X184.259 Y86.728 E-.07851
G1 X183.928 Y86.804 E-.07851
G1 X183.645 Y86.799 E-.0653
;WIPE_END
G1 E-.04 F2100
G1 Z.6 F720
G1 X193.055 Y85.097 F10800
G1 Z.2 F720
G1 E.8 F2100
M204 S800
;TYPE:Perimeter
G1 F1200
G1 X192.896 Y85.028 E.00544
G1 X193.552 Y84.966 E.02068
G1 X194.229 Y84.874 E.0214
G1 X195.095 Y84.698 E.0277
G1 X195.608 Y84.559 E.01669
G1 X196.89 Y84.141 E.04225
G1 X197.613 Y83.835 E.02463
G1 X198.091 Y83.602 E.01667
;WIDTH:0.4585
G1 X198.208 Y83.564 E.00426
;WIDTH:0.497
G1 X198.326 Y83.526 E.00466
;WIDTH:0.535501
G1 X198.443 Y83.488 E.00505
;WIDTH:0.574001
G1 X198.561 Y83.451 E.00545
;WIDTH:0.601578
G1 X198.959 Y83.232 E.02111
G1 X199.04 Y83.157 E.00512
;WIDTH:0.554026
M73 P6 R6
G1 X199.12 Y83.082 E.00468
;WIDTH:0.506474
G1 X199.201 Y83.006 E.00425
;WIDTH:0.458922
G1 X199.623 Y82.707 E.0179
;WIDTH:0.419999
G1 X200.11 Y82.371 E.01857
G1 X200.587 Y81.994 E.01903
G1 X201.515 Y81.18 E.03873
G1 X202.155 Y80.516 E.02889
G1 X202.749 Y79.812 E.02889
G1 X203.294 Y79.07 E.02889
G1 X203.789 Y78.292 E.02889
G1 X204.23 Y77.484 E.02889
G1 X204.617 Y76.647 E.02889
G1 X204.947 Y75.787 E.02889
G1 X205.219 Y74.907 E.02889
G1 X205.38 Y74.231 E.02176
G1 X205.38 Y83.833 E.30104
G1 X198.485 Y90.727 E.30572
G1 X193.037 Y90.724 E.17081
M73 P7 R6
M73 Q7 S7
G1 X193.395 Y90.55 E.01247
G1 X193.802 Y90.279 E.01532
G1 X194.159 Y89.946 E.01532
G1 X194.459 Y89.559 E.01532
G1 X194.692 Y89.13 E.01532
G1 X194.854 Y88.669 E.01532
G1 X194.939 Y88.188 E.01532
G1 X194.947 Y87.699 E.01532
G1 X194.876 Y87.216 E.01532
G1 X194.739 Y86.785 E.01417
G1 X194.507 Y86.314 E.01646
G1 X194.22 Y85.919 E.01532
G1 X193.872 Y85.575 E.01532
G1 X193.395 Y85.246 E.01816
G1 X193.11 Y85.121 E.00978
M204 S1000
G1 X192.342 Y85.245 F10800
M204 S800
;TYPE:External perimeter
;WIDTH:0.510755
G1 F1200
G1 X192.473 Y85.263 E.00514
;WIDTH:0.486176
G1 X192.778 Y85.389 E.01218
;WIDTH:0.453088
G1 X193.083 Y85.516 E.01127
;WIDTH:0.419999
G1 X193.588 Y85.828 E.01859
G1 X193.918 Y86.146 E.01437
G1 X194.173 Y86.489 E.01342
G1 X194.37 Y86.87 E.01342
G1 X194.503 Y87.276 E.01342
G1 X194.57 Y87.699 E.01342
G1 X194.567 Y88.128 E.01342
G1 X194.496 Y88.55 E.01342
G1 X194.358 Y88.955 E.01342
G1 X194.157 Y89.333 E.01342
G1 X193.898 Y89.674 E.01342
G1 X193.588 Y89.968 E.01342
G1 X193.234 Y90.21 E.01342
;WIDTH:0.453872
G1 X192.993 Y90.32 E.00906
;WIDTH:0.487745
G1 X192.752 Y90.43 E.0098
;WIDTH:0.521617
G1 X192.511 Y90.541 E.01055
G1 X192.007 Y90.6 E.02019
;WIDTH:0.517879
G1 X191.571 Y90.585 E.01722
G1 X191.181 Y90.447 E.01637
;WIDTH:0.468939
G1 X190.79 Y90.308 E.01468
;WIDTH:0.419999
G1 X190.393 Y90.079 E.01437
G1 X190.063 Y89.806 E.01342
G1 X189.781 Y89.484 E.01342
G1 X189.574 Y89.152 E.01227
G1 X189.389 Y88.726 E.01456
G1 X189.279 Y88.184 E.01736
G1 X189.28 Y87.595 E.01846
G1 X189.386 Y87.082 E.01642
G1 X189.554 Y86.682 E.0136
G1 X189.799 Y86.288 E.01456
G1 X190.102 Y85.955 E.01411
G1 X190.418 Y85.701 E.01273
G1 X190.79 Y85.489 E.01342
;WIDTH:0.458328
G1 X191.142 Y85.363 E.01291
;WIDTH:0.496657
G1 X191.495 Y85.238 E.0141
;WIDTH:0.510755
G1 X192.007 Y85.197 E.02001
G1 X192.283 Y85.236 E.01082
M204 S1000
G1 X192.419 Y85.137 F10800
;WIPE_START
G1 F8640
G1 X192.473 Y85.263 E-.04436
G1 X192.778 Y85.389 E-.07628
G1 X193.083 Y85.516 E-.07628
G1 X193.588 Y85.828 E-.13694
G1 X193.918 Y86.146 E-.10583
G1 X194.173 Y86.489 E-.09885
G1 X194.37 Y86.87 E-.09885
G1 X194.503 Y87.276 E-.09885
G1 X194.519 Y87.378 E-.02376
;WIPE_END
G1 E-.04 F2100
G1 Z.6 F720
G1 X195.034 Y58.167 F10800
G1 Z.2 F720
M73 Q7 S6
G1 E.8 F2100
M204 S800
;WIDTH:0.5621
G1 F1200
G1 X195.317 Y58.269 E.013
;WIDTH:0.514733
G1 X195.6 Y58.371 E.01182
;WIDTH:0.467366
G1 X195.884 Y58.473 E.01063
;WIDTH:0.419999
G1 X196.731 Y58.766 E.0281
G1 X197.556 Y59.116 E.0281
G1 X198.356 Y59.519 E.0281
G1 X199.127 Y59.976 E.0281
G1 X199.866 Y60.483 E.0281
G1 X200.57 Y61.038 E.0281
G1 X201.235 Y61.639 E.0281
G1 X201.858 Y62.283 E.0281
G1 X202.437 Y62.967 E.0281
G1 X202.969 Y63.688 E.0281
G1 X203.452 Y64.443 E.0281
G1 X203.883 Y65.229 E.0281
G1 X204.26 Y66.041 E.0281
G1 X204.583 Y66.878 E.0281
G1 X204.849 Y67.733 E.0281
;WIDTH:0.469279
G1 X204.942 Y68.018 E.01063
;WIDTH:0.518559
G1 X205.035 Y68.303 E.01186
;WIDTH:0.567838
G1 X205.129 Y68.588 E.01308
G1 X205.189 Y69.035 E.01968
;WIDTH:0.538233
G1 X205.25 Y69.481 E.01857
;WIDTH:0.508627
G1 X205.318 Y70.378 E.03483
;WIDTH:0.462214
G1 X205.34 Y71.276 E.0313
;WIDTH:0.461278
G1 X205.318 Y72.173 E.03121
;WIDTH:0.506548
G1 X205.251 Y73.068 E.03461
;WIDTH:0.544587
G1 X205.195 Y73.514 E.01877
;WIDTH:0.582626
G1 X205.14 Y73.961 E.02019
G1 X205.068 Y74.175 E.01016
;WIDTH:0.54197
G1 X204.996 Y74.39 E.00939
;WIDTH:0.501313
G1 X204.924 Y74.605 E.00863
;WIDTH:0.460656
G1 X204.852 Y74.819 E.00786
;WIDTH:0.419999
G1 X204.587 Y75.675 E.0281
G1 X204.265 Y76.512 E.0281
G1 X203.888 Y77.325 E.0281
G1 X203.458 Y78.111 E.0281
G1 X202.976 Y78.867 E.0281
G1 X202.445 Y79.588 E.0281
G1 X201.867 Y80.273 E.0281
G1 X201.244 Y80.917 E.0281
G1 X200.353 Y81.698 E.03715
G1 X199.877 Y82.075 E.01903
G1 X199.409 Y82.396 E.01778
G1 X198.364 Y83.041 E.03849
G1 X197.658 Y83.398 E.02483
G1 X196.731 Y83.799 E.03166
G1 X195.896 Y84.088 E.0277
G1 X195.125 Y84.3 E.02507
G1 X194.045 Y84.52 E.03456
G1 X193.265 Y84.624 E.02466
;WIDTH:0.453088
G1 X192.899 Y84.666 E.01257
;WIDTH:0.486176
G1 X192.533 Y84.707 E.01358
;WIDTH:0.528387
G1 X192.359 Y84.739 E.00715
G1 X191.6 Y84.734 E.03063
;WIDTH:0.516902
G1 X191.33 Y84.696 E.01075
;WIDTH:0.468451
G1 X191.06 Y84.658 E.00965
;WIDTH:0.419999
G1 X189.689 Y84.506 E.04325
G1 X188.601 Y84.271 E.03489
G1 X187.947 Y84.091 E.02127
G1 X187.103 Y83.799 E.028
G1 X185.913 Y83.265 E.04089
M73 P8 R6
M73 Q8 S6
G1 X185.467 Y83.039 E.01568
G1 X184.707 Y82.589 E.0277
G1 X184.182 Y82.229 E.01996
G1 X183.262 Y81.526 E.03629
G1 X182.757 Y81.069 E.02135
G1 X181.976 Y80.282 E.03477
