; generated by PrusaSlicer 2.5.0+win64 on 2022-11-19 at 00:31:23 UTC


;
;
; 

; external perimeters extrusion width = 0.45mm
; perimeters extrusion width = 0.45mm
; infill extrusion width = 0.45mm
; solid infill extrusion width = 0.45mm
; top infill extrusion width = 0.40mm
; support material extrusion width = 0.35mm
; first layer extrusion width = 0.42mm

M73 P0 R19
M73 Q0 S19
M201 X1000 Y1000 Z200 E5000 ; sets maximum accelerations, mm/sec^2
M203 X200 Y200 Z12 E120 ; sets maximum feedrates, mm / sec
M204 P1250 R1250 T1250 ; sets acceleration (P, T) and retract acceleration (R), mm/sec^2
M205 X8.00 Y8.00 Z0.40 E4.50 ; sets the jerk limits, mm/sec
M205 S0 T0 ; sets the minimum extruding and travel feed rate, mm/sec
M107
;TYPE:Custom
M862.3 P "MK3" ; printer model check
M862.1 P0.4 ; nozzle diameter check
M115 U3.11.0 ; tell printer latest fw version
G90 ; use absolute coordinates
M83 ; extruder relative mode
M104 S215 ; set extruder temp
M140 S60 ; set bed temp
M190 S60 ; wait for bed temp
M109 S215 ; wait for extruder temp
G28 W ; home all without mesh bed level
G80 ; mesh bed leveling

G1 Z0.2 F720
G1 Y-3 F1000 ; go outside print area
G92 E0
G1 X60 E9 F1000 ; intro line
G1 X100 E12.5 F1000 ; intro line

G92 E0
M221 S95

; Don't change E values below. Excessive value can damage the printer.

G21 ; set units to millimeters
G90 ; use absolute coordinates
M83 ; use relative distances for extrusion
M900 K0.05 ; Filament gcode LA 1.5
M900 K30 ; Filament gcode LA 1.0
M107
;LAYER_CHANGE
;Z:0.2
;HEIGHT:0.2
;BEFORE_LAYER_CHANGE
G92 E0.0
;0.2


G1 E-.8 F2100
G1 Z.4 F720
;AFTER_LAYER_CHANGE
;0.2
G1 X180.132 Y73.351 F10800
G1 Z.2 F720
G1 E.8 F2100
M204 S800
;TYPE:Skirt/Brim
;WIDTH:0.42
G1 F1200
G1 X180.633 Y72.318 E.03603
G1 X181.562 Y70.777 E.0564
G1 X182.242 Y69.85 E.03604
G1 X183.434 Y68.503 E.0564
G1 X184.27 Y67.714 E.03604
G1 X185.685 Y66.604 E.0564
G1 X186.65 Y65.979 E.03604
G1 X188.242 Y65.142 E.0564
G1 X189.304 Y64.702 E.03604
G1 X191.021 Y64.166 E.0564
G1 X192.145 Y63.924 E.03604
G1 X193.93 Y63.707 E.0564
G1 X195.079 Y63.673 E.03604
G1 X196.875 Y63.781 E.0564
G1 X198.809 Y64.126 E.06161
G1 X200.688 Y64.702 E.06161
G1 X201.75 Y65.142 E.03604
G1 X203.485 Y66.065 E.06161
G1 X204.964 Y67.088 E.0564
G1 X206.37 Y68.318 E.05857
G1 X207.228 Y69.223 E.03908
G1 X208.43 Y70.777 E.06161
G1 X209.359 Y72.318 E.0564
G1 X210.135 Y74.017 E.05856
G1 X210.545 Y75.194 E.03908
G1 X211.002 Y77.105 E.06161
G1 X211.216 Y78.891 E.0564
G1 X211.223 Y80.836 E.061
G1 X211.116 Y82 E.03665
G1 X210.788 Y83.769 E.0564
G1 X210.215 Y85.628 E.06101
G1 X209.766 Y86.707 E.03665
G1 X208.927 Y88.298 E.0564
G1 X207.814 Y89.918 E.06161
G1 X207.076 Y90.799 E.03604
G1 X205.8 Y92.067 E.0564
G1 X204.256 Y93.283 E.06161
G1 X200.499 Y95.734 E.14067
G1 X198.996 Y96.18 E.04915
G1 X190.996 Y96.18 E.25083
G1 X189.493 Y95.734 E.04915
G1 X185.077 Y92.801 E.16624
G1 X184.191 Y92.067 E.03604
G1 X182.956 Y90.841 E.05457
G1 X181.597 Y89.125 E.06865
G1 X180.662 Y87.588 E.0564
G1 X180.157 Y86.556 E.03604
G1 X179.515 Y84.875 E.0564
G1 X179.204 Y83.769 E.03604
G1 X178.876 Y82 E.0564
G1 X178.769 Y80.856 E.03604
M73 Q1 S19
G1 X178.766 Y79.057 E.0564
G1 X178.868 Y77.912 E.03604
M73 P1 R19
G1 X179.189 Y76.142 E.0564
G1 X179.496 Y75.034 E.03604
G1 X180.11 Y73.408 E.05452
M204 S1000
G1 X180.463 Y73.541 F10800
M204 S800
G1 F1200
G1 X180.962 Y72.502 E.03612
G1 X181.879 Y70.981 E.05568
G1 X182.532 Y70.092 E.03461
G1 X183.708 Y68.761 E.05568
G1 X184.512 Y68.004 E.03461
G1 X185.909 Y66.907 E.05569
G1 X186.835 Y66.307 E.03461
G1 X188.407 Y65.481 E.05569
G1 X189.427 Y65.058 E.03461
G1 X191.122 Y64.529 E.05569
G1 X192.201 Y64.297 E.03461
G1 X193.964 Y64.083 E.05568
G1 X195.068 Y64.049 E.03461
G1 X196.983 Y64.174 E.06018
G1 X198.73 Y64.495 E.05568
G1 X200.565 Y65.058 E.06018
G1 X201.585 Y65.481 E.03461
G1 X203.28 Y66.382 E.06018
G1 X204.741 Y67.392 E.05569
G1 X206.111 Y68.593 E.05714
G1 X206.938 Y69.464 E.03765
G1 X208.113 Y70.981 E.06018
G1 X209.03 Y72.502 E.05569
G1 X209.823 Y74.25 E.06018
G1 X210.182 Y75.294 E.03461
G1 X210.63 Y77.161 E.06018
G1 X210.84 Y78.924 E.05569
G1 X210.846 Y80.844 E.06018
G1 X210.743 Y81.943 E.03461
G1 X210.385 Y83.828 E.06018
G1 X209.853 Y85.523 E.05569
G1 X209.111 Y87.187 E.05714
G1 X208.524 Y88.235 E.03765
G1 X207.511 Y89.694 E.05568
G1 X206.802 Y90.54 E.03461
G1 X205.543 Y91.792 E.05568
G1 X204.034 Y92.978 E.06018
G1 X200.293 Y95.418 E.14003
G1 X198.996 Y95.803 E.04242
G1 X190.996 Y95.803 E.25083
G1 X189.699 Y95.418 E.04242
G1 X185.299 Y92.496 E.16559
G1 X184.449 Y91.792 E.03461
G1 X183.23 Y90.582 E.05386
G1 X181.913 Y88.919 E.0665
G1 X180.99 Y87.402 E.05568
G1 X180.505 Y86.411 E.03461
G1 X179.871 Y84.752 E.05568
G1 X179.572 Y83.689 E.03461
G1 X179.248 Y81.943 E.05569
G1 X179.146 Y80.844 E.03461
G1 X179.143 Y79.068 E.05569
G1 X179.241 Y77.968 E.03461
G1 X179.558 Y76.221 E.05568
G1 X179.853 Y75.157 E.03461
G1 X180.442 Y73.597 E.05229
M204 S1000
; printing object LockMeca_TEST.stl id:0 copy 0
;WIPE_START
G1 F8640
G1 X180.962 Y72.502 E-.27981
G1 X181.879 Y70.981 E-.41008
G1 X182.059 Y70.737 E-.07011
;WIPE_END
G1 E-.04 F2100
G1 Z.6 F720
G1 X198.731 Y91.471 F10800
G1 Z.2 F720
G1 E.8 F2100
M204 S800
;TYPE:Perimeter
;WIDTH:0.419999
G1 F1200
G1 X198.677 Y91.476 E.00171
G1 X198.409 Y91.601 E.00926
G1 X198.297 Y91.729 E.00534
G1 X198.209 Y92.033 E.00992
G1 X198.209 Y92.638 E.01899
G1 X191.783 Y92.638 E.20148
G1 X191.783 Y92.033 E.01899
G1 X191.695 Y91.729 E.00992
G1 X191.583 Y91.601 E.00534
G1 X191.418 Y91.504 E.006
G1 X191.217 Y91.467 E.00638
G1 X189.676 Y91.467 E.04833
G1 X189.124 Y91.201 E.01921
G1 X188.454 Y90.825 E.02411
G1 X187.807 Y90.41 E.02411
G1 X187.186 Y89.956 E.02411
G1 X186.594 Y89.466 E.02411
G1 X186.032 Y88.94 E.02411
G1 X185.504 Y88.382 E.02411
G1 X185.01 Y87.793 E.02411
G1 X184.553 Y87.175 E.02411
G1 X184.134 Y86.53 E.02411
G1 X183.754 Y85.861 E.02411
G1 X183.416 Y85.171 E.02411
G1 X183.12 Y84.461 E.02411
G1 X182.868 Y83.735 E.02411
G1 X182.659 Y82.995 E.02411
G1 X182.497 Y82.243 E.02411
G1 X182.379 Y81.484 E.02411
G1 X182.308 Y80.718 E.0241
G1 X182.283 Y79.95 E.02411
G1 X182.305 Y79.181 E.02411
G1 X182.372 Y78.428 E.0237
G1 X182.488 Y77.655 E.02453
G1 X182.648 Y76.903 E.0241
G1 X182.853 Y76.162 E.02411
G1 X183.103 Y75.435 E.02411
G1 X183.396 Y74.724 E.02411
G1 X183.732 Y74.032 E.0241
G1 X184.109 Y73.362 E.02411
G1 X184.525 Y72.716 E.02411
G1 X184.98 Y72.096 E.02411
G1 X185.472 Y71.505 E.02411
G1 X185.998 Y70.945 E.02411
G1 X186.558 Y70.417 E.02411
G1 X187.148 Y69.925 E.02411
G1 X187.767 Y69.468 E.02411
G1 X188.401 Y69.058 E.02369
G1 X189.082 Y68.672 E.02453
G1 X189.773 Y68.336 E.0241
G1 X190.483 Y68.041 E.02411
G1 X191.209 Y67.79 E.02411
G1 X191.95 Y67.583 E.02411
G1 X192.702 Y67.422 E.02411
G1 X193.462 Y67.306 E.02411
G1 X194.227 Y67.236 E.02411
G1 X194.996 Y67.213 E.02411
G1 X195.764 Y67.236 E.02411
G1 X196.53 Y67.306 E.02411
G1 X197.29 Y67.422 E.02411
G1 X198.042 Y67.583 E.02411
G1 X198.782 Y67.79 E.02411
G1 X199.509 Y68.041 E.02411
G1 X200.219 Y68.336 E.02411
G1 X200.91 Y68.672 E.02411
G1 X201.58 Y69.051 E.02411
G1 X202.225 Y69.468 E.02411
G1 X202.844 Y69.925 E.02411
G1 X203.434 Y70.417 E.02411
G1 X203.994 Y70.945 E.02411
G1 X204.52 Y71.505 E.02411
G1 X205.012 Y72.096 E.02411
G1 X205.467 Y72.716 E.02411
G1 X205.883 Y73.362 E.02411
G1 X206.26 Y74.032 E.02411
G1 X206.596 Y74.724 E.02411
G1 X206.889 Y75.435 E.02411
G1 X207.139 Y76.162 E.02411
G1 X207.32 Y76.816 E.02126
G1 X207.431 Y77.31 E.01588
G1 X207.626 Y78.505 E.03797
G1 X207.689 Y79.271 E.02409
G1 X207.706 Y80.039 E.0241
G1 X207.668 Y80.883 E.02649
G1 X207.599 Y81.573 E.02172
G1 X207.478 Y82.326 E.02392
G1 X207.313 Y83.063 E.0237
G1 X207.105 Y83.792 E.02375
G1 X206.852 Y84.508 E.02382
G1 X206.496 Y85.333 E.02816
G1 X206.224 Y85.883 E.01925
G1 X205.839 Y86.559 E.02438
G1 X205.423 Y87.197 E.02388
G1 X204.969 Y87.808 E.02388
G1 X204.456 Y88.415 E.0249
;WIDTH:0.459006
G1 X204.142 Y88.712 E.01497
;WIDTH:0.498013
G1 X203.613 Y89.238 E.02822
;WIDTH:0.459006
G1 X203.398 Y89.466 E.01084
;WIDTH:0.419999
G1 X202.806 Y89.956 E.02411
G1 X202.185 Y90.41 E.02411
G1 X201.538 Y90.825 E.02411
G1 X200.867 Y91.201 E.02411
G1 X200.316 Y91.467 E.01921
G1 X198.791 Y91.467 E.04781
M204 S1000
G1 X198.774 Y91.844 F10800
M204 S800
;TYPE:External perimeter
G1 F1200
G1 X198.653 Y91.889 E.00406
G1 X198.586 Y92.033 E.00498
G1 X198.586 Y93.015 E.03081
G1 X191.406 Y93.015 E.22512
G1 X191.406 Y92.033 E.03081
G1 X191.339 Y91.889 E.00498
G1 X191.217 Y91.844 E.00406
G1 X189.59 Y91.844 E.05103
G1 X188.95 Y91.535 E.02227
G1 X188.259 Y91.149 E.02482
G1 X187.593 Y90.721 E.02482
G1 X186.954 Y90.254 E.02482
G1 X186.345 Y89.749 E.02482
G1 X185.766 Y89.208 E.02482
G1 X185.222 Y88.633 E.02482
G1 X184.714 Y88.026 E.02482
G1 X184.243 Y87.39 E.02482
G1 X183.811 Y86.726 E.02482
G1 X183.421 Y86.037 E.02482
G1 X183.072 Y85.326 E.02482
G1 X182.768 Y84.596 E.02482
G1 X182.508 Y83.848 E.02482
G1 X182.293 Y83.086 E.02482
G1 X182.126 Y82.312 E.02482
G1 X182.005 Y81.53 E.02482
G1 X181.932 Y80.742 E.02482
G1 X181.906 Y79.95 E.02482
G1 X181.929 Y79.159 E.02482
G1 X181.998 Y78.384 E.02441
G1 X182.117 Y77.587 E.02524
G1 X182.281 Y76.813 E.02482
G1 X182.493 Y76.05 E.02482
G1 X182.75 Y75.302 E.02482
G1 X183.052 Y74.57 E.02482
G1 X183.397 Y73.858 E.02482
G1 X183.786 Y73.168 E.02482
G1 X184.215 Y72.502 E.02482
M73 Q2 S19
G1 X184.683 Y71.864 E.02482
G1 X185.189 Y71.255 E.02482
G1 X185.731 Y70.678 E.02482
M73 P2 R19
G1 X186.307 Y70.135 E.02482
G1 X186.915 Y69.628 E.02482
G1 X187.552 Y69.158 E.02482
G1 X188.206 Y68.735 E.0244
G1 X188.906 Y68.339 E.02524
G1 X189.618 Y67.992 E.02482
G1 X190.349 Y67.688 E.02482
G1 X191.097 Y67.43 E.02482
G1 X191.86 Y67.217 E.02482
G1 X192.634 Y67.051 E.02482
G1 X193.416 Y66.931 E.02482
G1 X194.205 Y66.86 E.02482
G1 X194.996 Y66.836 E.02482
G1 X195.787 Y66.86 E.02482
G1 X196.576 Y66.931 E.02482
G1 X197.358 Y67.051 E.02482
G1 X198.132 Y67.217 E.02482
G1 X198.895 Y67.43 E.02482
G1 X199.643 Y67.688 E.02482
G1 X200.374 Y67.992 E.02482
G1 X201.086 Y68.339 E.02482
G1 X201.775 Y68.728 E.02482
G1 X202.44 Y69.158 E.02482
G1 X203.077 Y69.628 E.02482
G1 X203.685 Y70.135 E.02482
G1 X204.261 Y70.678 E.02482
G1 X204.803 Y71.255 E.02482
G1 X205.309 Y71.864 E.02482
G1 X205.777 Y72.502 E.02482
G1 X206.206 Y73.167 E.02482
G1 X206.594 Y73.858 E.02482
G1 X206.94 Y74.57 E.02482
G1 X207.242 Y75.302 E.02482
G1 X207.499 Y76.05 E.02482
G1 X207.683 Y76.715 E.02162
G1 X207.799 Y77.231 E.0166
G1 X207.93 Y77.95 E.02292
G1 X208.002 Y78.472 E.01649
G1 X208.066 Y79.26 E.02481
G1 X208.086 Y79.95 E.02165
G1 X208.06 Y80.742 E.02482
G1 X207.987 Y81.53 E.02482
G1 X207.866 Y82.312 E.02482
G1 X207.698 Y83.086 E.02482
G1 X207.484 Y83.848 E.02482
G1 X207.224 Y84.596 E.02482
G1 X206.92 Y85.326 E.02482
G1 X206.577 Y86.025 E.0244
G1 X206.181 Y86.726 E.02524
G1 X205.749 Y87.39 E.02482
G1 X205.278 Y88.026 E.02482
G1 X204.77 Y88.633 E.02482
G1 X204.225 Y89.208 E.02482
G1 X203.647 Y89.749 E.02482
G1 X203.038 Y90.254 E.02482
G1 X202.399 Y90.721 E.02482
G1 X201.733 Y91.149 E.02482
G1 X201.042 Y91.535 E.02482
G1 X200.402 Y91.844 E.02227
G1 X198.834 Y91.844 E.04915
M204 S1000
G1 X198.681 Y91.754 F10800
;WIPE_START
G1 F8640
G1 X198.653 Y91.889 E-.0432
G1 X198.586 Y92.033 E-.03666
G1 X198.586 Y93.015 E-.22689
G1 X196.623 Y93.015 E-.45325
;WIPE_END
G1 E-.04 F2100
G1 Z.6 F720
G1 X200.643 Y82.838 F10800
G1 Z.2 F720
G1 E.8 F2100
M204 S800
;TYPE:Perimeter
G1 F1200
G1 X200.542 Y82.87 E.00332
G1 X189.449 Y82.87 E.34781
G1 X189.128 Y82.769 E.01056
G1 X188.942 Y82.553 E.00896
G1 X188.587 Y81.829 E.02529
G1 X188.353 Y81.11 E.02369
G1 X188.23 Y80.371 E.02349
G1 X188.219 Y79.623 E.02346
G1 X188.321 Y78.879 E.02352
G1 X188.534 Y78.155 E.02366
G1 X188.853 Y77.464 E.02388
G1 X189.27 Y76.816 E.02415
G1 X189.777 Y76.223 E.02447
G1 X190.365 Y75.692 E.02482
G1 X191.023 Y75.232 E.02518
G1 X191.508 Y74.97 E.0173
G1 X192 Y74.74 E.01701
G1 X192.504 Y74.542 E.01698
G1 X193.123 Y74.37 E.02013
G1 X193.879 Y74.226 E.02415
G1 X194.608 Y74.158 E.02295
G1 X195.385 Y74.158 E.02436
G1 X196.094 Y74.223 E.02233
G1 X196.628 Y74.308 E.01696
G1 X197.191 Y74.458 E.01827
G1 X197.701 Y74.626 E.01681
G1 X198.194 Y74.82 E.01664
G1 X198.785 Y75.129 E.02089
G1 X199.412 Y75.539 E.0235
G1 X199.99 Y76.016 E.02348
G1 X200.503 Y76.556 E.02338
G1 X200.943 Y77.153 E.02325
G1 X201.139 Y77.464 E.01151
G1 X201.428 Y78.079 E.02131
G1 X201.652 Y78.797 E.0236
G1 X201.772 Y79.603 E.02555
G1 X201.769 Y80.286 E.0214
G1 X201.665 Y80.98 E.022
G1 X201.446 Y81.722 E.02426
G1 X201.05 Y82.553 E.02885
G1 X200.864 Y82.769 E.00896
G1 X200.701 Y82.82 E.00536
M204 S1000
G1 X200.542 Y82.492 F10800
M204 S800
;TYPE:External perimeter
G1 F1200
G1 X189.449 Y82.492 E.34781
G1 X189.342 Y82.459 E.00352
G1 X188.925 Y81.663 E.02819
G1 X188.713 Y80.997 E.02192
G1 X188.603 Y80.312 E.02174
G1 X188.596 Y79.62 E.02169
G1 X188.695 Y78.934 E.02174
G1 X188.895 Y78.265 E.02191
G1 X189.194 Y77.624 E.02217
G1 X189.585 Y77.023 E.0225
G1 X190.062 Y76.47 E.02289
G1 X190.616 Y75.974 E.02331
G1 X191.237 Y75.542 E.02373
G1 X191.685 Y75.303 E.01591
G1 X192.429 Y74.977 E.02549
G1 X193.222 Y74.734 E.02597
G1 X193.939 Y74.598 E.02288
G1 X194.628 Y74.534 E.0217
G1 X195.365 Y74.535 E.02313
G1 X196.035 Y74.596 E.02107
G1 X196.569 Y74.681 E.01696
G1 X197.092 Y74.822 E.017
G1 X197.854 Y75.091 E.02533
G1 X198.608 Y75.462 E.02634
G1 X199.198 Y75.849 E.02211
G1 X199.739 Y76.297 E.02203
G1 X200.218 Y76.803 E.02186
G1 X200.627 Y77.36 E.02167
G1 X200.956 Y77.961 E.02147
G1 X201.197 Y78.595 E.02129
G1 X201.297 Y78.934 E.01107
G1 X201.395 Y79.614 E.02154
G1 X201.392 Y80.284 E.021
G1 X201.293 Y80.921 E.02023
G1 X201.086 Y81.609 E.02251
G1 X200.712 Y82.387 E.02708
G1 X200.597 Y82.473 E.00451
M204 S1000
G1 X200.469 Y82.886 F10800
;WIPE_START
G1 F8640
G1 X197.305 Y82.479 E-.76
;WIPE_END
G1 E-.04 F2100
G1 Z.6 F720
G1 X194.351 Y68.013 F10800
G1 Z.2 F720
G1 E.8 F2100
M204 S800
;TYPE:Perimeter
G1 F1200
G1 X194.659 Y67.94 E.0099
G1 X195.045 Y67.915 E.01215
G1 X195.639 Y68.009 E.01884
G1 X196.134 Y68.206 E.01671
G1 X196.551 Y68.499 E.01598
G1 X196.836 Y68.796 E.01291
G1 X197.065 Y69.138 E.01291
G1 X197.231 Y69.514 E.0129
G1 X197.329 Y69.914 E.01291
G1 X197.357 Y70.325 E.01291
G1 X197.302 Y70.771 E.01411
G1 X197.197 Y71.129 E.01169
G1 X197.016 Y71.499 E.0129
G1 X196.773 Y71.831 E.01291
G1 X196.321 Y72.224 E.01876
G1 X195.85 Y72.477 E.01679
G1 X195.357 Y72.609 E.01598
G1 X194.947 Y72.636 E.01291
G1 X194.36 Y72.544 E.01862
G1 X193.832 Y72.328 E.01789
G1 X193.441 Y72.052 E.01501
G1 X193.156 Y71.755 E.0129
G1 X192.905 Y71.367 E.0145
G1 X192.761 Y71.037 E.01129
G1 X192.662 Y70.627 E.01322
G1 X192.635 Y70.226 E.01259
G1 X192.68 Y69.817 E.01291
G1 X192.794 Y69.422 E.01291
G1 X192.976 Y69.052 E.01291
G1 X193.327 Y68.613 E.01764
G1 X193.773 Y68.256 E.01791
G1 X194.293 Y68.026 E.01782
M204 S1000
G1 X194.309 Y68.432 F10800
M204 S800
;TYPE:External perimeter
G1 F1200
G1 X194.441 Y68.377 E.0045
G1 X194.98 Y68.29 E.01709
G1 X195.357 Y68.323 E.01188
G1 X195.69 Y68.416 E.01085
G1 X196.003 Y68.564 E.01085
G1 X196.398 Y68.879 E.01585
G1 X196.723 Y69.297 E.0166
G1 X196.867 Y69.612 E.01085
G1 X196.954 Y69.947 E.01085
G1 X196.981 Y70.292 E.01085
G1 X196.938 Y70.674 E.01205
G1 X196.745 Y71.207 E.01779
G1 X196.506 Y71.564 E.01347
G1 X196.105 Y71.915 E.0167
G1 X195.659 Y72.146 E.01575
G1 X195.324 Y72.233 E.01085
G1 X194.979 Y72.261 E.01085
G1 X194.458 Y72.18 E.01656
G1 X193.996 Y71.988 E.01568
G1 X193.707 Y71.786 E.01105
G1 X193.465 Y71.539 E.01085
G1 X193.247 Y71.207 E.01244
G1 X193.057 Y70.685 E.01741
G1 X193.011 Y70.259 E.01344
G1 X193.044 Y69.915 E.01085
G1 X193.136 Y69.581 E.01085
G1 X193.285 Y69.269 E.01085
G1 X193.593 Y68.879 E.01558
G1 X193.989 Y68.564 E.01585
G1 X194.253 Y68.455 E.00897
M204 S1000
G1 X194.32 Y68.289 F10800
;WIPE_START
G1 F8640
G1 X194.441 Y68.377 E-.047
G1 X194.98 Y68.29 E-.12583
G1 X195.357 Y68.323 E-.08746
G1 X195.69 Y68.416 E-.0799
G1 X196.003 Y68.564 E-.0799
G1 X196.398 Y68.879 E-.11674
G1 X196.723 Y69.297 E-.12223
G1 X196.867 Y69.612 E-.0799
G1 X196.89 Y69.7 E-.02104
;WIPE_END
G1 E-.04 F2100
G1 Z.6 F720
G1 X203.302 Y84.159 F10800
G1 Z.2 F720
G1 E.8 F2100
M204 S800
