; generated by PrusaSlicer 2.5.0+win64 on 2022-11-11 at 22:45:22 UTC


;
;
; 

; external perimeters extrusion width = 0.45mm
; perimeters extrusion width = 0.45mm
; infill extrusion width = 0.45mm
; solid infill extrusion width = 0.45mm
; top infill extrusion width = 0.40mm
; support material extrusion width = 0.35mm
; first layer extrusion width = 0.42mm

; external perimeters extrusion width = 0.45mm
; perimeters extrusion width = 0.45mm
; infill extrusion width = 0.45mm
; solid infill extrusion width = 0.45mm
; top infill extrusion width = 0.40mm
; support material extrusion width = 0.35mm
; first layer extrusion width = 0.42mm

; external perimeters extrusion width = 0.45mm
; perimeters extrusion width = 0.45mm
; infill extrusion width = 0.45mm
; solid infill extrusion width = 0.45mm
; top infill extrusion width = 0.40mm
; support material extrusion width = 0.35mm
; first layer extrusion width = 0.42mm

M73 P0 R5
M73 Q0 S5
M201 X1000 Y1000 Z200 E5000 ; sets maximum accelerations, mm/sec^2
M203 X200 Y200 Z12 E120 ; sets maximum feedrates, mm / sec
M204 P1250 R1250 T1250 ; sets acceleration (P, T) and retract acceleration (R), mm/sec^2
M205 X8.00 Y8.00 Z0.40 E4.50 ; sets the jerk limits, mm/sec
M205 S0 T0 ; sets the minimum extruding and travel feed rate, mm/sec
M107
;TYPE:Custom
M862.3 P "MK3" ; printer model check
M862.1 P0.4 ; nozzle diameter check
M115 U3.11.0 ; tell printer latest fw version
G90 ; use absolute coordinates
M83 ; extruder relative mode
M104 S215 ; set extruder temp
M140 S60 ; set bed temp
M190 S60 ; wait for bed temp
M109 S215 ; wait for extruder temp
G28 W ; home all without mesh bed level
G80 ; mesh bed leveling

G1 Z0.2 F720
G1 Y-3 F1000 ; go outside print area
G92 E0
G1 X60 E9 F1000 ; intro line
G1 X100 E12.5 F1000 ; intro line

G92 E0
M221 S95

; Don't change E values below. Excessive value can damage the printer.

G21 ; set units to millimeters
G90 ; use absolute coordinates
M83 ; use relative distances for extrusion
M900 K0.05 ; Filament gcode LA 1.5
M900 K30 ; Filament gcode LA 1.0
M107
;LAYER_CHANGE
;Z:0.2
;HEIGHT:0.2
;BEFORE_LAYER_CHANGE
G92 E0.0
;0.2


M73 P1 R5
M73 Q1 S5
G1 E-.8 F2100
G1 Z.4 F720
;AFTER_LAYER_CHANGE
;0.2
G1 X105.496 Y98.717 F10800
G1 Z.2 F720
M73 P2 R5
M73 Q2 S5
G1 E.8 F2100
M204 S800
;TYPE:Skirt/Brim
;WIDTH:0.42
G1 F1200
G1 X106.937 Y97.578 E.0576
G1 X107.854 Y97.073 E.03283
G1 X108.825 Y96.682 E.03283
G1 X109.836 Y96.409 E.03283
G1 X110.872 Y96.259 E.03283
G1 X125.107 Y96.154 E.44633
G1 X126.508 Y96.259 E.04406
G1 X127.531 Y96.482 E.03283
G1 X137.967 Y99.561 E.34116
G1 X138.964 Y99.968 E.03375
G1 X139.772 Y100.486 E.03008
G1 X140.608 Y101.28 E.03616
G1 X141.264 Y102.229 E.03616
G1 X141.652 Y103.111 E.03023
G1 X141.908 Y104.236 E.03616
G1 X141.928 Y105.389 E.03616
G1 X141.71 Y106.522 E.03616
G1 X141.264 Y107.585 E.03616
G1 X140.732 Y108.384 E.03008
G1 X140.212 Y108.951 E.02413
G1 X139.619 Y109.442 E.02413
G1 X138.964 Y109.846 E.02413
G1 X138.259 Y110.156 E.02414
G1 X127.531 Y113.332 E.3508
G1 X126.508 Y113.555 E.03283
M73 Q3 S5
G1 X125.466 Y113.655 E.03283
G1 X111.534 Y113.734 E.43684
G1 X109.998 Y113.585 E.04839
M73 P3 R5
G1 X108.334 Y113.099 E.05435
G1 X107.388 Y112.65 E.03283
G1 X106.638 Y112.186 E.02767
G1 X105.315 Y111.065 E.05435
G1 X104.33 Y109.844 E.0492
G1 X103.579 Y108.466 E.0492
G1 X103.269 Y107.64 E.02767
G1 X103.011 Y106.625 E.03283
G1 X102.856 Y104.899 E.05435
G1 X103.067 Y103.074 E.0576
G1 X103.579 Y101.496 E.052
G1 X104.423 Y99.982 E.05435
G1 X105.457 Y98.763 E.05012
M204 S1000
G1 X105.743 Y99.006 F10800
M204 S800
G1 F1200
G1 X107.145 Y97.893 E.05611
G1 X108.023 Y97.411 E.03141
G1 X108.953 Y97.037 E.03141
G1 X109.92 Y96.777 E.03141
G1 X110.912 Y96.634 E.03141
G1 X125.101 Y96.531 E.44492
G1 X126.458 Y96.633 E.04264
G1 X127.511 Y96.868 E.03385
G1 X137.953 Y99.952 E.34139
G1 X138.794 Y100.305 E.0286
M73 Q4 S5
G1 X139.536 Y100.78 E.02763
G1 X140.317 Y101.52 E.03372
G1 X140.849 Y102.261 E.0286
G1 X141.297 Y103.239 E.03372
M73 P4 R5
G1 X141.51 Y104.114 E.02824
G1 X141.565 Y105.169 E.03311
G1 X141.4 Y106.231 E.03372
G1 X141.092 Y107.09 E.0286
G1 X140.542 Y108.014 E.03372
G1 X139.536 Y109.034 E.0449
G1 X138.794 Y109.509 E.02763
G1 X138.138 Y109.799 E.0225
G1 X127.436 Y112.967 E.34993
G1 X126.458 Y113.182 E.03141
G1 X125.46 Y113.278 E.03141
G1 X111.532 Y113.357 E.43673
G1 X110.06 Y113.213 E.04638
G1 X108.482 Y112.752 E.05152
G1 X107.577 Y112.323 E.03141
G1 X106.845 Y111.871 E.02696
G1 X105.592 Y110.809 E.05152
G1 X105.026 Y110.161 E.02696
G1 X104.455 Y109.338 E.03141
G1 X103.742 Y107.857 E.05152
G1 X103.354 Y106.407 E.04708
G1 X103.241 Y104.641 E.05548
G1 X103.454 Y103.064 E.04988
G1 X103.986 Y101.509 E.05152
G1 X104.728 Y100.204 E.04708
G1 X105.704 Y99.051 E.04736
M204 S1000
; printing object PushButtonRing.stl id:2 copy 0
;WIPE_START
G1 F8640
G1 X107.145 Y97.893 E-.42683
G1 X108.023 Y97.411 E-.23134
G1 X108.432 Y97.246 E-.10183
;WIPE_END
G1 E-.04 F2100
G1 Z.6 F720
G1 X111.898 Y101.88 F10800
G1 Z.2 F720
G1 E.8 F2100
M204 S800
;TYPE:Support material
M73 Q5 S5
G1 F1200
G1 X112.367 Y101.96 E.01493
G1 X112.593 Y102.026 E.00739
G1 X113.028 Y102.208 E.01477
G1 X113.43 Y102.454 E.01477
G1 X113.616 Y102.599 E.00739
G1 X113.952 Y102.929 E.01477
G1 X114.234 Y103.306 E.01477
G1 X114.455 Y103.717 E.01461
G1 X114.544 Y103.94 E.00755
M73 P5 R5
G1 X114.667 Y104.395 E.01477
G1 X114.72 Y104.858 E.01461
G1 X114.721 Y105.099 E.00755
G1 X114.667 Y105.567 E.01477
G1 X114.614 Y105.797 E.00739
G1 X114.457 Y106.241 E.01477
G1 X114.234 Y106.656 E.01477
G1 X114.1 Y106.85 E.00739
G1 X113.79 Y107.204 E.01477
G1 X113.616 Y107.363 E.00739
G1 X113.238 Y107.635 E.01461
G1 X112.814 Y107.853 E.01493
G1 X112.593 Y107.936 E.00739
G1 X112.136 Y108.05 E.01477
G1 X111.903 Y108.082 E.00739
G1 X111.432 Y108.09 E.01477
G1 X110.965 Y108.028 E.01477
G1 X110.736 Y107.971 E.00739
G1 X110.295 Y107.805 E.01477
G1 X109.884 Y107.575 E.01477
G1 X109.693 Y107.437 E.00739
G1 X109.345 Y107.12 E.01477
G1 X109.051 Y106.758 E.01461
G1 X108.921 Y106.555 E.00755
G1 X108.714 Y106.132 E.01477
G1 X108.636 Y105.91 E.00739
G1 X108.574 Y105.682 E.00739
G1 X108.503 Y105.216 E.01477
G1 X108.503 Y104.745 E.01477
G1 X108.574 Y104.28 E.01477
G1 X108.636 Y104.052 E.00739
G1 X108.81 Y103.614 E.01477
G1 X109.048 Y103.208 E.01477
G1 X109.189 Y103.019 E.00739
G1 X109.513 Y102.677 E.01477
G1 X109.884 Y102.387 E.01477
G1 X110.085 Y102.264 E.00739
G1 X110.513 Y102.066 E.01477
G1 X110.965 Y101.934 E.01477
G1 X111.197 Y101.894 E.00739
G1 X111.432 Y101.871 E.00739
G1 X111.841 Y101.877 E.01284
M204 S1000
G1 X114.121 Y106.514 F10800
M204 S800
G1 F1200
G1 X114.121 Y103.807 E.08487
G1 X113.948 Y103.489 E.01135
G1 X113.702 Y103.16 E.01287
G1 X113.702 Y106.802 E.11418
G1 X113.552 Y106.962 E.00687
G1 X113.283 Y107.191 E.01109
G1 X113.283 Y102.77 E.13862
G1 X113.056 Y102.614 E.00865
G1 X112.864 Y102.507 E.00689
G1 X112.864 Y107.455 E.15516
G1 X112.445 Y107.625 E.01418
G1 X112.445 Y102.336 E.16583
G1 X112.026 Y102.239 E.01349
G1 X112.026 Y107.723 E.17194
G1 X111.607 Y107.754 E.01317
G1 X111.607 Y102.207 E.17392
G1 X111.188 Y102.24 E.01318
G1 X111.188 Y107.722 E.17191
G1 X110.769 Y107.624 E.01349
G1 X110.769 Y102.338 E.16575
G1 X110.35 Y102.51 E.0142
M73 Q6 S5
G1 X110.35 Y107.452 E.15496
M73 P6 R5
G1 X109.931 Y107.19 E.01549
G1 X109.931 Y102.772 E.13854
G1 X109.741 Y102.928 E.00772
G1 X109.512 Y103.166 E.01034
G1 X109.512 Y106.796 E.11384
G1 X109.327 Y106.561 E.0094
G1 X109.093 Y106.15 E.01483
G1 X109.093 Y103.452 E.08457
M204 S1000
;WIPE_START
G1 F8640
G1 X109.093 Y106.15 E-.62283
G1 X109.327 Y106.561 E-.10918
G1 X109.402 Y106.656 E-.02799
;WIPE_END
G1 E-.04 F2100
G1 Z.6 F720
G1 X114.148 Y100.533 F10800
G1 Z.2 F720
G1 E.8 F2100
M204 S800
;TYPE:Perimeter
;WIDTH:0.592376
G1 F1200
G1 X114.512 Y100.772 E.0199
;WIDTH:0.586097
G1 X114.946 Y101.089 E.02429
;WIDTH:0.587349
G1 X115.373 Y101.503 E.02689
G1 X115.977 Y102.296 E.04513
;WIDTH:0.580055
G1 X116.272 Y102.851 E.02808
;WIDTH:0.592768
G1 X116.463 Y103.34 E.02399
G1 X116.629 Y103.93 E.02804
;WIDTH:0.593364
G1 X116.713 Y104.538 E.02808
G1 X116.718 Y105.3 E.03488
;WIDTH:0.588706
G1 X116.624 Y106.036 E.03368
G1 X116.535 Y106.39 E.01657
;WIDTH:0.577743
G1 X116.313 Y106.988 E.02834
;WIDTH:0.592784
G1 X116.069 Y107.502 E.02606
G1 X115.652 Y108.122 E.03413
;WIDTH:0.583698
G1 X115.131 Y108.708 E.03528
G1 X114.659 Y109.104 E.0277
;WIDTH:0.59341
G1 X114.156 Y109.427 E.02734
G1 X113.473 Y109.749 E.03457
;WIDTH:0.5883
G1 X112.772 Y109.971 E.03335
G1 X112.364 Y110.038 E.01876
;WIDTH:0.592946
G1 X111.808 Y110.1 E.0256
G1 X111.209 Y110.095 E.02737
;WIDTH:0.582481
G1 X110.511 Y109.988 E.03172
;WIDTH:0.580295
G1 X109.733 Y109.74 E.03646
;WIDTH:0.578602
G1 X109.033 Y109.412 E.03446
G1 X108.402 Y108.966 E.03439
;WIDTH:0.576718
G1 X107.856 Y108.464 E.03293
;WIDTH:0.5795
G1 X107.342 Y107.822 E.03671
;WIDTH:0.585994
G1 X106.913 Y107.039 E.04032
G1 X106.69 Y106.419 E.02976
;WIDTH:0.585624
G1 X106.515 Y105.563 E.0394
;WIDTH:0.591882
G1 X106.484 Y104.964 E.02737
G1 X106.52 Y104.353 E.02798
;WIDTH:0.58772
G1 X106.738 Y103.388 E.04479
;WIDTH:0.57801
G1 X106.983 Y102.8 E.02835
;WIDTH:0.5859
G1 X107.223 Y102.325 E.02401
G1 X107.562 Y101.832 E.02704
G1 X107.975 Y101.364 E.02817
;WIDTH:0.582554
G1 X108.691 Y100.763 E.04195
;WIDTH:0.586178
G1 X109.193 Y100.458 E.02653
G1 X109.746 Y100.205 E.02746
;WIDTH:0.585787
G1 X110.242 Y100.053 E.02341
;WIDTH:0.577861
G1 X110.998 Y99.893 E.03438
G1 X111.664 Y99.867 E.02968
;WIDTH:0.586712
G1 X112.174 Y99.886 E.02307
;WIDTH:0.589223
G1 X112.749 Y99.982 E.02649
G1 X113.309 Y100.146 E.0265
G1 X113.691 Y100.311 E.01889
;WIDTH:0.592376
G1 X114.094 Y100.507 E.02048
M204 S1000
G1 X114.403 Y100.141 F10800
M204 S800
;TYPE:External perimeter
;WIDTH:0.419999
G1 F1200
G1 X115.264 Y100.757 E.0332
G1 X115.738 Y101.221 E.02078
G1 X116.376 Y102.074 E.0334
G1 X116.695 Y102.678 E.02142
G1 X116.91 Y103.217 E.01819
M73 Q7 S5
G1 X117.102 Y103.995 E.02514
G1 X117.177 Y104.524 E.01676
G1 X117.195 Y105.146 E.01949
G1 X117.075 Y106.146 E.03159
G1 X116.899 Y106.785 E.02079
G1 X116.489 Y107.705 E.03159
M73 P7 R5
G1 X116.132 Y108.264 E.0208
G1 X115.469 Y109.023 E.03158
G1 X114.961 Y109.453 E.02087
G1 X114.403 Y109.822 E.02096
G1 X113.808 Y110.12 E.02088
G1 X112.852 Y110.43 E.03151
G1 X111.856 Y110.565 E.03151
G1 X111.191 Y110.555 E.02085
G1 X110.528 Y110.465 E.02097
G1 X109.884 Y110.297 E.02088
G1 X108.957 Y109.902 E.03158
G1 X108.393 Y109.553 E.0208
G1 X107.627 Y108.903 E.03151
G1 X106.99 Y108.129 E.03142
G1 X106.501 Y107.252 E.0315
G1 X106.268 Y106.631 E.02079
G1 X106.059 Y105.645 E.03159
G1 X106.019 Y104.981 E.02088
G1 X106.059 Y104.314 E.02096
G1 X106.178 Y103.656 E.02096
G1 X106.375 Y103.019 E.02088
G1 X106.812 Y102.111 E.0316
G1 X107.187 Y101.562 E.02085
G1 X107.625 Y101.06 E.02089
G1 X108.393 Y100.409 E.03158
G1 X108.96 Y100.059 E.02087
G1 X109.564 Y99.779 E.02088
G1 X110.531 Y99.496 E.03158
G1 X111.188 Y99.407 E.02079
G1 X112.196 Y99.422 E.03159
G1 X112.852 Y99.532 E.02087
G1 X113.492 Y99.718 E.02088
G1 X114.349 Y100.115 E.02962
M204 S1000
G1 X114.397 Y100.541 F10800
;WIPE_START
G1 F8640
G1 X115.264 Y100.757 E-.25812
G1 X115.738 Y101.221 E-.15304
G1 X116.376 Y102.074 E-.24594
G1 X116.584 Y102.468 E-.1029
;WIPE_END
G1 E-.04 F2100
G1 Z.6 F720
G1 X115.767 Y103.053 F10800
G1 Z.2 F720
G1 E.8 F2100
M204 S800
;TYPE:Perimeter
;WIDTH:0.592768
G1 F1200
G1 X115.936 Y103.495 E.02163
G1 X116.103 Y104.046 E.02631
;WIDTH:0.593364
G1 X116.164 Y104.567 E.02402
G1 X116.197 Y105.082 E.02361
;WIDTH:0.588706
G1 X116.083 Y105.962 E.04029
G1 X115.952 Y106.447 E.02277
;WIDTH:0.585919
G1 X115.772 Y106.902 E.02211
;WIDTH:0.582456
G1 X115.324 Y107.676 E.04012
G1 X114.883 Y108.194 E.03053
;WIDTH:0.582695
G1 X114.348 Y108.664 E.03194
;WIDTH:0.59341
G1 X113.899 Y108.94 E.02416
G1 X113.452 Y109.184 E.02329
;WIDTH:0.5883
G1 X112.612 Y109.45 E.03996
G1 X112.313 Y109.511 E.01381
;WIDTH:0.592946
G1 X111.796 Y109.551 E.02372
G1 X111.281 Y109.56 E.02359
;WIDTH:0.582481
G1 X110.745 Y109.489 E.02425
;WIDTH:0.58578
G1 X110.195 Y109.342 E.02568
G1 X109.407 Y109.01 E.03861
;WIDTH:0.585484
G1 X108.974 Y108.734 E.02315
G1 X108.332 Y108.196 E.0378
;WIDTH:0.581084
G1 X107.866 Y107.636 E.03259
;WIDTH:0.576835
G1 X107.526 Y107.07 E.0293
;WIDTH:0.579843
G1 X107.243 Y106.4 E.03249
G1 X107.081 Y105.721 E.03116
;WIDTH:0.591882
G1 X107.032 Y104.971 E.03432
G1 X107.056 Y104.453 E.02367
;WIDTH:0.590559
G1 X107.164 Y103.882 E.02643
G1 X107.309 Y103.387 E.02348
;WIDTH:0.585571
G1 X107.509 Y102.925 E.02273
;WIDTH:0.577682
G1 X107.808 Y102.408 E.02653
;WIDTH:0.578346
G1 X108.239 Y101.864 E.03091
;WIDTH:0.58346
G1 X108.997 Y101.207 E.04512
;WIDTH:0.586178
G1 X109.44 Y100.941 E.02332
G1 X109.917 Y100.72 E.02377
;WIDTH:0.585836
G1 X110.74 Y100.479 E.03867
G1 X111.248 Y100.41 E.02316
;WIDTH:0.586712
G1 X112.106 Y100.425 E.03879
;WIDTH:0.589302
G1 X112.612 Y100.512 E.02333
G1 X113.156 Y100.67 E.02576
G1 X113.45 Y100.782 E.0143
;WIDTH:0.592376
G1 X113.898 Y101.022 E.02322
G1 X114.33 Y101.289 E.02318
;WIDTH:0.577604
G1 X114.788 Y101.671 E.02653
;WIDTH:0.578311
G1 X115.437 Y102.453 E.04524
;WIDTH:0.580528
G1 X115.484 Y102.518 E.00358
;WIDTH:0.584271
G1 X115.745 Y102.997 E.02458
M204 S1000
G1 X115.328 Y103.191 F10800
M204 S800
;TYPE:External perimeter
;WIDTH:0.419999
G1 F1200
G1 X115.665 Y104.183 E.03282
G1 X115.74 Y105.116 E.02938
M73 Q8 S5
G1 X115.627 Y105.893 E.0246
G1 X115.519 Y106.293 E.013
G1 X115.38 Y106.673 E.01267
G1 X114.927 Y107.447 E.02815
G1 X114.54 Y107.895 E.01856
M73 P8 R5
G1 X114.051 Y108.316 E.02022
G1 X113.228 Y108.785 E.0297
G1 X112.288 Y109.059 E.0307
G1 X111.395 Y109.109 E.02804
G1 X110.804 Y109.035 E.01867
G1 X110.321 Y108.9 E.01573
G1 X109.6 Y108.595 E.02455
G1 X109.077 Y108.25 E.01966
G1 X108.639 Y107.856 E.01845
G1 X108.218 Y107.347 E.02073
G1 X107.917 Y106.84 E.01848
G1 X107.667 Y106.228 E.02073
G1 X107.523 Y105.619 E.01963
G1 X107.495 Y104.953 E.02089
G1 X107.509 Y104.539 E.01298
G1 X107.656 Y103.769 E.0246
G1 X107.887 Y103.179 E.01984
G1 X108.201 Y102.639 E.0196
G1 X108.593 Y102.152 E.01961
G1 X109.293 Y101.558 E.02878
G1 X109.852 Y101.238 E.0202
G1 X110.436 Y101.016 E.0196
G1 X111.049 Y100.884 E.01963
G1 X111.636 Y100.847 E.01845
G1 X112.294 Y100.904 E.02073
G1 X113.229 Y101.178 E.03052
G1 X114.009 Y101.615 E.02804
G1 X114.494 Y102.02 E.01982
G1 X115.083 Y102.74 E.02917
G1 X115.3 Y103.138 E.01422
M204 S1000
G1 X115.726 Y103.231 F10800
; stop printing object PushButtonRing.stl id:2 copy 0
; printing object PushButtonRing.stl id:1 copy 0
;WIPE_START
G1 F8640
G1 X115.665 Y104.183 E-.25538
G1 X115.74 Y105.116 E-.21633
G1 X115.627 Y105.893 E-.18115
G1 X115.519 Y106.293 E-.09577
G1 X115.502 Y106.339 E-.01137
;WIPE_END
G1 E-.04 F2100
G1 Z.6 F720
G1 X127.695 Y100.459 F10800
G1 Z.2 F720
G1 E.8 F2100
M204 S800
;TYPE:Perimeter
;WIDTH:0.592376
G1 F1200
G1 X128.06 Y100.698 E.0199
;WIDTH:0.586097
G1 X128.493 Y101.016 E.02429
;WIDTH:0.587349
G1 X128.92 Y101.429 E.02689
G1 X129.524 Y102.222 E.04513
;WIDTH:0.580055
G1 X129.819 Y102.777 E.02808
;WIDTH:0.592768
G1 X130.01 Y103.266 E.02399
G1 X130.176 Y103.856 E.02804
;WIDTH:0.593364
G1 X130.26 Y104.464 E.02808
G1 X130.265 Y105.226 E.03488
;WIDTH:0.588706
G1 X130.171 Y105.962 E.03368
G1 X130.082 Y106.316 E.01657
;WIDTH:0.577743
G1 X129.86 Y106.914 E.02834
;WIDTH:0.592784
G1 X129.616 Y107.429 E.02606
G1 X129.199 Y108.048 E.03413
;WIDTH:0.583698
G1 X128.678 Y108.634 E.03528
G1 X128.206 Y109.03 E.0277
;WIDTH:0.59341
G1 X127.703 Y109.353 E.02734
G1 X127.02 Y109.675 E.03457
;WIDTH:0.5883
G1 X126.319 Y109.897 E.03335
G1 X125.911 Y109.965 E.01876
;WIDTH:0.592946
G1 X125.355 Y110.027 E.0256
G1 X124.757 Y110.021 E.02737
;WIDTH:0.582481
G1 X124.058 Y109.914 E.03172
;WIDTH:0.580295
G1 X123.28 Y109.666 E.03646
;WIDTH:0.578602
G1 X122.58 Y109.338 E.03446
G1 X121.949 Y108.892 E.03439
;WIDTH:0.576718
G1 X121.403 Y108.391 E.03293
;WIDTH:0.5795
G1 X120.889 Y107.748 E.03671
;WIDTH:0.585994
G1 X120.46 Y106.965 E.04032
G1 X120.237 Y106.345 E.02976
;WIDTH:0.585624
G1 X120.062 Y105.489 E.0394
;WIDTH:0.591882
G1 X120.031 Y104.891 E.02737
G1 X120.067 Y104.279 E.02798
;WIDTH:0.58772
G1 X120.285 Y103.314 E.04479
