; generated by PrusaSlicer 2.5.0+win64 on 2022-11-11 at 22:47:35 UTC


;
;
; 

; external perimeters extrusion width = 0.45mm
; perimeters extrusion width = 0.45mm
; infill extrusion width = 0.45mm
; solid infill extrusion width = 0.45mm
; top infill extrusion width = 0.40mm
; first layer extrusion width = 0.42mm

; external perimeters extrusion width = 0.45mm
; perimeters extrusion width = 0.45mm
; infill extrusion width = 0.45mm
; solid infill extrusion width = 0.45mm
; top infill extrusion width = 0.40mm
; first layer extrusion width = 0.42mm

M73 P0 R12
M73 Q0 S11
M201 X1000 Y1000 Z200 E5000 ; sets maximum accelerations, mm/sec^2
M203 X200 Y200 Z12 E120 ; sets maximum feedrates, mm / sec
M204 P1250 R1250 T1250 ; sets acceleration (P, T) and retract acceleration (R), mm/sec^2
M205 X8.00 Y8.00 Z0.40 E4.50 ; sets the jerk limits, mm/sec
M205 S0 T0 ; sets the minimum extruding and travel feed rate, mm/sec
M107
;TYPE:Custom
M862.3 P "MK3" ; printer model check
M862.1 P0.4 ; nozzle diameter check
M115 U3.11.0 ; tell printer latest fw version
G90 ; use absolute coordinates
M83 ; extruder relative mode
M104 S215 ; set extruder temp
M140 S60 ; set bed temp
M190 S60 ; wait for bed temp
M109 S215 ; wait for extruder temp
G28 W ; home all without mesh bed level
G80 ; mesh bed leveling

G1 Z0.2 F720
G1 Y-3 F1000 ; go outside print area
G92 E0
G1 X60 E9 F1000 ; intro line
G1 X100 E12.5 F1000 ; intro line

G92 E0
M221 S95

; Don't change E values below. Excessive value can damage the printer.

G21 ; set units to millimeters
G90 ; use absolute coordinates
M83 ; use relative distances for extrusion
M900 K0.05 ; Filament gcode LA 1.5
M900 K30 ; Filament gcode LA 1.0
M107
;LAYER_CHANGE
;Z:0.2
;HEIGHT:0.2
;BEFORE_LAYER_CHANGE
G92 E0.0
;0.2


M73 P0 R11
G1 E-.8 F2100
G1 Z.4 F720
;AFTER_LAYER_CHANGE
;0.2
G1 X12.245 Y136.124 F10800
G1 Z.2 F720
M73 P1 R11
M73 Q1 S11
G1 E.8 F2100
M204 S800
;TYPE:Skirt/Brim
;WIDTH:0.42
G1 F1200
G1 X40.845 Y136.124 E.89673
G1 X42.262 Y136.516 E.04612
G1 X43.275 Y137.582 E.04612
G1 X43.599 Y138.878 E.04186
G1 X43.599 Y156.878 E.56438
G1 X43.206 Y158.295 E.04612
G1 X42.365 Y159.175 E.03816
G1 X27.416 Y169.066 E.56203
G1 X26.509 Y169.565 E.03246
G1 X25.626 Y169.899 E.02961
G1 X24.707 Y170.114 E.02958
G1 X23.782 Y170.207 E.02915
G1 X22.826 Y170.18 E.03
G1 X21.893 Y170.03 E.02961
G1 X20.987 Y169.76 E.02966
G1 X20.133 Y169.375 E.02935
G1 X19.423 Y168.938 E.02615
G1 X18.366 Y168.012 E.04406
G1 X10.176 Y158.696 E.38892
G1 X9.491 Y156.878 E.06093
G1 X9.491 Y138.878 E.56438
G1 X9.883 Y137.46 E.04612
G1 X10.95 Y136.447 E.04612
G1 X12.187 Y136.138 E.03998
M204 S1000
G1 X12.245 Y136.501 F10800
M204 S800
G1 F1200
G1 X40.845 Y136.501 E.89673
G1 X42.152 Y136.892 E.04278
M73 P2 R11
M73 Q2 S11
G1 X43.028 Y137.938 E.04278
G1 X43.222 Y138.878 E.03008
G1 X43.222 Y156.878 E.56438
G1 X42.83 Y158.185 E.04278
G1 X42.157 Y158.86 E.02991
G1 X27.208 Y168.752 E.56203
G1 X26.357 Y169.22 E.03045
G1 X25.521 Y169.537 E.02803
G1 X24.651 Y169.741 E.02803
G1 X23.773 Y169.83 E.02764
G1 X22.866 Y169.805 E.02845
G1 X21.982 Y169.664 E.02808
G1 X21.123 Y169.408 E.0281
G1 X20.315 Y169.045 E.02776
G1 X19.635 Y168.627 E.02503
G1 X18.647 Y167.761 E.04119
G1 X10.459 Y158.447 E.38883
G1 X9.868 Y156.878 E.05258
G1 X9.868 Y138.878 E.56438
G1 X10.259 Y137.571 E.04278
G1 X11.305 Y136.694 E.04278
G1 X12.186 Y136.513 E.0282
M204 S1000
; printing object RedLight_Shield.stl id:0 copy 0
;WIPE_START
G1 F8640
G1 X15.477 Y136.511 E-.76
;WIPE_END
G1 E-.04 F2100
G1 Z.6 F720
G1 X40.058 Y156.091 F10800
G1 Z.2 F720
G1 E.8 F2100
M204 S800
;TYPE:Perimeter
;WIDTH:0.419999
G1 F1200
G1 X13.032 Y156.091 E.84737
G1 X13.032 Y139.665 E.51502
M73 Q3 S11
G1 X40.058 Y139.665 E.84737
M73 P3 R11
G1 X40.058 Y156.031 E.51314
M204 S1000
G1 X40.435 Y156.468 F10800
M204 S800
;TYPE:External perimeter
G1 F1200
G1 X12.655 Y156.468 E.87102
G1 X12.655 Y139.288 E.53867
G1 X40.435 Y139.288 E.87102
G1 X40.435 Y156.408 E.53678
M204 S1000
G1 X40.042 Y156.394 F10800
;WIPE_START
M73 P4 R11
M73 Q4 S11
G1 F8640
G1 X37.143 Y156.415 E-.76
;WIPE_END
G1 E-.04 F2100
G1 Z.6 F720
G1 X29.361 Y149.93 F10800
G1 Z.2 F720
G1 E.8 F2100
M204 S800
;TYPE:Perimeter
G1 F1200
G1 X29.417 Y149.892 E.00211
G1 X29.742 Y149.774 E.01086
G1 X30.257 Y149.767 E.01615
G1 X30.474 Y149.81 E.00693
G1 X30.81 Y149.973 E.01173
G1 X31.076 Y150.201 E.01097
G1 X31.28 Y150.5 E.01135
G1 X31.401 Y150.841 E.01135
G1 X31.429 Y151.201 E.01131
G1 X31.363 Y151.557 E.01138
G1 X31.207 Y151.884 E.01135
G1 X30.971 Y152.159 E.01134
G1 X30.673 Y152.363 E.01135
G1 X30.332 Y152.484 E.01135
G1 X29.971 Y152.512 E.01135
G1 X29.615 Y152.446 E.01135
G1 X29.289 Y152.289 E.01135
G1 X29.014 Y152.054 E.01134
G1 X28.809 Y151.756 E.01135
G1 X28.689 Y151.415 E.01134
G1 X28.661 Y151.054 E.01135
G1 X28.727 Y150.698 E.01135
G1 X28.883 Y150.372 E.01135
G1 X29.118 Y150.097 E.01135
G1 X29.312 Y149.964 E.00735
M204 S1000
G1 X29.582 Y150.233 F10800
M204 S800
;TYPE:External perimeter
G1 F1200
G1 X29.832 Y150.144 E.00832
G1 X30.33 Y150.158 E.01562
G1 X30.581 Y150.272 E.00865
G1 X30.777 Y150.431 E.0079
G1 X30.932 Y150.644 E.00827
G1 X31.027 Y150.89 E.00827
G1 X31.055 Y151.152 E.00826
G1 X31.014 Y151.413 E.00828
G1 X30.907 Y151.654 E.00827
G1 X30.742 Y151.859 E.00827
G1 X30.529 Y152.015 E.00827
G1 X30.283 Y152.11 E.00827
G1 X30.02 Y152.138 E.00827
G1 X29.76 Y152.097 E.00827
G1 X29.518 Y151.99 E.00827
G1 X29.313 Y151.825 E.00827
G1 X29.158 Y151.612 E.00827
G1 X29.063 Y151.365 E.00827
G1 X29.035 Y151.103 E.00827
G1 X29.075 Y150.842 E.00827
G1 X29.182 Y150.601 E.00827
G1 X29.348 Y150.396 E.00827
G1 X29.53 Y150.263 E.00708
M204 S1000
G1 X29.594 Y149.968 F10800
;WIPE_START
G1 F8640
G1 X29.832 Y150.144 E-.07479
G1 X30.33 Y150.158 E-.11504
G1 X30.581 Y150.272 E-.0637
G1 X30.777 Y150.431 E-.05816
G1 X30.932 Y150.644 E-.06092
G1 X31.027 Y150.89 E-.06092
G1 X31.055 Y151.152 E-.06084
G1 X31.014 Y151.413 E-.061
G1 X30.907 Y151.654 E-.06092
G1 X30.742 Y151.859 E-.06092
G1 X30.529 Y152.015 E-.06091
G1 X30.44 Y152.049 E-.02189
;WIPE_END
G1 E-.04 F2100
G1 Z.6 F720
G1 X25.361 Y149.93 F10800
G1 Z.2 F720
G1 E.8 F2100
M204 S800
;TYPE:Perimeter
G1 F1200
G1 X25.417 Y149.892 E.00212
G1 X25.757 Y149.772 E.01131
G1 X26.257 Y149.767 E.01569
G1 X26.474 Y149.81 E.00694
G1 X26.801 Y149.966 E.01135
G1 X27.076 Y150.201 E.01135
G1 X27.28 Y150.5 E.01135
G1 X27.401 Y150.841 E.01135
G1 X27.429 Y151.202 E.01135
G1 X27.363 Y151.557 E.01135
G1 X27.207 Y151.884 E.01135
G1 X26.971 Y152.159 E.01134
G1 X26.673 Y152.363 E.01135
G1 X26.332 Y152.484 E.01135
G1 X25.971 Y152.512 E.01135
G1 X25.615 Y152.446 E.01135
G1 X25.289 Y152.29 E.01135
G1 X25.014 Y152.054 E.01135
G1 X24.809 Y151.756 E.01135
G1 X24.689 Y151.415 E.01135
G1 X24.666 Y151.011 E.01267
G1 X24.727 Y150.698 E.00999
G1 X24.917 Y150.327 E.01308
G1 X25.118 Y150.097 E.00958
G1 X25.312 Y149.964 E.00735
M204 S1000
G1 X25.545 Y150.252 F10800
M204 S800
;TYPE:External perimeter
G1 F1200
G1 X25.832 Y150.144 E.00961
G1 X26.33 Y150.158 E.01563
G1 X26.571 Y150.265 E.00827
G1 X26.777 Y150.431 E.00827
G1 X26.932 Y150.644 E.00827
G1 X27.027 Y150.89 E.00827
G1 X27.055 Y151.152 E.00827
G1 X27.014 Y151.413 E.00827
G1 X26.907 Y151.654 E.00827
G1 X26.742 Y151.86 E.00827
G1 X26.529 Y152.015 E.00827
G1 X26.283 Y152.11 E.00827
G1 X26.02 Y152.138 E.00827
G1 X25.76 Y152.097 E.00827
G1 X25.518 Y151.99 E.00827
G1 X25.313 Y151.825 E.00827
G1 X25.158 Y151.612 E.00827
G1 X25.063 Y151.365 E.00827
G1 X25.04 Y151.06 E.00959
G1 X25.075 Y150.842 E.00692
G1 X25.217 Y150.557 E.01
G1 X25.348 Y150.396 E.0065
G1 X25.496 Y150.288 E.00576
M204 S1000
G1 X25.555 Y149.946 F10800
;WIPE_START
G1 F8640
G1 X25.832 Y150.144 E-.08423
G1 X26.33 Y150.158 E-.11513
G1 X26.571 Y150.265 E-.06092
G1 X26.777 Y150.431 E-.06092
G1 X26.932 Y150.644 E-.06092
G1 X27.027 Y150.89 E-.06092
G1 X27.055 Y151.152 E-.06092
G1 X27.014 Y151.413 E-.06092
G1 X26.907 Y151.654 E-.06092
G1 X26.742 Y151.86 E-.06091
G1 X26.529 Y152.015 E-.06091
G1 X26.479 Y152.034 E-.01239
;WIPE_END
G1 E-.04 F2100
G1 Z.6 F720
G1 X39.175 Y139.778 F10800
G1 Z.2 F720
G1 E.8 F2100
M204 S800
;TYPE:Solid infill
;WIDTH:0.423649
G1 F1200
G1 X39.775 Y140.378 E.02688
G1 X39.775 Y140.917 E.01705
G1 X38.806 Y139.948 E.04339
G1 X38.267 Y139.948 E.01705
G1 X39.775 Y141.455 E.06749
G1 X39.775 Y141.994 E.01705
G1 X37.729 Y139.948 E.0916
G1 X37.191 Y139.948 E.01705
G1 X39.775 Y142.532 E.1157
G1 X39.775 Y143.07 E.01705
G1 X36.652 Y139.948 E.13981
G1 X36.114 Y139.948 E.01705
G1 X39.775 Y143.609 E.16392
G1 X39.775 Y144.147 E.01705
G1 X35.575 Y139.948 E.18802
G1 X35.037 Y139.948 E.01705
G1 X39.775 Y144.686 E.21213
G1 X39.775 Y145.224 E.01705
G1 X34.498 Y139.948 E.23623
G1 X33.96 Y139.948 E.01705
G1 X39.775 Y145.763 E.26034
G1 X39.775 Y146.301 E.01705
G1 X33.422 Y139.948 E.28445
G1 X32.883 Y139.948 E.01705
G1 X39.775 Y146.839 E.30855
G1 X39.775 Y147.378 E.01705
M73 Q5 S11
G1 X32.345 Y139.948 E.33266
G1 X31.806 Y139.948 E.01705
M73 P5 R11
G1 X39.775 Y147.916 E.35676
G1 X39.775 Y148.455 E.01705
G1 X31.268 Y139.948 E.38087
G1 X30.729 Y139.948 E.01705
G1 X39.775 Y148.993 E.40498
G1 X39.775 Y149.532 E.01705
G1 X30.191 Y139.948 E.42908
G1 X29.653 Y139.948 E.01705
G1 X39.775 Y150.07 E.45319
G1 X39.775 Y150.608 E.01705
G1 X29.114 Y139.948 E.47729
G1 X28.576 Y139.948 E.01705
G1 X39.775 Y151.147 E.5014
G1 X39.775 Y151.685 E.01705
G1 X28.037 Y139.948 E.52551
G1 X27.499 Y139.948 E.01705
G1 X39.775 Y152.224 E.54961
G1 X39.775 Y152.762 E.01705
M73 Q6 S11
G1 X26.96 Y139.948 E.57372
M73 P6 R11
G1 X26.422 Y139.948 E.01705
G1 X39.775 Y153.301 E.59783
G1 X39.775 Y153.839 E.01705
G1 X25.884 Y139.948 E.62193
G1 X25.345 Y139.948 E.01705
G1 X39.775 Y154.377 E.64604
G1 X39.775 Y154.916 E.01705
G1 X24.807 Y139.948 E.67014
G1 X24.268 Y139.948 E.01705
G1 X39.775 Y155.454 E.69425
G1 X39.775 Y155.808 E.01119
G1 X39.59 Y155.808 E.00585
G1 X23.73 Y139.948 E.71008
G1 X23.191 Y139.948 E.01705
M73 P7 R11
M73 Q7 S11
G1 X39.052 Y155.808 E.71008
G1 X38.513 Y155.808 E.01705
G1 X22.653 Y139.948 E.71008
G1 X22.114 Y139.948 E.01705
G1 X37.975 Y155.808 E.71008
G1 X37.436 Y155.808 E.01705
G1 X21.576 Y139.948 E.71008
G1 X21.038 Y139.948 E.01705
G1 X36.898 Y155.808 E.71008
G1 X36.359 Y155.808 E.01705
G1 X31.713 Y151.162 E.20801
G1 X31.681 Y151.457 E.00939
G1 X31.636 Y151.623 E.00545
G1 X35.821 Y155.808 E.18736
G1 X35.283 Y155.808 E.01705
M73 Q8 S11
G1 X31.468 Y151.993 E.17078
G1 X31.232 Y152.296 E.01214
G1 X34.744 Y155.808 E.15724
G1 X34.206 Y155.808 E.01705
M73 P8 R11
G1 X30.935 Y152.537 E.14644
G1 X30.785 Y152.623 E.00548
G1 X30.563 Y152.703 E.00748
G1 X33.667 Y155.808 E.13899
G1 X33.129 Y155.808 E.01705
G1 X29.939 Y152.618 E.14283
M204 S1000
;WIPE_START
G1 F8640
G1 X32.266 Y154.945 E-.76
;WIPE_END
G1 E-.04 F2100
G1 Z.6 F720
G1 X30.206 Y149.655 F10800
G1 Z.2 F720
G1 E.8 F2100
M204 S800
G1 F1200
G1 X20.499 Y139.948 E.43459
G1 X19.961 Y139.948 E.01705
M73 Q8 S10
G1 X29.555 Y149.542 E.42955
G1 X29.305 Y149.632 E.00843
G1 X29.179 Y149.704 E.00459
G1 X19.422 Y139.948 E.43682
G1 X18.884 Y139.948 E.01705
M73 P8 R10
G1 X28.872 Y149.936 E.44717
G1 X28.636 Y150.238 E.01215
G1 X18.345 Y139.948 E.46073
G1 X17.807 Y139.948 E.01705
G1 X28.462 Y150.602 E.47701
G1 X28.409 Y150.8 E.00648
G1 X28.386 Y151.065 E.00843
G1 X17.269 Y139.948 E.49775
G1 X16.73 Y139.948 E.01705
G1 X26.267 Y149.484 E.42696
G1 X26.518 Y149.524 E.00804
M73 P9 R10
M73 Q9 S10
G1 X26.861 Y149.668 E.01179
G1 X27.217 Y149.935 E.01408
G1 X27.434 Y150.203 E.01094
G1 X27.539 Y150.386 E.00666
G1 X27.626 Y150.596 E.0072
G1 X27.681 Y150.8 E.00669
G1 X27.69 Y150.908 E.00342
G1 X32.59 Y155.808 E.21939
G1 X32.052 Y155.808 E.01705
G1 X27.683 Y151.439 E.19561
G1 X27.626 Y151.66 E.00722
G1 X27.55 Y151.844 E.00632
G1 X31.514 Y155.808 E.17745
G1 X30.975 Y155.808 E.01705
G1 X27.338 Y152.171 E.16283
G1 X27.218 Y152.32 E.00606
G1 X27.068 Y152.439 E.00606
G1 X30.437 Y155.808 E.15084
G1 X29.898 Y155.808 E.01705
G1 X26.733 Y152.642 E.14173
G1 X26.41 Y152.758 E.01086
G1 X26.32 Y152.768 E.00285
G1 X29.53 Y155.978 E.14367
M204 S1000
;WIPE_START
G1 F8640
G1 X27.202 Y153.65 E-.76
;WIPE_END
G1 E-.04 F2100
G1 Z.6 F720
G1 X25.905 Y149.661 F10800
G1 Z.2 F720
G1 E.8 F2100
M204 S800
G1 F1200
G1 X16.192 Y139.948 E.43487
G1 X15.653 Y139.948 E.01705
G1 X25.329 Y149.623 E.43319
G1 X25.121 Y149.738 E.00753
G1 X25.001 Y149.834 E.00484
G1 X15.115 Y139.948 E.44262
G1 X14.576 Y139.948 E.01705
G1 X24.734 Y150.105 E.45476
G1 X24.655 Y150.204 E.00399
G1 X24.529 Y150.438 E.00844
G1 X14.038 Y139.948 E.46967
G1 X13.5 Y139.948 E.01705
G1 X24.556 Y151.004 E.49502
M204 S1000
;WIPE_START
G1 F8640
M73 P10 R10
M73 Q10 S10
G1 X22.229 Y148.677 E-.76
;WIPE_END
G1 E-.04 F2100
G1 Z.6 F720
G1 X28.991 Y155.978 F10800
G1 Z.2 F720
G1 E.8 F2100
M204 S800
G1 F1200
G1 X25.785 Y152.771 E.14355
G1 X25.513 Y152.709 E.00883
G1 X25.303 Y152.622 E.0072
G1 X25.122 Y152.518 E.00662
G1 X24.941 Y152.379 E.0072
G1 X24.793 Y152.231 E.00662
G1 X24.655 Y152.051 E.0072
G1 X24.55 Y151.87 E.00662
G1 X24.463 Y151.66 E.0072
G1 X24.401 Y151.388 E.00883
G1 X13.315 Y140.301 E.49636
G1 X13.315 Y140.84 E.01705
G1 X28.283 Y155.808 E.67014
G1 X27.745 Y155.808 E.01705
G1 X13.315 Y141.378 E.64603
G1 X13.315 Y141.916 E.01705
G1 X27.206 Y155.808 E.62193
G1 X26.668 Y155.808 E.01705
G1 X13.315 Y142.455 E.59782
G1 X13.315 Y142.993 E.01705
G1 X26.129 Y155.808 E.57372
G1 X25.591 Y155.808 E.01705
M73 Q11 S10
G1 X13.315 Y143.532 E.54961
G1 X13.315 Y144.07 E.01705
M73 P11 R10
G1 X25.052 Y155.808 E.5255
G1 X24.514 Y155.808 E.01705
G1 X13.315 Y144.609 E.5014
G1 X13.315 Y145.147 E.01705
G1 X23.975 Y155.808 E.47729
G1 X23.437 Y155.808 E.01705
G1 X13.315 Y145.685 E.45319
G1 X13.315 Y146.224 E.01705
G1 X22.899 Y155.808 E.42908
G1 X22.36 Y155.808 E.01705
G1 X13.315 Y146.762 E.40497
G1 X13.315 Y147.301 E.01705
G1 X21.822 Y155.808 E.38087
G1 X21.283 Y155.808 E.01705
G1 X13.315 Y147.839 E.35676
G1 X13.315 Y148.378 E.01705
G1 X20.745 Y155.808 E.33266
G1 X20.206 Y155.808 E.01705
M73 Q12 S10
G1 X13.315 Y148.916 E.30855
G1 X13.315 Y149.454 E.01705
M73 P12 R10
G1 X19.668 Y155.808 E.28444
G1 X19.13 Y155.808 E.01705
G1 X13.315 Y149.993 E.26034
G1 X13.315 Y150.531 E.01705
G1 X18.591 Y155.808 E.23623
G1 X18.053 Y155.808 E.01705
G1 X13.315 Y151.07 E.21213
G1 X13.315 Y151.608 E.01705
G1 X17.514 Y155.808 E.18802
G1 X16.976 Y155.808 E.01705
G1 X13.315 Y152.147 E.16391
G1 X13.315 Y152.685 E.01705
G1 X16.437 Y155.808 E.13981
G1 X15.899 Y155.808 E.01705
G1 X13.315 Y153.224 E.1157
G1 X13.315 Y153.762 E.01705
G1 X15.361 Y155.808 E.0916
G1 X14.822 Y155.808 E.01705
G1 X13.315 Y154.3 E.06749
G1 X13.315 Y154.839 E.01705
G1 X14.284 Y155.808 E.04338
G1 X13.745 Y155.808 E.01705
G1 X13.145 Y155.208 E.02687
M204 S1000
; stop printing object RedLight_Shield.stl id:0 copy 0
; printing object RedLight_Shield_LedSlot.stl id:1 copy 0
;WIPE_START
G1 F8640
G1 X13.745 Y155.808 E-.19602
G1 X14.284 Y155.808 E-.12433
G1 X13.315 Y154.839 E-.31643
G1 X13.315 Y154.305 E-.12323
;WIPE_END
G1 E-.04 F2100
G1 Z.6 F720
G1 X26.127 Y165.185 F10800
G1 Z.2 F720
G1 E.8 F2100
M204 S800
;TYPE:Perimeter
;WIDTH:0.419999
G1 F1200
G1 X26.31 Y165.084 E.00655
G1 X26.518 Y164.891 E.0089
G1 X26.494 Y164.96 E.0023
G1 X26.211 Y165.424 E.01704
G1 X25.821 Y165.839 E.01786
G1 X25.337 Y166.187 E.0187
G1 X24.775 Y166.45 E.01945
G1 X24.158 Y166.613 E.02
G1 X23.513 Y166.669 E.02029
G1 X22.869 Y166.613 E.02029
G1 X22.252 Y166.45 E.02
G1 X21.69 Y166.187 E.01945
G1 X21.206 Y165.839 E.0187
G1 X20.816 Y165.424 E.01786
;WIDTH:0.450084
G1 X20.566 Y164.985 E.01709
G1 X20.754 Y165.117 E.00777
;WIDTH:0.431691
G1 X21.289 Y165.324 E.01855
;WIDTH:0.419999
G1 X21.742 Y165.319 E.01421
G1 X22.092 Y165.21 E.0115
G1 X22.278 Y165.112 E.00658
G1 X22.579 Y164.843 E.01265
G1 X22.834 Y164.383 E.01652
G1 X22.897 Y163.884 E.01575
G1 X22.768 Y163.366 E.01676
G1 X22.468 Y162.963 E.01576
G1 X22.272 Y162.806 E.00787
G1 X21.824 Y162.606 E.01537
G1 X21.494 Y162.574 E.01039
G1 X21.285 Y162.598 E.00661
G1 X20.749 Y162.804 E.018
G1 X20.517 Y163.001 E.00953
G1 X20.816 Y162.493 E.01849
G1 X21.206 Y162.077 E.01786
G1 X21.69 Y161.729 E.0187
G1 X22.246 Y161.469 E.01925
G1 X23.035 Y161.278 E.02543
G1 X23.672 Y161.251 E.02001
G1 X24.316 Y161.334 E.02035
