; generated by PrusaSlicer 2.5.0+win64 on 2022-11-11 at 22:43:08 UTC


;
;
; 

; external perimeters extrusion width = 0.45mm
; perimeters extrusion width = 0.45mm
; infill extrusion width = 0.45mm
; solid infill extrusion width = 0.45mm
; top infill extrusion width = 0.40mm
; support material extrusion width = 0.35mm
; first layer extrusion width = 0.42mm

M73 P0 R12
M73 Q0 S12
M201 X1000 Y1000 Z200 E5000 ; sets maximum accelerations, mm/sec^2
M203 X200 Y200 Z12 E120 ; sets maximum feedrates, mm / sec
M204 P1250 R1250 T1250 ; sets acceleration (P, T) and retract acceleration (R), mm/sec^2
M205 X8.00 Y8.00 Z0.40 E4.50 ; sets the jerk limits, mm/sec
M205 S0 T0 ; sets the minimum extruding and travel feed rate, mm/sec
M107
;TYPE:Custom
M862.3 P "MK3" ; printer model check
M862.1 P0.4 ; nozzle diameter check
M115 U3.11.0 ; tell printer latest fw version
G90 ; use absolute coordinates
M83 ; extruder relative mode
M104 S215 ; set extruder temp
M140 S60 ; set bed temp
M190 S60 ; wait for bed temp
M109 S215 ; wait for extruder temp
G28 W ; home all without mesh bed level
G80 ; mesh bed leveling

G1 Z0.2 F720
G1 Y-3 F1000 ; go outside print area
G92 E0
G1 X60 E9 F1000 ; intro line
G1 X100 E12.5 F1000 ; intro line

G92 E0
M221 S95

; Don't change E values below. Excessive value can damage the printer.

G21 ; set units to millimeters
G90 ; use absolute coordinates
M83 ; use relative distances for extrusion
M900 K0.05 ; Filament gcode LA 1.5
M900 K30 ; Filament gcode LA 1.0
M107
;LAYER_CHANGE
;Z:0.2
;HEIGHT:0.2
;BEFORE_LAYER_CHANGE
G92 E0.0
;0.2


G1 E-.8 F2100
G1 Z.4 F720
;AFTER_LAYER_CHANGE
;0.2
G1 X194.453 Y50.665 F10800
G1 Z.2 F720
G1 E.8 F2100
M204 S800
;TYPE:Skirt/Brim
;WIDTH:0.42
G1 F1200
G1 X194.845 Y49.247 E.04612
G1 X195.912 Y48.234 E.04612
G1 X197.207 Y47.91 E.04186
G1 X208.644 Y47.933 E.3586
M73 Q1 S12
G1 X231.814 Y50.933 E.73256
M73 P1 R12
G1 X233.17 Y51.504 E.04612
G1 X234.038 Y52.692 E.04612
G1 X234.215 Y53.664 E.03099
G1 X234.215 Y69.074 E.48317
G1 X233.822 Y70.492 E.04612
G1 X232.889 Y71.429 E.04149
G1 X225.764 Y75.749 E.26125
G1 X224.336 Y76.148 E.04649
G1 X209.036 Y76.148 E.47972
G1 X208.231 Y76.028 E.02552
G1 X196.402 Y72.414 E.38781
G1 X195.161 Y71.624 E.04612
G1 X194.453 Y69.78 E.06194
G1 X194.453 Y50.725 E.59746
M204 S1000
G1 X194.83 Y50.725 F10800
M204 S800
G1 F1200
G1 X194.83 Y50.665 E.00188
G1 X195.221 Y49.358 E.04278
G1 X196.267 Y48.481 E.04278
G1 X197.207 Y48.287 E.03008
G1 X208.595 Y48.307 E.35708
G1 X231.766 Y51.307 E.73256
G1 X233.012 Y51.863 E.04278
M73 Q2 S12
G1 X233.838 Y53.664 E.06213
M73 P2 R12
G1 X233.838 Y69.074 E.48317
G1 X233.446 Y70.381 E.04278
G1 X232.693 Y71.107 E.03279
G1 X225.568 Y75.427 E.26125
G1 X224.336 Y75.771 E.04012
G1 X209.036 Y75.771 E.47972
G1 X208.341 Y75.668 E.02202
G1 X196.512 Y72.053 E.38781
G1 X195.377 Y71.297 E.04278
G1 X194.83 Y69.78 E.05056
G1 X194.83 Y50.785 E.59558
M204 S1000
; printing object RedLight_Support.stl id:0 copy 0
;WIPE_START
G1 F8640
G1 X194.83 Y50.665 E-.02771
G1 X195.221 Y49.358 E-.31505
G1 X196.267 Y48.481 E-.31505
G1 X196.701 Y48.392 E-.10219
;WIPE_END
G1 E-.04 F2100
G1 Z.6 F720
G1 X205.901 Y53.054 F10800
G1 Z.2 F720
G1 E.8 F2100
M204 S800
;TYPE:Support material
G1 F1200
G1 X201.658 Y53.054 E.13302
G1 X201.301 Y53.412 E.01584
G1 X201.301 Y56.939 E.1106
G1 X202.047 Y57.253 E.02539
G1 X202.689 Y56.627 E.02811
G1 X203.049 Y56.33 E.01463
G1 X203.432 Y56.064 E.01463
G1 X203.835 Y55.83 E.01463
G1 X204.257 Y55.631 E.01463
G1 X204.694 Y55.467 E.01463
G1 X205.143 Y55.34 E.01463
G1 X205.601 Y55.25 E.01463
G1 X206.064 Y55.198 E.01463
G1 X206.531 Y55.185 E.01463
G1 X206.997 Y55.211 E.01463
G1 X207.459 Y55.275 E.01463
G1 X207.914 Y55.377 E.01463
G1 X208.359 Y55.516 E.01463
G1 X208.792 Y55.691 E.01463
G1 X209.208 Y55.902 E.01463
G1 X209.605 Y56.146 E.01463
G1 X209.981 Y56.423 E.01463
G1 X210.333 Y56.729 E.01463
G1 X210.762 Y57.17 E.01929
G1 X210.99 Y57.266 E.00775
G1 X216.382 Y57.266 E.16907
G1 X216.609 Y57.17 E.00774
G1 X217.046 Y56.722 E.01964
G1 X217.407 Y56.409 E.01496
G1 X217.792 Y56.129 E.01496
G1 X218.2 Y55.882 E.01496
G1 X218.628 Y55.67 E.01496
G1 X219.072 Y55.495 E.01496
G1 X219.529 Y55.358 E.01496
G1 X219.996 Y55.26 E.01496
G1 X220.469 Y55.202 E.01496
G1 X220.946 Y55.185 E.01496
G1 X221.422 Y55.208 E.01496
G1 X221.895 Y55.271 E.01496
G1 X222.361 Y55.373 E.01496
G1 X222.817 Y55.515 E.01496
G1 X223.259 Y55.695 E.01496
G1 X223.684 Y55.911 E.01496
G1 X224.089 Y56.162 E.01496
G1 X224.472 Y56.447 E.01496
G1 X224.829 Y56.764 E.01496
G1 X225.158 Y57.109 E.01496
G1 X225.457 Y57.481 E.01496
G1 X225.723 Y57.876 E.01496
G1 X225.955 Y58.293 E.01496
G1 X226.151 Y58.728 E.01496
G1 X226.31 Y59.178 E.01496
G1 X226.429 Y59.64 E.01496
G1 X226.51 Y60.11 E.01496
G1 X226.55 Y60.586 E.01496
G1 X226.55 Y61.063 E.01496
G1 X226.51 Y61.538 E.01496
G1 X226.429 Y62.008 E.01496
G1 X226.31 Y62.47 E.01496
G1 X226.151 Y62.92 E.01496
G1 X225.955 Y63.355 E.01496
G1 X225.723 Y63.772 E.01496
G1 X225.457 Y64.168 E.01496
G1 X225.158 Y64.54 E.01496
G1 X224.829 Y64.885 E.01496
G1 X224.472 Y65.201 E.01496
G1 X224.089 Y65.486 E.01496
G1 X223.684 Y65.738 E.01496
G1 X223.259 Y65.954 E.01496
G1 X222.817 Y66.134 E.01496
G1 X222.361 Y66.275 E.01496
G1 X221.895 Y66.378 E.01496
G1 X221.422 Y66.441 E.01496
G1 X220.946 Y66.464 E.01496
G1 X220.469 Y66.446 E.01496
G1 X219.996 Y66.388 E.01496
G1 X219.529 Y66.29 E.01496
G1 X219.072 Y66.154 E.01496
G1 X218.628 Y65.979 E.01496
G1 X218.2 Y65.767 E.01496
G1 X217.792 Y65.52 E.01496
G1 X217.407 Y65.239 E.01496
G1 X217.046 Y64.927 E.01496
G1 X216.609 Y64.478 E.01964
G1 X216.382 Y64.382 E.00774
G1 X210.99 Y64.382 E.16907
G1 X210.762 Y64.478 E.00775
M73 Q3 S12
G1 X210.333 Y64.919 E.01929
G1 X209.981 Y65.226 E.01463
G1 X209.605 Y65.502 E.01463
G1 X209.208 Y65.747 E.01463
G1 X208.792 Y65.957 E.01463
G1 X208.359 Y66.133 E.01463
G1 X207.914 Y66.272 E.01463
G1 X207.459 Y66.374 E.01463
G1 X206.997 Y66.438 E.01463
M73 P3 R12
G1 X206.531 Y66.463 E.01463
G1 X206.064 Y66.45 E.01463
G1 X205.601 Y66.399 E.01463
G1 X205.143 Y66.309 E.01463
G1 X204.694 Y66.181 E.01463
G1 X204.257 Y66.018 E.01463
G1 X203.835 Y65.818 E.01463
G1 X203.432 Y65.584 E.01463
G1 X203.049 Y65.318 E.01463
G1 X202.689 Y65.021 E.01463
G1 X202.047 Y64.395 E.02811
G1 X201.301 Y64.71 E.02539
G1 X201.301 Y69.327 E.14477
G1 X201.658 Y69.684 E.01584
G1 X202.051 Y69.684 E.01231
G1 X202.051 Y69.78 E.003
G1 X197.207 Y69.78 E.15187
G1 X197.207 Y50.665 E.59934
G1 X208.29 Y50.665 E.34751
G1 X205.941 Y53.014 E.10419
M204 S1000
;WIPE_START
G1 F8640
G1 X208.268 Y50.687 E-.76
;WIPE_END
G1 E-.04 F2100
G1 Z.6 F720
G1 X225.903 Y63.058 F10800
G1 Z.2 F720
G1 E.8 F2100
M204 S800
G1 F1200
G1 X225.903 Y59.046 E.12579
G1 X225.652 Y58.446 E.0204
G1 X225.484 Y58.145 E.01081
G1 X225.484 Y63.504 E.16804
G1 X225.184 Y63.966 E.0173
G1 X225.065 Y64.114 E.00592
G1 X225.065 Y57.535 E.20627
G1 X224.903 Y57.333 E.00813
G1 X224.646 Y57.064 E.01165
G1 X224.646 Y64.585 E.23582
G1 X224.227 Y64.96 E.01764
G1 X224.227 Y56.688 E.25936
G1 X223.808 Y56.388 E.01617
G1 X223.808 Y65.261 E.27822
G1 X223.389 Y65.507 E.01523
G1 X223.389 Y56.142 E.29363
G1 X222.97 Y55.944 E.01453
G1 X222.97 Y65.705 E.30605
G1 X222.551 Y65.861 E.01402
G1 X222.551 Y55.788 E.31583
G1 X222.132 Y55.67 E.01364
G1 X222.132 Y65.978 E.3232
G1 X221.713 Y66.06 E.01338
M73 Q4 S12
G1 X221.713 Y55.589 E.32831
G1 X221.294 Y55.541 E.01322
M73 P4 R12
G1 X221.294 Y66.107 E.33129
G1 X220.876 Y66.121 E.01314
G1 X220.876 Y55.527 E.33218
G1 X220.496 Y55.541 E.0119
G1 X220.457 Y55.546 E.00125
G1 X220.457 Y66.103 E.331
G1 X220.038 Y66.05 E.01324
G1 X220.038 Y55.598 E.32771
G1 X219.619 Y55.686 E.01342
G1 X219.619 Y65.963 E.32222
G1 X219.2 Y65.838 E.01371
G1 X219.2 Y55.811 E.31439
G1 X218.781 Y55.974 E.0141
G1 X218.781 Y65.674 E.30413
G1 X218.362 Y65.468 E.01464
G1 X218.362 Y56.181 E.29119
G1 X217.943 Y56.439 E.01543
G1 X217.943 Y65.209 E.27499
G1 X217.524 Y64.891 E.01649
G1 X217.524 Y56.757 E.25504
G1 X217.105 Y57.148 E.01797
G1 X217.105 Y64.5 E.23053
G1 X216.804 Y64.192 E.0135
G1 X216.686 Y64.142 E.00404
G1 X216.686 Y57.506 E.20805
G1 X216.45 Y57.606 E.00801
G1 X216.267 Y57.606 E.00576
G1 X216.267 Y64.043 E.20183
G1 X215.848 Y64.043 E.01314
G1 X215.848 Y57.606 E.20183
G1 X215.429 Y57.606 E.01314
G1 X215.429 Y64.043 E.20183
G1 X215.01 Y64.043 E.01314
M73 P5 R12
M73 Q5 S12
G1 X215.01 Y57.606 E.20183
G1 X214.591 Y57.606 E.01314
G1 X214.591 Y64.043 E.20183
G1 X214.172 Y64.043 E.01314
G1 X214.172 Y57.606 E.20183
G1 X213.753 Y57.606 E.01314
G1 X213.753 Y64.043 E.20183
G1 X213.334 Y64.043 E.01314
G1 X213.334 Y57.606 E.20183
G1 X212.915 Y57.606 E.01314
G1 X212.915 Y64.043 E.20183
G1 X212.496 Y64.043 E.01314
G1 X212.496 Y57.606 E.20183
G1 X212.077 Y57.606 E.01314
G1 X212.077 Y64.043 E.20183
G1 X211.658 Y64.043 E.01314
G1 X211.658 Y57.606 E.20183
G1 X211.239 Y57.606 E.01314
G1 X211.239 Y64.043 E.20183
G1 X210.921 Y64.043 E.00998
G1 X210.82 Y64.085 E.00343
G1 X210.82 Y57.563 E.2045
G1 X210.567 Y57.456 E.00863
G1 X210.401 Y57.286 E.00744
G1 X210.401 Y64.363 E.22188
G1 X209.982 Y64.775 E.01843
G1 X209.982 Y56.873 E.24775
G1 X209.563 Y56.536 E.01686
G1 X209.563 Y65.112 E.26888
G1 X209.144 Y65.387 E.01572
G1 X209.144 Y56.261 E.28615
G1 X208.725 Y56.038 E.01488
G1 X208.725 Y65.61 E.30014
G1 X208.306 Y65.788 E.01427
G1 X208.306 Y55.86 E.31127
G1 X207.887 Y55.724 E.01382
G1 X207.887 Y65.925 E.31984
G1 X207.468 Y66.024 E.0135
G1 X207.468 Y55.625 E.32606
G1 X207.049 Y55.561 E.01329
M73 P6 R11
M73 Q6 S12
G1 X207.049 Y66.088 E.33007
G1 X206.63 Y66.118 E.01317
G1 X206.63 Y55.531 E.33196
G1 X206.211 Y55.534 E.01314
G1 X206.211 Y66.115 E.33176
G1 X205.792 Y66.078 E.01319
M73 Q6 S11
G1 X205.792 Y55.57 E.32948
G1 X205.652 Y55.586 E.00442
G1 X205.373 Y55.64 E.00891
G1 X205.373 Y66.008 E.32507
G1 X204.954 Y65.903 E.01355
G1 X204.954 Y55.746 E.31845
G1 X204.535 Y55.889 E.01388
G1 X204.535 Y65.759 E.30948
G1 X204.116 Y65.576 E.01435
G1 X204.116 Y56.073 E.29795
G1 X203.697 Y56.302 E.01498
G1 X203.697 Y65.346 E.28356
G1 X203.278 Y65.065 E.01583
G1 X203.278 Y56.584 E.26591
G1 X202.859 Y56.935 E.01714
G1 X202.859 Y64.714 E.24389
G1 X202.441 Y64.305 E.01835
G1 X202.441 Y57.344 E.21827
G1 X202.122 Y57.654 E.01393
G1 X202.022 Y57.611 E.00344
G1 X202.022 Y64.037 E.20149
G1 X201.603 Y64.214 E.01426
G1 X201.603 Y57.434 E.21257
G1 X201.184 Y57.258 E.01426
G1 X201.184 Y64.391 E.22365
G1 X200.961 Y64.484 E.00756
M73 P7 R11
M73 Q7 S11
G1 X200.961 Y69.44 E.15539
G1 X200.765 Y69.44 E.00617
G1 X200.765 Y51.004 E.57806
G1 X201.184 Y51.004 E.01314
G1 X201.184 Y53.049 E.06411
G1 X201.517 Y52.715 E.01481
G1 X201.603 Y52.715 E.00267
G1 X201.603 Y51.004 E.05365
G1 X202.022 Y51.004 E.01314
G1 X202.022 Y52.715 E.05365
G1 X202.441 Y52.715 E.01314
G1 X202.441 Y51.004 E.05365
G1 X202.859 Y51.004 E.01314
G1 X202.859 Y52.715 E.05365
G1 X203.278 Y52.715 E.01314
G1 X203.278 Y51.004 E.05365
G1 X203.697 Y51.004 E.01314
G1 X203.697 Y52.715 E.05365
G1 X204.116 Y52.715 E.01314
G1 X204.116 Y51.004 E.05365
G1 X204.535 Y51.004 E.01314
G1 X204.535 Y52.715 E.05365
G1 X204.954 Y52.715 E.01314
G1 X204.954 Y51.004 E.05365
G1 X205.373 Y51.004 E.01314
G1 X205.373 Y52.715 E.05365
G1 X205.76 Y52.715 E.01212
G1 X205.792 Y52.683 E.00143
G1 X205.792 Y51.004 E.05263
G1 X206.211 Y51.004 E.01314
G1 X206.211 Y52.264 E.03949
G1 X206.63 Y51.845 E.01858
G1 X206.63 Y51.004 E.02636
G1 X207.049 Y51.004 E.01314
G1 X207.049 Y51.426 E.01322
G1 X207.468 Y51.007 E.01858
G1 X207.468 Y50.834 E.0054
M204 S1000
;WIPE_START
G1 F8640
G1 X207.468 Y51.007 E-.0398
G1 X207.049 Y51.426 E-.13682
G1 X207.049 Y51.004 E-.09736
G1 X206.63 Y51.004 E-.09674
G1 X206.63 Y51.845 E-.19411
G1 X206.211 Y52.264 E-.13682
G1 X206.211 Y52.011 E-.05835
;WIPE_END
G1 E-.04 F2100
G1 Z.6 F720
G1 X200.346 Y69.61 F10800
G1 Z.2 F720
G1 E.8 F2100
M204 S800
G1 F1200
G1 X200.346 Y51.004 E.58338
G1 X199.927 Y51.004 E.01314
G1 X199.927 Y69.44 E.57806
G1 X199.508 Y69.44 E.01314
G1 X199.508 Y51.004 E.57806
G1 X199.089 Y51.004 E.01314
G1 X199.089 Y69.44 E.57806
G1 X198.67 Y69.44 E.01314
M73 Q8 S11
G1 X198.67 Y51.004 E.57806
G1 X198.251 Y51.004 E.01314
M73 P8 R11
G1 X198.251 Y69.44 E.57806
G1 X197.832 Y69.44 E.01314
G1 X197.832 Y50.834 E.58338
M204 S1000
;WIPE_START
G1 F8640
G1 X197.832 Y54.126 E-.76
;WIPE_END
G1 E-.04 F2100
G1 Z.6 F720
G1 X202.597 Y55.041 F10800
G1 Z.2 F720
G1 E.8 F2100
M204 S800
;TYPE:Perimeter
;WIDTH:0.404786
G1 F1200
G1 X202.67 Y54.443 E.01814
G1 X203.531 Y54.441 E.02589
G1 X203.128 Y54.645 E.01358
G1 X202.645 Y55.005 E.01813
M204 S1000
;WIPE_START
G1 F8640
G1 X202.67 Y54.443 E-.13
G1 X203.531 Y54.441 E-.19872
G1 X203.128 Y54.645 E-.10419
G1 X202.645 Y55.005 E-.1391
;WIPE_END
G1 E-.22799 F2100
G1 Z.6 F720
G1 X211.431 Y55.869 F10800
G1 Z.2 F720
G1 E.8 F2100
M204 S800
;WIDTH:0.419999
G1 F1200
G1 X210.836 Y55.317 E.02543
G1 X210.366 Y54.974 E.01825
G1 X209.91 Y54.694 E.01679
G1 X209.431 Y54.45 E.01685
G1 X217.946 Y54.449 E.26697
G1 X217.507 Y54.668 E.01539
G1 X216.999 Y54.979 E.01867
G1 X216.519 Y55.33 E.01866
G1 X215.926 Y55.869 E.02511
G1 X211.491 Y55.869 E.13908
M204 S1000
;WIPE_START
G1 F8640
G1 X210.836 Y55.317 E-.19763
G1 X210.366 Y54.974 E-.13443
G1 X209.91 Y54.694 E-.12363
G1 X209.431 Y54.45 E-.12409
G1 X210.212 Y54.45 E-.18023
;WIPE_END
G1 E-.04 F2100
G1 Z.6 F720
G1 X210.258 Y68.794 F10800
G1 Z.2 F720
G1 E.8 F2100
M204 S800
G1 F1200
G1 X210.249 Y71.169 E.07449
G1 X210.288 Y71.664 E.01556
;WIDTH:0.454793
G1 X210.464 Y71.8 E.00761
;WIDTH:0.489587
G1 X210.639 Y71.937 E.00825
;WIDTH:0.524381
G1 X210.814 Y72.074 E.0089
G1 X212.08 Y72.074 E.05065
G1 X211.598 Y72.555 E.02726
G1 X210.425 Y72.572 E.04696
;WIDTH:0.489587
G1 X210.036 Y72.59 E.01446
;WIDTH:0.454793
G1 X209.647 Y72.607 E.01333
;WIDTH:0.419999
G1 X209.362 Y72.607 E.00895
G1 X208.323 Y71.568 E.04607
G1 X208.323 Y68.853 E.08514
G1 X208.292 Y68.67 E.00582
G1 X208.092 Y68.397 E.01062
;WIDTH:0.4599
G1 X207.906 Y68.322 E.00693
;WIDTH:0.499801
G1 X207.721 Y68.247 E.00759
G1 X207.12 Y68.267 E.02285
;WIDTH:0.459793
G1 X206.52 Y68.275 E.02079
;WIDTH:0.454507
G1 X205.919 Y68.27 E.02055
;WIDTH:0.48939
G1 X205.316 Y68.252 E.02241
G1 X205.048 Y68.27 E.00996
;WIDTH:0.454695
G1 X204.781 Y68.287 E.00918
;WIDTH:0.419999
G1 X202.696 Y68.287 E.06535
G1 X202.693 Y67.542 E.02336
G1 X202.618 Y66.638 E.02843
G1 X203.203 Y67.057 E.02255
G1 X203.734 Y67.313 E.01847
G1 X204.28 Y67.516 E.01827
G1 X204.84 Y67.673 E.01825
;WIDTH:0.452105
G1 X205.124 Y67.744 E.00996
;WIDTH:0.48421
G1 X205.408 Y67.815 E.01074
G1 X205.99 Y67.862 E.02142
;WIDTH:0.452243
G1 X206.573 Y67.873 E.01985
;WIDTH:0.462958
G1 X207.157 Y67.848 E.0204
;WIDTH:0.494104
G1 X207.738 Y67.781 E.02196
G1 X208.018 Y67.698 E.01094
;WIDTH:0.457052
G1 X208.298 Y67.616 E.01005
;WIDTH:0.419999
G1 X208.897 Y67.422 E.01973
G1 X209.392 Y67.219 E.01677
G1 X209.91 Y66.955 E.01825
G1 X210.405 Y66.648 E.01825
G1 X210.873 Y66.302 E.01825
G1 X211.446 Y65.779 E.02431
G1 X215.942 Y65.779 E.14097
G1 X216.556 Y66.348 E.02625
G1 X217.038 Y66.696 E.01866
G1 X217.549 Y67.003 E.01866
G1 X218.083 Y67.266 E.01866
G1 X218.637 Y67.482 E.01866
G1 X219.208 Y67.651 E.01866
;WIDTH:0.455338
G1 X219.498 Y67.728 E.01027
;WIDTH:0.490677
G1 X219.787 Y67.806 E.01115
G1 X220.382 Y67.858 E.02223
;WIDTH:0.454708
G1 X220.978 Y67.873 E.02042
;WIDTH:0.460846
G1 X221.575 Y67.851 E.02075
;WIDTH:0.492507
G1 X222.169 Y67.785 E.02237
G1 X222.456 Y67.703 E.01115
;WIDTH:0.456253
G1 X222.743 Y67.62 E.01025
;WIDTH:0.419999
G1 X223.31 Y67.441 E.01866
G1 X223.861 Y67.215 E.01866
G1 X224.419 Y66.926 E.01969
G1 X224.895 Y66.628 E.01763
M73 Q9 S11
G1 X225.372 Y66.271 E.01866
G1 X225.816 Y65.874 E.01866
G1 X226.225 Y65.442 E.01866
G1 X226.597 Y64.977 E.01866
M73 P9 R11
G1 X226.927 Y64.482 E.01866
G1 X227.215 Y63.961 E.01866
G1 X227.457 Y63.417 E.01866
G1 X227.653 Y62.855 E.01866
G1 X227.801 Y62.278 E.01866
G1 X227.899 Y61.691 E.01866
G1 X227.947 Y61.098 E.01866
G1 X227.945 Y60.503 E.01866
G1 X227.893 Y59.91 E.01866
G1 X227.791 Y59.323 E.01866
G1 X227.639 Y58.748 E.01866
G1 X227.44 Y58.187 E.01866
G1 X227.193 Y57.645 E.01866
G1 X226.902 Y57.126 E.01866
G1 X226.568 Y56.633 E.01866
G1 X226.194 Y56.17 E.01866
G1 X225.781 Y55.741 E.01866
