; generated by PrusaSlicer 2.5.0+win64 on 2022-11-11 at 23:15:03 UTC


;
;
; 

; external perimeters extrusion width = 0.60mm
; perimeters extrusion width = 0.50mm
; infill extrusion width = 0.50mm
; solid infill extrusion width = 0.50mm
; top infill extrusion width = 0.45mm
; support material extrusion width = 0.38mm
; first layer extrusion width = 0.42mm

M73 P0 R8
M73 Q0 S8
M201 X1000 Y1000 Z200 E5000 ; sets maximum accelerations, mm/sec^2
M203 X200 Y200 Z12 E120 ; sets maximum feedrates, mm / sec
M204 P1250 R1250 T1250 ; sets acceleration (P, T) and retract acceleration (R), mm/sec^2
M205 X8.00 Y8.00 Z0.40 E4.50 ; sets the jerk limits, mm/sec
M205 S0 T0 ; sets the minimum extruding and travel feed rate, mm/sec
M107
;TYPE:Custom
M862.3 P "MK3" ; printer model check
M862.1 P0.4 ; nozzle diameter check
M115 U3.11.0 ; tell printer latest fw version
G90 ; use absolute coordinates
M83 ; extruder relative mode
M104 S215 ; set extruder temp
M140 S60 ; set bed temp
M190 S60 ; wait for bed temp
M109 S215 ; wait for extruder temp
G28 W ; home all without mesh bed level
G80 ; mesh bed leveling

G1 Z0.2 F720
G1 Y-3 F1000 ; go outside print area
G92 E0
G1 X60 E9 F1000 ; intro line
G1 X100 E12.5 F1000 ; intro line

G92 E0
M221 S95

; Don't change E values below. Excessive value can damage the printer.

M907 E538 ; set extruder motor current
G21 ; set units to millimeters
G90 ; use absolute coordinates
M83 ; use relative distances for extrusion
M900 K0.05 ; Filament gcode LA 1.5
M900 K30 ; Filament gcode LA 1.0
M107
;LAYER_CHANGE
;Z:0.2
;HEIGHT:0.2
;BEFORE_LAYER_CHANGE
G92 E0.0
;0.2


G1 E-.8 F2100
M73 P1 R8
M73 Q1 S8
G1 Z.4 F720
;AFTER_LAYER_CHANGE
;0.2
G1 X112.779 Y94.285 F10800
G1 Z.2 F720
G1 E.8 F2100
M204 S800
;TYPE:Skirt/Brim
;WIDTH:0.42
G1 F1200
G1 X113.566 Y93.449 E.036
G1 X114.911 Y92.257 E.05633
G1 X115.904 Y91.533 E.03855
G1 X117.521 Y90.57 E.05898
G1 X119.159 Y89.833 E.05633
G1 X121.03 Y89.239 E.06154
G1 X122.152 Y88.998 E.036
G1 X123.936 Y88.782 E.05633
G1 X125.368 Y88.756 E.04493
G1 X127.042 Y88.876 E.0526
G1 X128.809 Y89.199 E.05633
G1 X129.915 Y89.508 E.036
G1 X131.595 Y90.145 E.05633
G1 X133.337 Y91.048 E.06154
G1 X134.301 Y91.671 E.036
G1 X135.715 Y92.779 E.05633
G1 X136.551 Y93.566 E.036
G1 X137.743 Y94.911 E.05633
G1 X138.467 Y95.904 E.03855
G1 X139.43 Y97.521 E.05898
G1 X140.167 Y99.159 E.05633
G1 X140.542 Y100.244 E.036
G1 X140.972 Y101.989 E.05633
G1 X141.218 Y103.936 E.06154
G1 X141.253 Y105.083 E.036
G1 X141.144 Y106.877 E.05633
G1 X140.955 Y108.091 E.03855
G1 X140.492 Y109.915 E.05898
G1 X139.855 Y111.595 E.05633
G1 X138.952 Y113.337 E.06154
G1 X138.329 Y114.301 E.036
G1 X137.221 Y115.715 E.05633
G1 X136.434 Y116.551 E.036
G1 X135.089 Y117.743 E.05633
M73 Q2 S8
G1 X133.925 Y118.578 E.04493
G1 X132.479 Y119.43 E.0526
G1 X130.841 Y120.167 E.05633
G1 X129.756 Y120.542 E.036
M73 P2 R8
G1 X128.011 Y120.972 E.05633
G1 X126.064 Y121.218 E.06154
G1 X124.917 Y121.253 E.036
G1 X123.124 Y121.144 E.05633
G1 X121.909 Y120.955 E.03855
G1 X120.085 Y120.492 E.05898
G1 X118.405 Y119.855 E.05633
G1 X117.125 Y119.212 E.04493
G1 X115.699 Y118.329 E.0526
G1 X114.285 Y117.221 E.05633
G1 X113.449 Y116.434 E.036
G1 X112.257 Y115.089 E.05633
G1 X111.422 Y113.925 E.04493
G1 X110.57 Y112.479 E.0526
G1 X109.833 Y110.841 E.05633
G1 X109.458 Y109.756 E.036
G1 X109.028 Y108.011 E.05633
G1 X108.782 Y106.064 E.06154
G1 X108.747 Y104.917 E.036
G1 X108.856 Y103.124 E.05633
G1 X109.045 Y101.909 E.03855
G1 X109.508 Y100.085 E.05898
G1 X110.145 Y98.405 E.05633
G1 X110.788 Y97.125 E.04493
G1 X111.671 Y95.699 E.0526
G1 X112.742 Y94.332 E.05445
M204 S1000
G1 X113.039 Y94.564 F10800
M204 S800
G1 F1200
G1 X113.825 Y93.723 E.03609
G1 X115.152 Y92.547 E.05562
G1 X116.109 Y91.849 E.03712
G1 X117.686 Y90.909 E.05756
G1 X119.303 Y90.181 E.05562
G1 X121.131 Y89.603 E.06011
G1 X122.209 Y89.371 E.03457
G1 X123.97 Y89.157 E.05562
G1 X125.357 Y89.133 E.04351
G1 X126.985 Y89.248 E.05117
G1 X128.73 Y89.568 E.05562
G1 X129.792 Y89.864 E.03457
G1 X131.45 Y90.493 E.05562
G1 X132.442 Y90.976 E.03457
G1 X133.96 Y91.894 E.05562
G1 X134.848 Y92.547 E.03457
G1 X136.277 Y93.825 E.06011
G1 X137.453 Y95.152 E.05562
G1 X138.151 Y96.109 E.03712
G1 X139.091 Y97.686 E.05756
G1 X139.819 Y99.303 E.05562
G1 X140.179 Y100.345 E.03457
G1 X140.603 Y102.068 E.05562
G1 X140.843 Y103.97 E.06011
G1 X140.876 Y105.072 E.03457
G1 X140.769 Y106.842 E.05562
G1 X140.586 Y108.012 E.03712
G1 X140.136 Y109.792 E.05756
G1 X139.507 Y111.45 E.05562
G1 X139.024 Y112.441 E.03457
G1 X138.106 Y113.96 E.05562
G1 X137.453 Y114.848 E.03457
G1 X136.175 Y116.277 E.06011
G1 X134.848 Y117.453 E.05562
M73 Q3 S8
G1 X133.96 Y118.106 E.03457
G1 X132.314 Y119.091 E.06011
G1 X130.697 Y119.819 E.05562
G1 X128.869 Y120.397 E.06011
M73 P3 R8
G1 X127.791 Y120.629 E.03457
G1 X126.03 Y120.843 E.05562
G1 X124.928 Y120.876 E.03457
G1 X123.158 Y120.769 E.05562
G1 X121.988 Y120.586 E.03712
G1 X120.208 Y120.136 E.05756
G1 X118.55 Y119.507 E.05562
G1 X117.31 Y118.884 E.0435
G1 X115.922 Y118.025 E.05117
G1 X114.526 Y116.931 E.05562
G1 X113.723 Y116.175 E.03457
G1 X112.547 Y114.848 E.05562
G1 X111.894 Y113.96 E.03457
G1 X110.909 Y112.314 E.06011
G1 X110.181 Y110.697 E.05562
G1 X109.603 Y108.869 E.06011
G1 X109.371 Y107.791 E.03457
G1 X109.157 Y106.03 E.05562
G1 X109.124 Y104.928 E.03457
G1 X109.231 Y103.158 E.05562
G1 X109.414 Y101.988 E.03712
G1 X109.864 Y100.208 E.05756
G1 X110.493 Y98.55 E.05562
G1 X111.116 Y97.31 E.0435
G1 X111.975 Y95.922 E.05117
G1 X113.002 Y94.612 E.05221
M204 S1000
; printing object WhiteLightJoint.stl id:0 copy 0
;WIPE_START
G1 F8640
G1 X113.825 Y93.723 E-.27956
G1 X115.152 Y92.547 E-.40958
G1 X115.4 Y92.366 E-.07086
;WIPE_END
G1 E-.04 F2100
G1 Z.6 F720
G1 X137.636 Y103.647 F10800
G1 Z.2 F720
G1 E.8 F2100
M204 S800
;TYPE:Perimeter
;WIDTH:0.419999
G1 F1200
G1 X137.692 Y104.322 E.02125
G1 X137.71 Y105.089 E.02406
G1 X137.689 Y105.768 E.02127
G1 X137.62 Y106.532 E.02408
G1 X137.504 Y107.292 E.02408
G1 X137.343 Y108.041 E.02403
G1 X137.113 Y108.852 E.02644
G1 X136.886 Y109.508 E.02176
G1 X136.593 Y110.217 E.02408
G1 X136.256 Y110.908 E.02408
G1 X135.879 Y111.577 E.02408
G1 X135.462 Y112.222 E.02408
G1 X135.008 Y112.839 E.02403
G1 X134.465 Y113.484 E.02644
G1 X133.989 Y113.989 E.02176
G1 X133.43 Y114.515 E.02408
G1 X132.84 Y115.007 E.02408
G1 X132.222 Y115.462 E.02408
G1 X131.577 Y115.879 E.02408
G1 X130.908 Y116.256 E.02408
G1 X130.217 Y116.593 E.02408
G1 X129.508 Y116.886 E.02408
G1 X128.782 Y117.137 E.02408
G1 X128.042 Y117.343 E.02408
G1 X127.292 Y117.504 E.02408
G1 X126.532 Y117.62 E.02408
G1 X125.768 Y117.689 E.02408
G1 X125 Y117.713 E.02408
G1 X124.232 Y117.689 E.02408
G1 X123.468 Y117.62 E.02408
G1 X122.708 Y117.504 E.02408
G1 X121.959 Y117.343 E.02403
G1 X121.148 Y117.113 E.02644
G1 X120.492 Y116.886 E.02176
G1 X119.783 Y116.593 E.02408
G1 X119.092 Y116.256 E.02408
G1 X118.423 Y115.879 E.02408
G1 X117.778 Y115.462 E.02408
G1 X117.16 Y115.007 E.02408
G1 X116.57 Y114.515 E.02408
G1 X116.011 Y113.989 E.02408
G1 X115.485 Y113.43 E.02408
G1 X114.993 Y112.84 E.02408
G1 X114.538 Y112.222 E.02408
G1 X114.121 Y111.577 E.02408
G1 X113.744 Y110.908 E.02408
G1 X113.407 Y110.217 E.02408
G1 X113.114 Y109.508 E.02408
G1 X112.863 Y108.782 E.02408
G1 X112.657 Y108.042 E.02408
G1 X112.496 Y107.292 E.02408
G1 X112.38 Y106.532 E.02408
M73 Q4 S8
G1 X112.311 Y105.768 E.02408
G1 X112.287 Y105 E.02408
G1 X112.311 Y104.232 E.02408
G1 X112.38 Y103.468 E.02408
G1 X112.496 Y102.708 E.02408
G1 X112.657 Y101.959 E.02403
G1 X112.887 Y101.148 E.02644
G1 X113.114 Y100.492 E.02176
G1 X113.407 Y99.783 E.02408
M73 P4 R8
G1 X113.744 Y99.092 E.02408
G1 X114.121 Y98.423 E.02408
G1 X114.538 Y97.778 E.02408
G1 X114.993 Y97.16 E.02408
G1 X115.485 Y96.57 E.02408
G1 X116.011 Y96.011 E.02408
G1 X116.57 Y95.485 E.02408
G1 X117.16 Y94.993 E.02408
G1 X117.778 Y94.538 E.02408
G1 X118.423 Y94.121 E.02408
G1 X119.092 Y93.744 E.02408
G1 X119.783 Y93.407 E.02408
G1 X120.492 Y93.114 E.02408
G1 X121.218 Y92.863 E.02408
G1 X121.958 Y92.657 E.02408
G1 X122.708 Y92.496 E.02408
G1 X123.468 Y92.38 E.02408
G1 X124.232 Y92.311 E.02408
G1 X125 Y92.287 E.02408
G1 X125.768 Y92.311 E.02408
G1 X126.532 Y92.38 E.02408
G1 X127.292 Y92.496 E.02408
G1 X128.041 Y92.657 E.02403
G1 X128.852 Y92.887 E.02644
G1 X129.508 Y93.114 E.02176
G1 X130.217 Y93.407 E.02408
G1 X130.908 Y93.744 E.02408
G1 X131.577 Y94.121 E.02408
G1 X132.222 Y94.538 E.02408
G1 X132.839 Y94.992 E.02403
G1 X133.484 Y95.535 E.02644
G1 X133.989 Y96.011 E.02176
G1 X134.515 Y96.57 E.02408
G1 X135.007 Y97.16 E.02408
G1 X135.461 Y97.777 E.02403
G1 X135.916 Y98.488 E.02644
G1 X136.256 Y99.092 E.02176
G1 X136.593 Y99.783 E.02408
G1 X136.886 Y100.492 E.02408
G1 X137.107 Y101.132 E.02122
G1 X137.41 Y102.269 E.0369
G1 X137.542 Y102.957 E.02196
G1 X137.628 Y103.587 E.01995
M204 S1000
G1 X138.012 Y103.613 F10800
M204 S800
;TYPE:External perimeter
G1 F1200
G1 X138.077 Y104.588 E.03066
G1 X138.087 Y105.101 E.01607
G1 X138.066 Y105.79 E.02163
G1 X137.994 Y106.578 E.02479
G1 X137.875 Y107.36 E.02479
G1 X137.71 Y108.132 E.02478
G1 X137.473 Y108.965 E.02715
G1 X137.239 Y109.642 E.02244
G1 X136.937 Y110.372 E.02479
G1 X136.59 Y111.083 E.02479
G1 X136.202 Y111.772 E.02479
G1 X135.773 Y112.436 E.02479
G1 X135.304 Y113.072 E.02477
G1 X134.746 Y113.735 E.02716
G1 X134.256 Y114.256 E.02244
G1 X133.68 Y114.798 E.02479
G1 X133.073 Y115.304 E.02479
G1 X132.436 Y115.773 E.02479
G1 X131.772 Y116.202 E.02479
G1 X131.083 Y116.59 E.02479
G1 X130.372 Y116.937 E.02479
G1 X129.642 Y117.239 E.02479
G1 X128.894 Y117.497 E.02479
G1 X128.133 Y117.709 E.02479
G1 X127.36 Y117.875 E.02479
G1 X126.578 Y117.994 E.02479
G1 X125.79 Y118.066 E.02479
G1 X125 Y118.09 E.02479
G1 X124.21 Y118.066 E.02479
G1 X123.422 Y117.994 E.02479
G1 X122.64 Y117.875 E.02479
G1 X121.868 Y117.71 E.02478
G1 X121.035 Y117.473 E.02715
G1 X120.358 Y117.239 E.02244
G1 X119.628 Y116.937 E.02479
G1 X118.917 Y116.59 E.02479
G1 X118.228 Y116.202 E.02479
G1 X117.564 Y115.773 E.02479
G1 X116.927 Y115.304 E.02479
G1 X116.32 Y114.798 E.02479
G1 X115.744 Y114.256 E.02479
G1 X115.202 Y113.68 E.02479
G1 X114.696 Y113.073 E.02479
G1 X114.227 Y112.436 E.02479
G1 X113.798 Y111.772 E.02479
G1 X113.41 Y111.083 E.02479
G1 X113.063 Y110.372 E.02479
M73 P4 R7
G1 X112.761 Y109.642 E.02479
G1 X112.503 Y108.894 E.02479
G1 X112.291 Y108.133 E.02479
G1 X112.125 Y107.36 E.02479
G1 X112.006 Y106.578 E.02479
G1 X111.934 Y105.79 E.02479
G1 X111.91 Y105 E.02479
G1 X111.934 Y104.21 E.02479
G1 X112.006 Y103.422 E.02479
G1 X112.125 Y102.64 E.02479
G1 X112.29 Y101.868 E.02478
G1 X112.527 Y101.035 E.02715
G1 X112.761 Y100.358 E.02244
G1 X113.063 Y99.628 E.02479
M73 Q4 S7
G1 X113.41 Y98.917 E.02479
G1 X113.798 Y98.228 E.02479
G1 X114.227 Y97.564 E.02479
G1 X114.696 Y96.927 E.02479
G1 X115.202 Y96.32 E.02479
G1 X115.744 Y95.744 E.02479
G1 X116.32 Y95.202 E.02479
G1 X116.927 Y94.696 E.02479
G1 X117.564 Y94.227 E.02479
G1 X118.228 Y93.798 E.02479
G1 X118.917 Y93.41 E.02479
G1 X119.628 Y93.063 E.02479
G1 X120.358 Y92.761 E.02479
G1 X121.106 Y92.503 E.02479
G1 X121.867 Y92.291 E.02479
M73 Q5 S7
G1 X122.64 Y92.125 E.02479
G1 X123.422 Y92.006 E.02479
G1 X124.21 Y91.934 E.02479
G1 X125 Y91.91 E.02479
G1 X125.79 Y91.934 E.02479
G1 X126.578 Y92.006 E.02479
G1 X127.36 Y92.125 E.02479
G1 X128.132 Y92.29 E.02478
M73 P5 R7
G1 X128.965 Y92.527 E.02715
G1 X129.642 Y92.761 E.02244
G1 X130.372 Y93.063 E.02479
G1 X131.083 Y93.41 E.02479
G1 X131.772 Y93.798 E.02479
G1 X132.436 Y94.227 E.02479
G1 X133.072 Y94.696 E.02477
G1 X133.735 Y95.254 E.02716
G1 X134.256 Y95.744 E.02244
G1 X134.798 Y96.32 E.02479
G1 X135.304 Y96.927 E.02479
G1 X135.772 Y97.564 E.02477
G1 X136.239 Y98.293 E.02716
G1 X136.59 Y98.917 E.02244
G1 X136.937 Y99.628 E.02479
G1 X137.239 Y100.358 E.02479
G1 X137.497 Y101.106 E.02479
G1 X137.779 Y102.19 E.03513
G1 X137.915 Y102.9 E.02268
G1 X138.004 Y103.553 E.02066
M204 S1000
G1 X137.687 Y103.846 F10800
;WIPE_START
G1 F8640
G1 X138.077 Y104.588 E-.2396
G1 X138.087 Y105.101 E-.11834
G1 X138.066 Y105.79 E-.15928
G1 X137.994 Y106.578 E-.18258
G1 X137.955 Y106.836 E-.0602
;WIPE_END
G1 E-.04 F2100
G1 Z.6 F720
G1 X131.646 Y106.164 F10800
G1 Z.2 F720
G1 E.8 F2100
M204 S800
;TYPE:Perimeter
G1 F1200
G1 X131.492 Y106.69 E.0172
G1 X131.262 Y107.235 E.01855
G1 X130.97 Y107.756 E.01871
G1 X130.621 Y108.247 E.01889
G1 X130.218 Y108.703 E.01909
G1 X129.767 Y109.122 E.0193
G1 X129.304 Y109.475 E.01826
G1 X128.739 Y109.832 E.02097
G1 X128.27 Y110.068 E.01645
G1 X127.702 Y110.305 E.0193
G1 X127.16 Y110.481 E.01786
G1 X126.638 Y110.61 E.01688
G1 X126.13 Y110.702 E.01619
G1 X125.631 Y110.762 E.01576
G1 X125.023 Y110.787 E.01907
G1 X124.371 Y110.762 E.02047
G1 X123.87 Y110.702 E.0158
G1 X123.362 Y110.61 E.01619
G1 X122.868 Y110.486 E.01599
G1 X122.18 Y110.264 E.02265
G1 X121.626 Y110.021 E.01897
G1 X121.034 Y109.699 E.02113
G1 X120.572 Y109.385 E.01752
G1 X120.042 Y108.955 E.02138
G1 X119.612 Y108.523 E.01913
G1 X119.232 Y108.054 E.01892
G1 X118.907 Y107.552 E.01873
G1 X118.669 Y107.081 E.01656
G1 X118.436 Y106.472 E.02044
G1 X118.297 Y105.904 E.01835
G1 X118.224 Y105.325 E.0183
G1 X118.22 Y104.742 E.01828
G1 X118.283 Y104.175 E.01788
G1 X118.417 Y103.59 E.01881
G1 X118.598 Y103.084 E.01684
G1 X118.877 Y102.501 E.02027
G1 X119.198 Y101.995 E.01879
G1 X119.57 Y101.525 E.01879
G1 X120.001 Y101.082 E.01938
G1 X120.475 Y100.684 E.0194
G1 X120.99 Y100.329 E.01962
G1 X121.541 Y100.019 E.01982
G1 X122.415 Y99.649 E.02976
G1 X123.042 Y99.458 E.02055
G1 X123.678 Y99.324 E.02036
G1 X124.309 Y99.244 E.01994
G1 X124.977 Y99.213 E.02097
G1 X125.629 Y99.238 E.02047
G1 X126.246 Y99.312 E.01949
G1 X126.912 Y99.447 E.02128
G1 X127.788 Y99.725 E.02884
G1 X128.414 Y99.997 E.02138
G1 X128.966 Y100.301 E.01977
G1 X129.482 Y100.652 E.01956
G1 X129.958 Y101.045 E.01934
G1 X130.388 Y101.477 E.01913
G1 X130.768 Y101.946 E.01892
G1 X131.093 Y102.448 E.01873
G1 X131.331 Y102.919 E.01656
G1 X131.564 Y103.528 E.02044
G1 X131.703 Y104.096 E.01835
G1 X131.787 Y105.017 E.029
G1 X131.756 Y105.549 E.01671
G1 X131.661 Y106.106 E.0177
M204 S1000
G1 X131.161 Y106.48 F10800
M204 S800
;TYPE:External perimeter
G1 F1200
G1 X130.915 Y107.086 E.0205
G1 X130.642 Y107.57 E.01741
G1 X130.315 Y108.026 E.01762
G1 X129.937 Y108.453 E.01786
G1 X129.512 Y108.845 E.01812
G1 X129.077 Y109.174 E.01712
G1 X128.54 Y109.511 E.01987
G1 X128.003 Y109.781 E.01885
G1 X127.436 Y110.005 E.01913
G1 X126.85 Y110.18 E.01917
G1 X126.282 Y110.299 E.01819
G1 X125.629 Y110.384 E.02064
G1 X125.008 Y110.41 E.01951
G1 X124.386 Y110.385 E.01951
G1 X123.77 Y110.31 E.01946
G1 X123.165 Y110.184 E.01936
G1 X122.685 Y110.031 E.01581
G1 X122.247 Y109.885 E.01447
G1 X121.74 Y109.659 E.01742
G1 X121.218 Y109.369 E.01872
G1 X120.784 Y109.074 E.01643
G1 X120.284 Y108.666 E.02026
G1 X119.881 Y108.258 E.01797
G1 X119.527 Y107.818 E.01772
G1 X119.225 Y107.349 E.01749
G1 X118.978 Y106.856 E.01728
G1 X118.79 Y106.343 E.01712
G1 X118.663 Y105.816 E.01699
G1 X118.599 Y105.281 E.01692
G1 X118.597 Y104.742 E.0169
G1 X118.658 Y104.219 E.01649
G1 X118.784 Y103.678 E.01744
G1 X118.97 Y103.164 E.01713
G1 X119.215 Y102.669 E.0173
G1 X119.515 Y102.198 E.01751
G1 X119.864 Y101.761 E.01755
G1 X120.27 Y101.347 E.01818
G1 X120.716 Y100.974 E.01824
G1 X121.203 Y100.64 E.0185
G1 X121.725 Y100.348 E.01874
G1 X122.561 Y99.997 E.02845
G1 X123.15 Y99.82 E.01929
G1 X123.755 Y99.693 E.01937
G1 X124.355 Y99.618 E.01896
G1 X124.992 Y99.59 E.02001
G1 X125.614 Y99.615 E.01951
G1 X126.2 Y99.687 E.01852
G1 X126.835 Y99.816 E.0203
M73 Q6 S7
G1 X127.673 Y100.084 E.02759
G1 X128.26 Y100.341 E.02011
G1 X128.782 Y100.631 E.01872
G1 X129.269 Y100.963 E.01848
G1 X129.716 Y101.334 E.01822
G1 X130.119 Y101.742 E.01797
G1 X130.473 Y102.182 E.01772
G1 X130.775 Y102.651 E.01749
G1 X131.022 Y103.144 E.01728
G1 X131.21 Y103.657 E.01712
G1 X131.337 Y104.184 E.01699
M73 P6 R7
G1 X131.41 Y105.006 E.02588
G1 X131.379 Y105.527 E.01637
G1 X131.286 Y106.06 E.01696
G1 X131.178 Y106.423 E.01187
M204 S1000
G1 X131.423 Y106.782 F10800
;WIPE_START
G1 F8640
G1 X130.915 Y107.086 E-.16479
G1 X130.642 Y107.57 E-.12819
G1 X130.315 Y108.026 E-.12976
