;Gcode generated by Cura by Dagoma 2.2.1
;Printer: DiscoEasy200
;Object Name : Battery_Holder.stl
;Date: 18-11-2022
;Time: 23:20:38
;Print duration: 19 min
;Layer height: 0.15 mm
;Filling: 17.0 %
;Print speed: 50.0 mm/s
;Support: None
;Adhesion improvement: Nothing
;Filament:
;- Material: Other PLA type Generic
;- Temperature: 215.0 °C
;- Flow: 100.0 %
;- Retraction amount: 3.5 mm
;- Retraction speed: 50.0 mm/s
;- Length: 0.82 m
;- Weight: 3 g
;- Cost: 0.12 EUR
D131 E1 ;Disable filrunout 2, just in case the user has a bicolor printer
G90 ;absolute positioning
M106 S255 ;fan on for the sensor
G28 X Y
G1 X50
M109 R90 ;wait for cool down
G28
;Sensor activation
;No Sensor
M104 S215 ;start the heater
M107 ;start with the fan off
G1 X100 Y20 Z0.5 F3000
M109 S215
M82 ;set extruder to absolute mode
G92 E0 ;zero the extruded length
G1 F200 E10 ;extrude 10mm of feed stock
G92 E0 ;zero the extruded length again
G1 E-3.5 F5000 ;filament retract length
G1 F240 Z3
G1 F3600

;Layer count: 55
;LAYER:0
M117 Nb = 1 / 55
M107
G1 F3000 E-3.50000
G0 F3600 X96.914 Y90.662 Z0.260
;TYPE:WALL-INNER
G1 F3000 E0.00000
G1 F1020 X108.086 Y90.662 E0.48306
G1 X112.030 Y94.606 E0.72422
G1 X109.326 Y96.500 E0.86697
G1 X110.199 Y97.843 E0.93623
G1 X110.510 Y98.400 E0.96381
G1 X110.764 Y98.940 E0.98961
G1 X110.992 Y99.524 E1.01672
G1 X111.175 Y100.106 E1.04310
G1 X111.508 Y101.500 E1.10507
G1 X114.500 Y101.500 E1.23444
G1 X114.500 Y107.924 E1.51220
G1 X108.086 Y114.338 E1.90440
G1 X96.914 Y114.338 E2.38746
G1 X92.970 Y110.394 E2.62863
G1 X95.674 Y108.500 E2.77137
G1 X94.801 Y107.157 E2.84063
G1 X94.490 Y106.600 E2.86822
G1 X94.236 Y106.060 E2.89402
G1 X94.008 Y105.476 E2.92113
G1 X93.825 Y104.894 E2.94750
G1 X93.492 Y103.500 E3.00947
G1 X90.500 Y103.500 E3.13884
G1 X90.500 Y97.076 E3.41661
G1 X96.914 Y90.662 E3.80881
G0 F3600 X90.027 Y103.973
G0 X90.500 Y107.492
G1 F1020 X90.754 Y108.069 E3.83607
G1 X90.867 Y108.291 E3.84684
G1 X90.500 Y107.924 E3.86928
G1 X90.500 Y107.492 E3.88796
G0 F3600 X90.027 Y103.973
G0 X93.141 Y103.943
G0 X112.473 Y94.858
G0 X114.246 Y96.931
G1 F1020 X114.133 Y96.709 E3.89873
G1 X114.500 Y97.076 E3.92117
G1 X114.500 Y97.508 E3.93985
G1 X114.246 Y96.931 E3.96711
G0 F3600 X113.884 Y97.103
G1 F1020 X113.567 Y96.479 E3.99737
G1 X113.217 Y95.875 E4.02755
G1 X112.490 Y94.773 E4.08464
G1 X109.872 Y96.606 E4.22282
G1 X110.550 Y97.648 E4.27657
G1 X110.858 Y98.201 E4.30394
G1 X111.136 Y98.792 E4.33218
G1 X111.366 Y99.381 E4.35952
G1 X111.562 Y100.007 E4.38789
G1 X111.824 Y101.100 E4.43648
G1 X114.900 Y101.100 E4.56949
G1 X114.900 Y108.090 E4.87172
G1 X108.252 Y114.738 E5.27823
G1 X96.748 Y114.738 E5.77564
G1 X90.100 Y108.090 E6.18216
G1 X90.100 Y104.720 E6.32787
G1 X90.378 Y105.937 E6.38184
G1 X90.589 Y106.606 E6.41218
G1 X90.834 Y107.259 E6.44233
G1 X91.116 Y107.897 E6.47249
G1 X91.433 Y108.521 E6.50276
G1 X91.783 Y109.125 E6.53294
G1 X92.510 Y110.227 E6.59002
G1 X95.128 Y108.394 E6.72821
G1 X94.450 Y107.352 E6.78196
G1 X94.142 Y106.799 E6.80933
G1 X93.864 Y106.208 E6.83757
G1 X93.634 Y105.619 E6.86491
G1 X93.438 Y104.993 E6.89327
G1 X93.176 Y103.900 E6.94187
G1 X90.100 Y103.900 E7.07487
G1 X90.100 Y96.910 E7.37710
G1 X96.748 Y90.262 E7.78362
G1 X108.252 Y90.262 E8.28103
G1 X114.900 Y96.910 E8.68754
G1 X114.900 Y100.280 E8.83325
G1 X114.622 Y99.063 E8.88723
G1 X114.411 Y98.394 E8.91756
G1 X114.166 Y97.741 E8.94772
G1 X113.884 Y97.103 E8.97788
G0 F3600 X113.523 Y97.274
;TYPE:WALL-OUTER
G1 F1020 X113.216 Y96.670 E9.00717
G1 X112.877 Y96.086 E9.03637
G1 X112.383 Y95.336 E9.07520
G1 X110.418 Y96.712 E9.17892
G1 X110.895 Y97.446 E9.21677
G1 X111.220 Y98.030 E9.24567
G1 X111.505 Y98.635 E9.27459
G1 X111.743 Y99.246 E9.30294
G1 X111.947 Y99.897 E9.33244
G1 X112.139 Y100.700 E9.36814
G1 X114.575 Y100.700 E9.47347
G1 X114.422 Y99.926 E9.50758
G1 X114.237 Y99.171 E9.54119
G1 X114.033 Y98.525 E9.57048
G1 X113.795 Y97.892 E9.59972
G1 X113.523 Y97.274 E9.62892
G0 F3600 X113.789 Y97.136
G0 X115.000 Y96.838
G0 X115.300 Y96.744
G1 F1020 X115.300 Y108.256 E10.12667
G1 X108.418 Y115.138 E10.54749
G1 X96.582 Y115.138 E11.05926
G1 X89.700 Y108.256 E11.48008
G1 X89.700 Y96.744 E11.97784
G1 X96.582 Y89.862 E12.39866
G1 X108.418 Y89.862 E12.91043
G1 X115.300 Y96.744 E13.33125
G0 F3600 X115.000 Y96.838
G0 X112.473 Y94.858
G0 X109.949 Y96.622
G0 X93.152 Y104.230
G0 X92.861 Y104.300
G1 F1020 X90.425 Y104.300 E13.43658
G1 X90.578 Y105.074 E13.47069
G1 X90.763 Y105.829 E13.50430
G1 X90.967 Y106.475 E13.53359
G1 X91.205 Y107.108 E13.56283
G1 X91.477 Y107.726 E13.59203
G1 X91.784 Y108.330 E13.62132
G1 X92.123 Y108.914 E13.65052
G1 X92.617 Y109.664 E13.68935
G1 X94.582 Y108.288 E13.79307
G1 X94.105 Y107.554 E13.83092
G1 X93.780 Y106.970 E13.85982
G1 X93.495 Y106.365 E13.88874
G1 X93.257 Y105.753 E13.91713
G1 X93.053 Y105.103 E13.94659
G1 X92.861 Y104.300 E13.98229
G0 F3600 X92.933 Y103.398
;TYPE:SKIN
G1 F1020 X90.599 Y101.064 E14.12501
G0 F3600 X90.599 Y101.630
G1 F1020 X92.367 Y103.398 E14.23312
G0 F3600 X91.802 Y103.398
G1 F1020 X90.599 Y102.196 E14.30665
G0 F3600 X90.599 Y102.761
G1 F1020 X91.236 Y103.398 E14.34560
G0 F3600 X90.670 Y103.398
G1 F1020 X90.599 Y103.327 E14.34994
G0 F3600 X90.599 Y100.498
G1 F1020 X93.499 Y103.398 E14.52727
G0 F3600 X93.592 Y103.492
G1 F1020 X104.337 Y114.237 E15.18430
G0 F3600 X103.772 Y114.237
G1 F1020 X93.770 Y104.236 E15.79588
G0 F3600 X93.961 Y104.992
G1 F1020 X103.206 Y114.237 E16.36119
G0 F3600 X102.640 Y114.237
G1 F1020 X94.266 Y105.863 E16.87324
G0 F3600 X94.817 Y106.979
G1 F1020 X102.075 Y114.237 E17.31705
G0 F3600 X101.509 Y114.237
G1 F1020 X95.803 Y108.531 E17.66597
G0 F3600 X95.470 Y108.764
G1 F1020 X100.943 Y114.237 E18.00063
G0 F3600 X100.378 Y114.237
G1 F1020 X95.138 Y108.997 E18.32104
G0 F3600 X94.805 Y109.230
G1 F1020 X99.812 Y114.237 E18.62721
G0 F3600 X99.246 Y114.237
G1 F1020 X94.473 Y109.463 E18.91910
G0 F3600 X94.139 Y109.696
G1 F1020 X98.680 Y114.237 E19.19678
G0 F3600 X98.115 Y114.237
G1 F1020 X93.807 Y109.929 E19.46020
G0 F3600 X93.475 Y110.162
G1 F1020 X97.549 Y114.237 E19.70935
G0 F3600 X96.983 Y114.237
G1 F1020 X93.142 Y110.395 E19.94425
G0 F3600 X95.051 Y108.378
G0 X93.141 Y103.943
G0 X90.599 Y99.933
G1 F1020 X104.903 Y114.237 E20.81891
G0 F3600 X105.469 Y114.237
G1 F1020 X90.599 Y99.367 E21.72818
G0 F3600 X90.599 Y98.801
G1 F1020 X106.034 Y114.237 E22.67203
G0 F3600 X106.600 Y114.237
G1 F1020 X90.599 Y98.236 E23.65046
G0 F3600 X90.599 Y97.670
G1 F1020 X107.166 Y114.237 E24.66350
G0 F3600 X107.731 Y114.237
G1 F1020 X90.605 Y97.110 E25.71075
G0 F3600 X90.887 Y96.827
G1 F1020 X108.171 Y114.110 E26.76760
G0 F3600 X108.453 Y113.827
G1 F1020 X91.170 Y96.544 E27.82442
G0 F3600 X91.453 Y96.261
G1 F1020 X108.736 Y113.545 E28.88128
G0 F3600 X109.019 Y113.262
G1 F1020 X91.736 Y95.979 E29.93810
G0 F3600 X92.019 Y95.696
G1 F1020 X109.302 Y112.979 E30.99492
G0 F3600 X109.585 Y112.696
G1 F1020 X92.302 Y95.413 E32.05174
G0 F3600 X92.585 Y95.130
G1 F1020 X109.868 Y112.413 E33.10856
G0 F3600 X110.150 Y112.130
G1 F1020 X92.867 Y94.847 E34.16538
G0 F3600 X93.150 Y94.564
G1 F1020 X110.433 Y111.848 E35.22223
G0 F3600 X110.716 Y111.565
G1 F1020 X93.433 Y94.282 E36.27905
G0 F3600 X93.716 Y93.999
G1 F1020 X110.999 Y111.282 E37.33587
G0 F3600 X111.282 Y110.999
G1 F1020 X93.999 Y93.716 E38.39270
G0 F3600 X94.282 Y93.433
G1 F1020 X111.565 Y110.716 E39.44952
G0 F3600 X111.848 Y110.433
G1 F1020 X94.564 Y93.150 E40.50637
G0 F3600 X94.847 Y92.867
G1 F1020 X112.130 Y110.150 E41.56319
G0 F3600 X112.413 Y109.868
G1 F1020 X95.130 Y92.585 E42.62001
G0 F3600 X95.413 Y92.302
G1 F1020 X112.696 Y109.585 E43.67683
G0 F3600 X112.979 Y109.302
G1 F1020 X95.696 Y92.019 E44.73365
G0 F3600 X95.979 Y91.736
G1 F1020 X113.262 Y109.019 E45.79047
G0 F3600 X113.545 Y108.736
G1 F1020 X96.261 Y91.453 E46.84733
G0 F3600 X96.544 Y91.170
G1 F1020 X113.827 Y108.453 E47.90415
G0 F3600 X114.110 Y108.171
G1 F1020 X96.827 Y90.887 E48.96100
G0 F3600 X97.267 Y90.762
G1 F1020 X114.393 Y107.888 E50.00822
G0 F3600 X114.399 Y107.328
G1 F1020 X97.833 Y90.762 E51.02120
G0 F3600 X98.398 Y90.762
G1 F1020 X114.399 Y106.762 E51.99960
G0 F3600 X114.399 Y106.196
G1 F1020 X98.964 Y90.762 E52.94339
G0 F3600 X99.530 Y90.762
G1 F1020 X114.399 Y105.631 E53.85260
G0 F3600 X114.399 Y105.065
G1 F1020 X100.095 Y90.762 E54.72723
G0 F3600 X100.661 Y90.762
G1 F1020 X111.406 Y101.507 E55.38426
G0 F3600 X111.500 Y101.600
G1 F1020 X114.399 Y104.499 E55.56153
G0 F3600 X114.399 Y103.934
G1 F1020 X112.065 Y101.600 E55.70425
G0 F3600 X112.631 Y101.600
G1 F1020 X114.399 Y103.368 E55.81236
G0 F3600 X114.399 Y102.802
G1 F1020 X113.197 Y101.600 E55.88586
G0 F3600 X113.762 Y101.600
G1 F1020 X114.399 Y102.237 E55.92481
G0 F3600 X114.399 Y101.671
G1 F1020 X114.328 Y101.600 E55.92915
G0 F3600 X111.228 Y100.763
G1 F1020 X101.227 Y90.762 E56.54069
G0 F3600 X101.792 Y90.762
G1 F1020 X111.038 Y100.007 E57.10604
G0 F3600 X110.734 Y99.137
G1 F1020 X102.358 Y90.762 E57.61818
G0 F3600 X102.924 Y90.762
G1 F1020 X110.182 Y98.020 E58.06199
G0 F3600 X109.194 Y96.467
G1 F1020 X103.490 Y90.762 E58.41081
G0 F3600 X104.055 Y90.762
G1 F1020 X109.528 Y96.234 E58.74545
G0 F3600 X109.860 Y96.001
G1 F1020 X104.621 Y90.762 E59.06580
G0 F3600 X105.187 Y90.762
G1 F1020 X110.193 Y95.768 E59.37191
G0 F3600 X110.526 Y95.535
G1 F1020 X105.752 Y90.762 E59.66380
G0 F3600 X106.318 Y90.762
G1 F1020 X110.858 Y95.302 E59.94141
G0 F3600 X111.191 Y95.069
G1 F1020 X106.884 Y90.762 E60.20477
G0 F3600 X107.449 Y90.762
G1 F1020 X111.524 Y94.836 E60.45392
G0 F3600 X111.857 Y94.603
G1 F1020 X108.015 Y90.762 E60.68882
;LAYER:1
M117 Nb = 2 / 55
M106 S81
G0 F3600 X108.087 Y90.659 Z0.410
;TYPE:WALL-INNER
G1 F1380 X112.035 Y94.607 E60.82775
G1 X109.330 Y96.501 E60.90992
G1 X110.212 Y97.858 E60.95019
G1 X110.506 Y98.386 E60.96523
G1 X110.770 Y98.945 E60.98061
G1 X110.995 Y99.523 E60.99604
G1 X111.173 Y100.089 E61.01081
G1 X111.511 Y101.497 E61.04684
G1 X114.503 Y101.497 E61.12128
G1 X114.503 Y107.925 E61.28123
G1 X108.087 Y114.341 E61.50701
G1 X96.913 Y114.341 E61.78505
G1 X92.965 Y110.393 E61.92397
G1 X95.670 Y108.499 E62.00614
G1 X94.788 Y107.142 E62.04641
G1 X94.494 Y106.614 E62.06145
G1 X94.230 Y106.055 E62.07683
G1 X94.005 Y105.477 E62.09227
G1 X93.827 Y104.911 E62.10703
G1 X93.489 Y103.503 E62.14306
G1 X90.497 Y103.503 E62.21751
G1 X90.497 Y97.075 E62.37746
G1 X96.913 Y90.659 E62.60323
G1 X108.087 Y90.659 E62.88127
G0 F3600 X112.474 Y94.859
G0 X114.251 Y96.949
G1 F1380 X114.122 Y96.694 E62.88838
G1 X114.503 Y97.075 E62.90179
G1 X114.503 Y97.525 E62.91299
G1 X114.251 Y96.949 E62.92863
G1 F3000 E59.42863
G0 F3600 X90.749 Y108.051
G1 F3000 E62.92863
G1 F1380 X90.878 Y108.306 E62.93574
G1 X90.497 Y107.925 E62.94915
G1 X90.497 Y107.475 E62.96035
G1 X90.749 Y108.051 E62.97599
G0 F3600 X91.110 Y107.880
G1 F1380 X91.426 Y108.504 E62.99339
G1 X91.776 Y109.108 E63.01076
G1 X92.509 Y110.225 E63.04401
G1 X95.125 Y108.393 E63.12348
G1 X94.448 Y107.353 E63.15435
G1 X94.140 Y106.800 E63.17010
G1 X93.862 Y106.209 E63.18636
G1 X93.634 Y105.624 E63.20198
G1 X93.439 Y105.003 E63.21818
G1 X93.175 Y103.902 E63.24635
G1 X90.098 Y103.902 E63.32291
G1 X90.098 Y96.910 E63.49689
G1 X96.748 Y90.260 E63.73090
G1 X108.252 Y90.260 E64.01715
G1 X114.902 Y96.910 E64.25116
G1 X114.902 Y100.301 E64.33554
G1 X114.786 Y99.716 E64.35038
G1 X114.623 Y99.077 E64.36679
G1 X114.415 Y98.412 E64.38413
G1 X114.170 Y97.759 E64.40148
G1 X113.890 Y97.120 E64.41884
G1 X113.574 Y96.496 E64.43625
G1 X113.224 Y95.892 E64.45362
G1 X112.491 Y94.775 E64.48686
G1 X109.875 Y96.607 E64.56633
G1 X110.552 Y97.647 E64.59721
G1 X110.860 Y98.200 E64.61296
G1 X111.138 Y98.791 E64.62921
G1 X111.366 Y99.376 E64.64483
G1 X111.561 Y99.997 E64.66103
G1 X111.825 Y101.098 E64.68920
G1 X114.902 Y101.098 E64.76576
G1 X114.902 Y108.090 E64.93974
G1 X108.252 Y114.740 E65.17375
G1 X96.748 Y114.740 E65.46000
G1 X90.098 Y108.090 E65.69401
G1 X90.098 Y104.699 E65.77839
G1 X90.214 Y105.284 E65.79323
G1 X90.377 Y105.923 E65.80964
G1 X90.585 Y106.588 E65.82698
G1 X90.830 Y107.241 E65.84433
G1 X91.110 Y107.880 E65.86169
G0 F3600 X91.471 Y107.710
;TYPE:WALL-OUTER
G1 F1320 X91.777 Y108.314 E65.87854
G1 X92.116 Y108.899 E65.89536
G1 X92.617 Y109.663 E65.91810
G1 X94.581 Y108.288 E65.97775
G1 X94.110 Y107.564 E65.99925
G1 X93.779 Y106.970 E66.01617
G1 X93.494 Y106.365 E66.03281
G1 X93.256 Y105.754 E66.04912
G1 X93.055 Y105.112 E66.06586
G1 X92.860 Y104.301 E66.08662
G1 X90.426 Y104.301 E66.14718
G1 X90.603 Y105.196 E66.16988
G1 X90.761 Y105.813 E66.18573
G1 X90.963 Y106.459 E66.20257
G1 X91.200 Y107.091 E66.21937
G1 X91.471 Y107.710 E66.23618
G0 F3600 X91.205 Y107.848
G0 X89.999 Y108.163
G0 X89.699 Y108.255
G1 F1320 X89.699 Y96.745 E66.52258
G1 X96.583 Y89.861 E66.76483
G1 X108.417 Y89.861 E67.05929
G1 X115.301 Y96.745 E67.30153
G1 X115.301 Y108.255 E67.58793
G1 X108.417 Y115.139 E67.83018
G1 X96.583 Y115.139 E68.12464
G1 X89.699 Y108.255 E68.36688
G0 F3600 X89.999 Y108.163
G0 X92.526 Y110.141
G0 X95.050 Y108.379
G0 X112.140 Y100.999
G0 X112.140 Y100.699
G1 F1320 X114.574 Y100.699 E68.42745
G1 X114.397 Y99.804 E68.45015
G1 X114.239 Y99.187 E68.46600
G1 X114.037 Y98.541 E68.48284
G1 X113.800 Y97.909 E68.49964
G1 X113.529 Y97.290 E68.51645
G1 X113.223 Y96.686 E68.53330
G1 X112.884 Y96.101 E68.55012
G1 X112.383 Y95.337 E68.57285
G1 X110.419 Y96.712 E68.63251
G1 X110.889 Y97.434 E68.65395
G1 X111.221 Y98.030 E68.67092
G1 X111.506 Y98.635 E68.68756
G1 X111.744 Y99.246 E68.70388
G1 X111.944 Y99.883 E68.72049
G1 X112.140 Y100.699 E68.74137
G0 F3600 X111.980 Y101.597
;TYPE:SKIN
G1 F1440 X99.336 Y114.240 E69.18629
G0 F3600 X99.900 Y114.240
G1 F1440 X112.544 Y101.597 E69.63121
G0 F3600 X113.108 Y101.597
G1 F1440 X100.465 Y114.240 E70.07611
G0 F3600 X101.029 Y114.240
G1 F1440 X113.673 Y101.597 E70.52103
G0 F3600 X114.237 Y101.597
G1 F1440 X101.593 Y114.240 E70.96595
G0 F3600 X102.157 Y114.240
G1 F1440 X114.402 Y101.996 E71.39683
G0 F3600 X114.402 Y102.560
G1 F1440 X102.722 Y114.240 E71.80784
G0 F3600 X103.286 Y114.240
G1 F1440 X114.402 Y103.125 E72.19899
G0 F3600 X114.402 Y103.689
G1 F1440 X103.850 Y114.240 E72.57029
G0 F3600 X104.414 Y114.240
G1 F1440 X114.402 Y104.253 E72.92175
G0 F3600 X114.402 Y104.817
G1 F1440 X104.979 Y114.240 E73.25334
G0 F3600 X105.543 Y114.240
G1 F1440 X114.402 Y105.382 E73.56506
G0 F3600 X114.402 Y105.946
G1 F1440 X106.107 Y114.240 E73.85694
G0 F3600 X106.672 Y114.240
G1 F1440 X114.402 Y106.510 E74.12896
G0 F3600 X114.402 Y107.075
G1 F1440 X107.236 Y114.240 E74.38111
G0 F3600 X107.800 Y114.240
G1 F1440 X114.402 Y107.639 E74.61341
G0 F3600 X111.428 Y101.585
G1 F1440 X98.772 Y114.240 E75.05875
G0 F3600 X98.207 Y114.240
G1 F1440 X111.318 Y101.130 E75.52011
G0 F3600 X111.208 Y100.675
G1 F1440 X97.643 Y114.240 E75.99745
G0 F3600 X97.079 Y114.240
G1 F1440 X111.099 Y100.220 E76.49081
G0 F3600 X110.971 Y99.784
G1 F1440 X96.735 Y114.020 E76.99177
G0 F3600 X96.452 Y113.738
G1 F1440 X110.825 Y99.366 E77.49753
G0 F3600 X110.666 Y98.961
G1 F1440 X96.170 Y113.456 E78.00762
G0 F3600 X95.888 Y113.174
G1 F1440 X110.484 Y98.578 E78.52124
G0 F3600 X110.290 Y98.207
G1 F1440 X95.606 Y112.892 E79.03798
G0 F3600 X95.324 Y112.610
G1 F1440 X110.085 Y97.848 E79.55743
G0 F3600 X109.863 Y97.506
G1 F1440 X95.042 Y112.328 E80.07899
G0 F3600 X94.760 Y112.046
G1 F1440 X109.641 Y97.164 E80.60267
G0 F3600 X109.418 Y96.823
G1 F1440 X94.477 Y111.763 E81.12842
G0 F3600 X94.195 Y111.481
G1 F1440 X109.196 Y96.481 E81.65628
G0 F3600 X109.229 Y96.447
G1 F1440 X111.481 Y94.195 E81.73552
G0 F3600 X111.199 Y93.913
G1 F1440 X93.913 Y111.199 E82.34381
G0 F3600 X93.631 Y110.917
G1 F1440 X110.917 Y93.631 E82.95209
G0 F3600 X110.635 Y93.349
G1 F1440 X95.670 Y108.313 E83.47869
G0 F3600 X95.448 Y107.972
G1 F1440 X110.353 Y93.067 E84.00319
G0 F3600 X110.071 Y92.785
G1 F1440 X95.226 Y107.630 E84.52558
G0 F3600 X95.003 Y107.288
G1 F1440 X109.788 Y92.503 E85.04585
G0 F3600 X109.506 Y92.220
G1 F1440 X94.789 Y106.937 E85.56374
G0 F3600 X94.588 Y106.575
G1 F1440 X109.224 Y91.938 E86.07879
G0 F3600 X108.942 Y91.656
G1 F1440 X94.406 Y106.192 E86.59030
G0 F3600 X94.237 Y105.797
G1 F1440 X108.660 Y91.374 E87.09784
G0 F3600 X108.378 Y91.092
G1 F1440 X94.082 Y105.387 E87.60089
G0 F3600 X93.948 Y104.957
G1 F1440 X108.096 Y90.810 E88.09874
G0 F3600 X107.583 Y90.758
G1 F1440 X93.834 Y104.507 E88.58256
G0 F3600 X93.724 Y104.052
G1 F1440 X107.019 Y90.758 E89.05038
G0 F3600 X106.454 Y90.758
G1 F1440 X93.615 Y103.598 E89.50220
G0 F3600 X93.246 Y103.402
G1 F1440 X105.890 Y90.758 E89.94713
G0 F3600 X105.326 Y90.758
G1 F1440 X92.682 Y103.402 E90.39207
G0 F3600 X92.118 Y103.402
G1 F1440 X104.762 Y90.758 E90.83701
G0 F3600 X104.197 Y90.758
G1 F1440 X91.554 Y103.402 E91.28193
G0 F3600 X90.989 Y103.402
G1 F1440 X103.633 Y90.758 E91.72686
G0 F3600 X103.069 Y90.758
G1 F1440 X90.596 Y103.231 E92.16578
G0 F3600 X90.596 Y102.666
G1 F1440 X102.505 Y90.758 E92.58483
G0 F3600 X101.940 Y90.758
G1 F1440 X90.596 Y102.102 E92.98402
G0 F3600 X90.596 Y101.538
G1 F1440 X101.376 Y90.758 E93.36337
G0 F3600 X100.812 Y90.758
G1 F1440 X90.596 Y100.974 E93.72286
G0 F3600 X90.596 Y100.409
G1 F1440 X100.247 Y90.758 E94.06248
G0 F3600 X111.113 Y95.128
G1 F1440 X111.763 Y94.477 E94.08537
G0 F3600 X99.683 Y90.758
G1 F1440 X90.596 Y99.845 E94.40513
G0 F3600 X90.596 Y99.281
G1 F1440 X99.119 Y90.758 E94.70505
G0 F3600 X98.555 Y90.758
G1 F1440 X90.596 Y98.717 E94.98513
G0 F3600 X90.596 Y98.152
G1 F1440 X97.990 Y90.758 E95.24532
G0 F3600 X97.426 Y90.758
G1 F1440 X90.596 Y97.588 E95.48566
G0 F3600 X95.050 Y108.379
G0 X94.646 Y109.338
G1 F1440 X93.349 Y110.635 E95.53130
;LAYER:2
M117 Nb = 3 / 55
M106 S165
G0 F3600 X92.966 Y110.394 Z0.560
;TYPE:WALL-INNER
G1 F1800 X95.670 Y108.499 E95.61347
G1 X94.788 Y107.142 E95.65374
G1 X94.494 Y106.614 E95.66877
G1 X94.230 Y106.055 E95.68416
G1 X94.005 Y105.477 E95.69959
G1 X93.827 Y104.911 E95.71435
G1 X93.489 Y103.503 E95.75038
G1 X90.497 Y103.503 E95.82483
G1 X90.497 Y97.075 E95.98478
G1 X96.913 Y90.659 E96.21056
G1 X108.087 Y90.659 E96.48860
G1 X112.034 Y94.606 E96.62749
G1 X109.330 Y96.501 E96.70965
G1 X110.212 Y97.858 E96.74992
G1 X110.506 Y98.386 E96.76496
G1 X110.770 Y98.945 E96.78034
G1 X110.995 Y99.523 E96.79577
G1 X111.173 Y100.089 E96.81054
G1 X111.511 Y101.497 E96.84657
G1 X114.503 Y101.497 E96.92102
G1 X114.503 Y107.925 E97.08096
G1 X108.087 Y114.341 E97.30674
G1 X96.913 Y114.341 E97.58478
G1 X92.966 Y110.394 E97.72367
G0 F3600 X90.742 Y108.035
G1 F1800 X90.880 Y108.308 E97.73128
G1 X90.497 Y107.925 E97.74476
G1 X90.497 Y107.475 E97.75596
G1 X90.742 Y108.035 E97.77117
G1 F3000 E94.27117
G0 F3600 X114.258 Y96.965
G1 F3000 E97.77117
G1 F1800 X114.120 Y96.692 E97.77878
G1 X114.503 Y97.075 E97.79226
G1 X114.503 Y97.525 E97.80345
G1 X114.258 Y96.965 E97.81866
G0 F3600 X113.897 Y97.135
G1 F1800 X113.588 Y96.525 E97.83568
G1 X113.233 Y95.907 E97.85341
G1 X112.491 Y94.774 E97.88711
G1 X109.875 Y96.607 E97.96659
G1 X110.552 Y97.647 E97.99747
G1 X110.860 Y98.200 E98.01322
G1 X111.138 Y98.791 E98.02947
G1 X111.366 Y99.376 E98.04510
G1 X111.561 Y99.997 E98.06129
G1 X111.825 Y101.098 E98.08947
G1 X114.902 Y101.098 E98.16603
G1 X114.902 Y108.090 E98.34001
G1 X108.252 Y114.740 E98.57402
G1 X96.748 Y114.740 E98.86027
G1 X90.098 Y108.090 E99.09428
G1 X90.098 Y104.699 E99.17866
G1 X90.214 Y105.284 E99.19350
G1 X90.373 Y105.906 E99.20947
G1 X90.580 Y106.571 E99.22680
G1 X90.823 Y107.224 E99.24414
G1 X91.103 Y107.865 E99.26155
G1 X91.412 Y108.475 E99.27856
G1 X91.767 Y109.093 E99.29629
G1 X92.509 Y110.226 E99.32999
G1 X95.125 Y108.393 E99.40948
G1 X94.448 Y107.353 E99.44035
G1 X94.140 Y106.800 E99.45610
G1 X93.862 Y106.209 E99.47236
G1 X93.634 Y105.624 E99.48798
G1 X93.439 Y105.003 E99.50418
G1 X93.175 Y103.902 E99.53235
G1 X90.098 Y103.902 E99.60891
G1 X90.098 Y96.910 E99.78289
G1 X96.748 Y90.260 E100.01690
G1 X108.252 Y90.260 E100.30315
G1 X114.902 Y96.910 E100.53716
G1 X114.902 Y100.301 E100.62154
G1 X114.786 Y99.716 E100.63638
G1 X114.627 Y99.094 E100.65236
G1 X114.420 Y98.429 E100.66969
G1 X114.177 Y97.776 E100.68702
G1 X113.897 Y97.135 E100.70443
G0 F3600 X113.536 Y97.305
;TYPE:WALL-OUTER
G1 F1680 X113.205 Y96.652 E100.72264
G1 X112.893 Y96.116 E100.73808
G1 X112.383 Y95.337 E100.76124
G1 X110.419 Y96.712 E100.82090
G1 X110.889 Y97.434 E100.84234
G1 X111.221 Y98.030 E100.85931
G1 X111.506 Y98.635 E100.87595
G1 X111.744 Y99.246 E100.89227
G1 X111.944 Y99.883 E100.90888
G1 X112.140 Y100.699 E100.92976
G1 X114.574 Y100.699 E100.99033
G1 X114.397 Y99.804 E101.01303
G1 X114.244 Y99.203 E101.02846
G1 X114.042 Y98.559 E101.04526
G1 X113.807 Y97.925 E101.06208
G1 X113.536 Y97.305 E101.07892
G0 F3600 X113.812 Y97.191
G0 X115.001 Y96.837
G0 X115.301 Y96.745
G1 F1680 X115.301 Y108.255 E101.36532
G1 X108.417 Y115.139 E101.60756
G1 X96.583 Y115.139 E101.90202
G1 X89.699 Y108.255 E102.14427
G1 X89.699 Y96.745 E102.43067
G1 X96.583 Y89.861 E102.67291
G1 X108.417 Y89.861 E102.96738
G1 X115.301 Y96.745 E103.20962
G0 F3600 X115.001 Y96.837
G0 X112.474 Y94.859
G0 X109.950 Y96.621
G0 X92.860 Y104.001
G0 X92.860 Y104.301
G1 F1680 X90.426 Y104.301 E103.27019
G1 X90.603 Y105.196 E103.29289
G1 X90.756 Y105.797 E103.30832
G1 X90.958 Y106.441 E103.32511
G1 X91.193 Y107.075 E103.34194
G1 X91.464 Y107.695 E103.35877
G1 X91.795 Y108.348 E103.37699
G1 X92.107 Y108.884 E103.39242
G1 X92.617 Y109.663 E103.41559
G1 X94.581 Y108.288 E103.47525
G1 X94.110 Y107.564 E103.49674
G1 X93.779 Y106.970 E103.51366
G1 X93.494 Y106.365 E103.53030
G1 X93.256 Y105.754 E103.54662
G1 X93.055 Y105.112 E103.56335
G1 X92.860 Y104.301 E103.58411
G0 F3600 X92.962 Y103.402
;TYPE:SKIN
G1 F1980 X90.596 Y101.036 E103.66737
G0 F3600 X90.596 Y101.600
G1 F1980 X92.398 Y103.402 E103.73078
G0 F3600 X91.834 Y103.402
G1 F1980 X90.596 Y102.164 E103.77434
G0 F3600 X90.596 Y102.729
G1 F1980 X91.269 Y103.402 E103.79803
G0 F3600 X90.705 Y103.402
G1 F1980 X90.596 Y103.293 E103.80186
G0 F3600 X90.596 Y100.472
G1 F1980 X93.526 Y103.402 E103.90497
G0 F3600 X93.580 Y103.456
G1 F1980 X104.364 Y114.240 E104.28445
G0 F3600 X103.800 Y114.240
G1 F1980 X93.759 Y104.199 E104.63779
G0 F3600 X93.944 Y104.948
G1 F1980 X103.236 Y114.240 E104.96477
G0 F3600 X102.671 Y114.240
G1 F1980 X94.241 Y105.809 E105.26144
G0 F3600 X94.769 Y106.901
G1 F1980 X102.107 Y114.240 E105.51967
G0 F3600 X101.543 Y114.240
G1 F1980 X95.767 Y108.464 E105.72293
G0 F3600 X95.488 Y108.749
G1 F1980 X100.979 Y114.240 E105.91615
G0 F3600 X100.414 Y114.240
G1 F1980 X95.156 Y108.982 E106.10118
G0 F3600 X94.825 Y109.214
G1 F1980 X99.850 Y114.240 E106.27803
G0 F3600 X99.286 Y114.240
G1 F1980 X94.492 Y109.446 E106.44672
G0 F3600 X94.161 Y109.679
G1 F1980 X98.722 Y114.240 E106.60722
G0 F3600 X98.157 Y114.240
G1 F1980 X93.829 Y109.911 E106.75954
G0 F3600 X93.497 Y110.144
G1 F1980 X97.593 Y114.240 E106.90368
G0 F3600 X97.029 Y114.240
G1 F1980 X93.166 Y110.377 E107.03961
G0 F3600 X95.050 Y108.379
G0 X93.142 Y103.944
G0 X90.596 Y99.907
G1 F1980 X104.928 Y114.240 E107.54397
G0 F3600 X105.493 Y114.240
G1 F1980 X90.596 Y99.343 E108.06819
G0 F3600 X90.596 Y98.779
G1 F1980 X106.057 Y114.240 E108.61225
G0 F3600 X106.621 Y114.240
G1 F1980 X90.596 Y98.215 E109.17616
G0 F3600 X90.596 Y97.650
G1 F1980 X107.186 Y114.240 E109.75996
G0 F3600 X107.750 Y114.240
G1 F1980 X90.611 Y97.101 E110.36307
G0 F3600 X90.893 Y96.819
G1 F1980 X108.179 Y114.105 E110.97136
G0 F3600 X108.461 Y113.822
G1 F1980 X91.175 Y96.537 E111.57962
G0 F3600 X91.457 Y96.254
G1 F1980 X108.743 Y113.540 E112.18791
G0 F3600 X109.025 Y113.258
G1 F1980 X91.740 Y95.972 E112.79618
G0 F3600 X92.022 Y95.690
G1 F1980 X109.308 Y112.976 E113.40446
G0 F3600 X109.590 Y112.694
G1 F1980 X92.304 Y95.408 E114.01275
G0 F3600 X92.586 Y95.126
G1 F1980 X109.872 Y112.412 E114.62103
G0 F3600 X110.154 Y112.130
G1 F1980 X92.868 Y94.844 E115.22932
G0 F3600 X93.150 Y94.562
G1 F1980 X110.436 Y111.848 E115.83761
G0 F3600 X110.718 Y111.565
G1 F1980 X93.432 Y94.279 E116.44589
G0 F3600 X93.714 Y93.997
G1 F1980 X111.000 Y111.283 E117.05418
G0 F3600 X111.283 Y111.001
G1 F1980 X93.997 Y93.715 E117.66246
G0 F3600 X94.279 Y93.433
G1 F1980 X111.565 Y110.719 E118.27075
G0 F3600 X111.847 Y110.437
G1 F1980 X94.561 Y93.151 E118.87904
G0 F3600 X94.843 Y92.869
G1 F1980 X112.129 Y110.155 E119.48732
G0 F3600 X112.411 Y109.873
G1 F1980 X95.125 Y92.587 E120.09561
G0 F3600 X95.407 Y92.305
G1 F1980 X112.693 Y109.590 E120.70388
G0 F3600 X112.975 Y109.308
G1 F1980 X95.689 Y92.022 E121.31216
G0 F3600 X95.972 Y91.740
G1 F1980 X113.258 Y109.026 E121.92045
G0 F3600 X113.540 Y108.744
G1 F1980 X96.254 Y91.458 E122.52873
G0 F3600 X96.536 Y91.176
G1 F1980 X113.822 Y108.462 E123.13702
G0 F3600 X114.104 Y108.180
G1 F1980 X96.818 Y90.894 E123.74530
G0 F3600 X97.246 Y90.758
G1 F1980 X114.386 Y107.898 E124.34845
G0 F3600 X114.402 Y107.350
G1 F1980 X97.811 Y90.758 E124.93230
G0 F3600 X98.375 Y90.758
G1 F1980 X114.402 Y106.785 E125.49628
G0 F3600 X114.402 Y106.221
G1 F1980 X98.939 Y90.758 E126.04042
G0 F3600 X99.504 Y90.758
G1 F1980 X114.402 Y105.657 E126.56469
G0 F3600 X114.402 Y105.093
G1 F1980 X100.068 Y90.758 E127.06911
G0 F3600 X100.632 Y90.758
G1 F1980 X111.419 Y101.545 E127.44870
G0 F3600 X111.471 Y101.597
G1 F1980 X114.402 Y104.528 E127.55184
G0 F3600 X114.402 Y103.964
G1 F1980 X112.035 Y101.597 E127.63513
G0 F3600 X112.599 Y101.597
G1 F1980 X114.402 Y103.400 E127.69858
G0 F3600 X114.402 Y102.835
G1 F1980 X113.163 Y101.597 E127.74216
G0 F3600 X113.728 Y101.597
G1 F1980 X114.402 Y102.271 E127.76588
G0 F3600 X114.402 Y101.707
G1 F1980 X114.292 Y101.597 E127.76975
G0 F3600 X111.240 Y100.802
G1 F1980 X101.196 Y90.758 E128.12320
G0 F3600 X101.761 Y90.758
G1 F1980 X111.056 Y100.053 E128.45028
G0 F3600 X110.759 Y99.192
G1 F1980 X102.325 Y90.758 E128.74707
G0 F3600 X102.889 Y90.758
G1 F1980 X110.232 Y98.101 E129.00547
G0 F3600 X109.234 Y96.539
G1 F1980 X103.453 Y90.758 E129.20890
G0 F3600 X104.018 Y90.758
G1 F1980 X109.510 Y96.250 E129.40216
G0 F3600 X109.841 Y96.018
G1 F1980 X104.582 Y90.758 E129.58724
G0 F3600 X105.146 Y90.758
G1 F1980 X110.173 Y95.785 E129.76413
G0 F3600 X110.505 Y95.552
G1 F1980 X105.711 Y90.758 E129.93283
G0 F3600 X106.275 Y90.758
G1 F1980 X110.837 Y95.320 E130.09337
G0 F3600 X111.169 Y95.088
G1 F1980 X106.839 Y90.758 E130.24574
G0 F3600 X107.403 Y90.758
G1 F1980 X111.500 Y94.855 E130.38991
G0 F3600 X111.832 Y94.622
G1 F1980 X107.968 Y90.758 E130.52588
;LAYER:3
M117 Nb = 4 / 55
G0 F3600 X108.087 Y90.659 Z0.710
;TYPE:WALL-INNER
G1 F2220 X112.035 Y94.607 E130.66481
G1 X109.330 Y96.501 E130.74698
G1 X110.212 Y97.858 E130.78725
G1 X110.506 Y98.386 E130.80229
G1 X110.770 Y98.945 E130.81767
G1 X110.995 Y99.523 E130.83310
G1 X111.173 Y100.089 E130.84787
G1 X111.511 Y101.497 E130.88390
G1 X114.503 Y101.497 E130.95835
G1 X114.503 Y107.925 E131.11829
G1 X108.087 Y114.341 E131.34407
G1 X96.913 Y114.341 E131.62211
G1 X92.965 Y110.393 E131.76104
G1 X95.670 Y108.499 E131.84320
G1 X94.788 Y107.142 E131.88347
G1 X94.494 Y106.614 E131.89851
G1 X94.230 Y106.055 E131.91389
G1 X94.005 Y105.477 E131.92933
G1 X93.827 Y104.911 E131.94409
G1 X93.489 Y103.503 E131.98012
G1 X90.497 Y103.503 E132.05457
G1 X90.497 Y97.075 E132.21452
G1 X96.913 Y90.659 E132.44029
G1 X108.087 Y90.659 E132.71833
G0 F3600 X112.475 Y94.859
G0 X114.265 Y96.982
G1 F2220 X114.119 Y96.691 E132.72643
G1 X114.503 Y97.075 E132.73995
G1 X114.503 Y97.527 E132.75119
G1 X114.265 Y96.982 E132.76599
G1 F3000 E129.26599
G0 F3600 X90.735 Y108.018
G1 F3000 E132.76599
G1 F2220 X90.881 Y108.309 E132.77409
G1 X90.497 Y107.925 E132.78760
G1 X90.497 Y107.473 E132.79885
G1 X90.735 Y108.018 E132.81365
G0 F3600 X91.096 Y107.848
G1 F2220 X91.404 Y108.460 E132.83070
G1 X91.759 Y109.079 E132.84845
G1 X92.508 Y110.226 E132.88254
G1 X95.125 Y108.393 E132.96204
G1 X94.448 Y107.353 E132.99292
G1 X94.140 Y106.800 E133.00867
G1 X93.862 Y106.209 E133.02492
G1 X93.634 Y105.624 E133.04054
G1 X93.439 Y105.003 E133.05674
G1 X93.175 Y103.902 E133.08491
G1 X90.098 Y103.902 E133.16148
G1 X90.098 Y96.910 E133.33546
G1 X96.748 Y90.260 E133.56947
G1 X108.252 Y90.260 E133.85572
G1 X114.902 Y96.910 E134.08973
G1 X114.902 Y100.301 E134.17411
G1 X114.786 Y99.716 E134.18895
G1 X114.632 Y99.111 E134.20448
G1 X114.425 Y98.446 E134.22181
G1 X114.183 Y97.791 E134.23919
G1 X113.904 Y97.152 E134.25654
G1 X113.596 Y96.540 E134.27358
G1 X113.241 Y95.921 E134.29134
G1 X112.492 Y94.774 E134.32543
G1 X109.875 Y96.607 E134.40493
G1 X110.552 Y97.647 E134.43581
G1 X110.860 Y98.200 E134.45156
G1 X111.138 Y98.791 E134.46781
G1 X111.366 Y99.376 E134.48343
G1 X111.561 Y99.997 E134.49963
G1 X111.825 Y101.098 E134.52780
G1 X114.902 Y101.098 E134.60436
G1 X114.902 Y108.090 E134.77834
G1 X108.252 Y114.740 E135.01235
G1 X96.748 Y114.740 E135.29860
G1 X90.098 Y108.090 E135.53262
G1 X90.098 Y104.699 E135.61699
G1 X90.214 Y105.284 E135.63183
G1 X90.368 Y105.889 E135.64737
G1 X90.575 Y106.554 E135.66470
G1 X90.817 Y107.209 E135.68207
G1 X91.096 Y107.848 E135.69942
G0 F3600 X91.458 Y107.679
;TYPE:WALL-OUTER
G1 F2040 X91.760 Y108.279 E135.71614
G1 X92.099 Y108.870 E135.73309
G1 X92.617 Y109.663 E135.75666
G1 X94.581 Y108.288 E135.81631
G1 X94.110 Y107.564 E135.83780
G1 X93.779 Y106.970 E135.85473
G1 X93.494 Y106.365 E135.87137
G1 X93.256 Y105.754 E135.88768
G1 X93.055 Y105.112 E135.90442
G1 X92.860 Y104.301 E135.92518
G1 X90.426 Y104.301 E135.98574
G1 X90.603 Y105.196 E136.00844
G1 X90.752 Y105.780 E136.02344
G1 X90.953 Y106.425 E136.04025
G1 X91.187 Y107.059 E136.05707
G1 X91.458 Y107.679 E136.07390
G0 F3600 X91.192 Y107.816
G0 X89.999 Y108.163
G0 X89.699 Y108.255
G1 F2040 X89.699 Y96.745 E136.36030
G1 X96.583 Y89.861 E136.60255
G1 X108.417 Y89.861 E136.89701
G1 X115.301 Y96.745 E137.13925
G1 X115.301 Y108.255 E137.42565
G1 X108.417 Y115.139 E137.66790
G1 X96.583 Y115.139 E137.96236
G1 X89.699 Y108.255 E138.20461
G0 F3600 X89.999 Y108.163
G0 X92.525 Y110.141
G0 X95.050 Y108.379
G0 X112.140 Y100.999
G0 X112.140 Y100.699
G1 F2040 X114.574 Y100.699 E138.26517
G1 X114.397 Y99.804 E138.28787
G1 X114.248 Y99.220 E138.30287
G1 X114.047 Y98.575 E138.31968
G1 X113.813 Y97.941 E138.33650
G1 X113.542 Y97.321 E138.35333
G1 X113.240 Y96.721 E138.37005
G1 X112.901 Y96.130 E138.38700
G1 X112.383 Y95.337 E138.41057
G1 X110.419 Y96.712 E138.47022
G1 X110.889 Y97.434 E138.49166
G1 X111.221 Y98.030 E138.50864
G1 X111.506 Y98.635 E138.52528
G1 X111.744 Y99.246 E138.54159
G1 X111.944 Y99.883 E138.55821
G1 X112.140 Y100.699 E138.57909
G0 F3600 X111.980 Y101.597
;TYPE:SKIN
G1 F2460 X99.336 Y114.240 E139.02401
G0 F3600 X99.900 Y114.240
G1 F2460 X112.544 Y101.597 E139.46893
G0 F3600 X113.108 Y101.597
G1 F2460 X100.465 Y114.240 E139.91383
G0 F3600 X101.029 Y114.240
G1 F2460 X113.673 Y101.597 E140.35874
G0 F3600 X114.237 Y101.597
G1 F2460 X101.593 Y114.240 E140.80366
G0 F3600 X102.157 Y114.240
G1 F2460 X114.402 Y101.996 E141.23454
G0 F3600 X114.402 Y102.560
G1 F2460 X102.722 Y114.240 E141.64555
G0 F3600 X103.286 Y114.240
G1 F2460 X114.402 Y103.125 E142.03670
G0 F3600 X114.402 Y103.689
G1 F2460 X103.850 Y114.240 E142.40801
G0 F3600 X104.414 Y114.240
G1 F2460 X114.402 Y104.253 E142.75946
G0 F3600 X114.402 Y104.817
G1 F2460 X104.979 Y114.240 E143.09105
G0 F3600 X105.543 Y114.240
G1 F2460 X114.402 Y105.382 E143.40278
G0 F3600 X114.402 Y105.946
G1 F2460 X106.107 Y114.240 E143.69466
G0 F3600 X106.672 Y114.240
G1 F2460 X114.402 Y106.510 E143.96667
G0 F3600 X114.402 Y107.075
G1 F2460 X107.236 Y114.240 E144.21882
G0 F3600 X107.800 Y114.240
G1 F2460 X114.402 Y107.639 E144.45113
G0 F3600 X111.428 Y101.585
G1 F2460 X98.772 Y114.240 E144.89647
G0 F3600 X98.207 Y114.240
G1 F2460 X111.318 Y101.130 E145.35782
G0 F3600 X111.208 Y100.675
G1 F2460 X97.643 Y114.240 E145.83516
G0 F3600 X97.079 Y114.240
G1 F2460 X111.099 Y100.220 E146.32852
G0 F3600 X110.971 Y99.784
G1 F2460 X96.735 Y114.020 E146.82948
G0 F3600 X96.452 Y113.738
G1 F2460 X110.825 Y99.366 E147.33524
G0 F3600 X110.666 Y98.961
G1 F2460 X96.170 Y113.456 E147.84533
G0 F3600 X95.888 Y113.174
G1 F2460 X110.484 Y98.578 E148.35896
G0 F3600 X110.290 Y98.207
G1 F2460 X95.606 Y112.892 E148.87570
G0 F3600 X95.324 Y112.610
G1 F2460 X110.085 Y97.848 E149.39515
G0 F3600 X109.863 Y97.506
G1 F2460 X95.042 Y112.328 E149.91671
G0 F3600 X94.760 Y112.046
G1 F2460 X109.641 Y97.164 E150.44038
G0 F3600 X109.418 Y96.823
G1 F2460 X94.477 Y111.763 E150.96613
G0 F3600 X94.195 Y111.481
G1 F2460 X109.196 Y96.481 E151.49399
G0 F3600 X109.229 Y96.447
G1 F2460 X111.481 Y94.195 E151.57324
G0 F3600 X111.199 Y93.913
G1 F2460 X93.913 Y111.199 E152.18152
G0 F3600 X93.631 Y110.917
G1 F2460 X110.917 Y93.631 E152.78981
G0 F3600 X110.635 Y93.349
G1 F2460 X95.670 Y108.313 E153.31640
G0 F3600 X95.448 Y107.972
G1 F2460 X110.353 Y93.067 E153.84090
G0 F3600 X110.071 Y92.785
G1 F2460 X95.226 Y107.630 E154.36329
G0 F3600 X95.003 Y107.288
G1 F2460 X109.788 Y92.503 E154.88357
G0 F3600 X109.506 Y92.220
G1 F2460 X94.789 Y106.937 E155.40145
G0 F3600 X94.588 Y106.575
G1 F2460 X109.224 Y91.938 E155.91650
G0 F3600 X108.942 Y91.656
G1 F2460 X94.406 Y106.192 E156.42802
G0 F3600 X94.237 Y105.797
G1 F2460 X108.660 Y91.374 E156.93555
G0 F3600 X108.378 Y91.092
G1 F2460 X94.082 Y105.387 E157.43860
G0 F3600 X93.948 Y104.957
G1 F2460 X108.096 Y90.810 E157.93645
G0 F3600 X107.583 Y90.758
G1 F2460 X93.834 Y104.507 E158.42027
G0 F3600 X93.724 Y104.052
G1 F2460 X107.019 Y90.758 E158.88810
G0 F3600 X106.454 Y90.758
G1 F2460 X93.615 Y103.598 E159.33991
G0 F3600 X93.246 Y103.402
G1 F2460 X105.890 Y90.758 E159.78485
G0 F3600 X105.326 Y90.758
G1 F2460 X92.682 Y103.402 E160.22978
G0 F3600 X92.118 Y103.402
G1 F2460 X104.762 Y90.758 E160.67472
G0 F3600 X104.197 Y90.758
G1 F2460 X91.554 Y103.402 E161.11964
G0 F3600 X90.989 Y103.402
G1 F2460 X103.633 Y90.758 E161.56457
G0 F3600 X103.069 Y90.758
G1 F2460 X90.596 Y103.231 E162.00349
G0 F3600 X90.596 Y102.666
G1 F2460 X102.505 Y90.758 E162.42255
G0 F3600 X101.940 Y90.758
G1 F2460 X90.596 Y102.102 E162.82174
G0 F3600 X90.596 Y101.538
G1 F2460 X101.376 Y90.758 E163.20108
G0 F3600 X100.812 Y90.758
G1 F2460 X90.596 Y100.974 E163.56058
G0 F3600 X90.596 Y100.409
G1 F2460 X100.247 Y90.758 E163.90019
G0 F3600 X111.113 Y95.128
G1 F2460 X111.763 Y94.477 E163.92308
G0 F3600 X99.683 Y90.758
G1 F2460 X90.596 Y99.845 E164.24285
G0 F3600 X90.596 Y99.281
G1 F2460 X99.119 Y90.758 E164.54277
G0 F3600 X98.555 Y90.758
G1 F2460 X90.596 Y98.717 E164.82284
G0 F3600 X90.596 Y98.152
G1 F2460 X97.990 Y90.758 E165.08303
G0 F3600 X97.426 Y90.758
G1 F2460 X90.596 Y97.588 E165.32338
G0 F3600 X95.050 Y108.379
G0 X94.646 Y109.338
G1 F2460 X93.349 Y110.635 E165.36902
;LAYER:4
M117 Nb = 5 / 55
G0 F3600 X92.965 Y110.393 Z0.860
;TYPE:WALL-INNER
G1 F2700 X95.670 Y108.499 E165.45118
G1 X94.866 Y107.262 E165.48789
G1 X94.558 Y106.728 E165.50323
G1 X94.273 Y106.145 E165.51938
G1 X94.063 Y105.627 E165.53329
G1 X93.861 Y105.016 E165.54930
G1 X93.704 Y104.397 E165.56519
G1 X93.485 Y103.503 E165.58809
G1 X90.497 Y103.503 E165.66244
G1 X90.497 Y97.075 E165.82239
G1 X96.913 Y90.659 E166.04817
G1 X108.087 Y90.659 E166.32621
G1 X112.035 Y94.607 E166.46513
G1 X109.330 Y96.501 E166.54730
G1 X110.134 Y97.738 E166.58401
G1 X110.442 Y98.272 E166.59935
G1 X110.722 Y98.844 E166.61520
G1 X110.937 Y99.373 E166.62941
G1 X111.139 Y99.984 E166.64542
G1 X111.294 Y100.594 E166.66108
G1 X111.515 Y101.497 E166.68421
G1 X114.503 Y101.497 E166.75856
G1 X114.503 Y107.925 E166.91851
G1 X108.087 Y114.341 E167.14428
G1 X96.913 Y114.341 E167.42232
G1 X92.965 Y110.393 E167.56125
G0 F3600 X90.727 Y108.001
G1 F2700 X90.882 Y108.310 E167.56985
G1 X90.497 Y107.925 E167.58340
G1 X90.497 Y107.471 E167.59470
G1 X90.727 Y108.001 E167.60907
G1 F3000 E164.10907
G0 F3600 X114.273 Y96.999
G1 F3000 E167.60907
G1 F2700 X114.118 Y96.690 E167.61768
G1 X114.503 Y97.075 E167.63122
G1 X114.503 Y97.529 E167.64252
G1 X114.273 Y96.999 E167.65690
G0 F3600 X113.911 Y97.168
G1 F2700 X113.598 Y96.543 E167.67429
G1 X113.251 Y95.938 E167.69164
G1 X112.492 Y94.774 E167.72622
G1 X109.875 Y96.607 E167.80572
G1 X110.469 Y97.521 E167.83285
G1 X110.796 Y98.087 E167.84911
G1 X111.083 Y98.673 E167.86535
G1 X111.136 Y98.784 E167.86841
G1 X111.518 Y99.861 E167.89684
G1 X111.682 Y100.505 E167.91338
G1 X111.828 Y101.098 E167.92858
G1 X114.902 Y101.098 E168.00507
G1 X114.902 Y108.090 E168.17905
G1 X108.252 Y114.740 E168.41306
G1 X96.748 Y114.740 E168.69931
G1 X90.098 Y108.090 E168.93332
G1 X90.098 Y104.699 E169.01769
G1 X90.214 Y105.284 E169.03253
G1 X90.364 Y105.873 E169.04766
G1 X90.569 Y106.537 E169.06495
G1 X90.811 Y107.192 E169.08232
G1 X91.089 Y107.832 E169.09969
G1 X91.402 Y108.457 E169.11708
G1 X91.749 Y109.062 E169.13443
G1 X92.508 Y110.226 E169.16901
G1 X95.125 Y108.393 E169.24851
G1 X94.531 Y107.479 E169.27564
G1 X94.204 Y106.913 E169.29190
G1 X93.914 Y106.320 E169.30833
G1 X93.686 Y105.758 E169.32342
G1 X93.482 Y105.139 E169.33964
G1 X93.318 Y104.495 E169.35617
G1 X93.172 Y103.902 E169.37137
G1 X90.098 Y103.902 E169.44786
G1 X90.098 Y96.910 E169.62184
G1 X96.748 Y90.260 E169.85585
G1 X108.252 Y90.260 E170.14210
G1 X114.902 Y96.910 E170.37611
G1 X114.902 Y100.301 E170.46049
G1 X114.786 Y99.716 E170.47533
G1 X114.636 Y99.127 E170.49045
G1 X114.431 Y98.463 E170.50774
G1 X114.189 Y97.808 E170.52512
G1 X113.911 Y97.168 E170.54248
G0 F3600 X113.549 Y97.337
;TYPE:WALL-OUTER
G1 F2400 X113.246 Y96.732 E170.55932
G1 X112.911 Y96.146 E170.57611
G1 X112.383 Y95.337 E170.60015
G1 X110.419 Y96.712 E170.65981
G1 X110.816 Y97.322 E170.67792
G1 X111.144 Y97.891 E170.69426
G1 X111.443 Y98.502 E170.71118
G1 X111.506 Y98.635 E170.71485
G1 X111.691 Y99.111 E170.72755
G1 X111.901 Y99.746 E170.74420
G1 X112.069 Y100.406 E170.76114
G1 X112.141 Y100.699 E170.76865
G1 X114.574 Y100.699 E170.82919
G1 X114.397 Y99.804 E170.85189
G1 X114.252 Y99.236 E170.86648
G1 X114.053 Y98.591 E170.88327
G1 X113.819 Y97.957 E170.90009
G1 X113.549 Y97.337 E170.91692
G0 F3600 X113.826 Y97.223
G0 X115.001 Y96.837
G0 X115.301 Y96.745
G1 F2400 X115.301 Y108.255 E171.20332
G1 X108.417 Y115.139 E171.44556
G1 X96.583 Y115.139 E171.74002
G1 X89.699 Y108.255 E171.98227
G1 X89.699 Y96.745 E172.26867
G1 X96.583 Y89.861 E172.51091
G1 X108.417 Y89.861 E172.80537
G1 X115.301 Y96.745 E173.04762
G0 F3600 X115.001 Y96.837
G0 X112.475 Y94.859
G0 X109.950 Y96.622
G0 X92.859 Y104.001
G0 X92.859 Y104.301
G1 F2400 X90.426 Y104.301 E173.10816
G1 X90.603 Y105.196 E173.13086
G1 X90.748 Y105.764 E173.14545
G1 X90.947 Y106.409 E173.16224
G1 X91.181 Y107.043 E173.17906
G1 X91.451 Y107.663 E173.19588
G1 X91.754 Y108.268 E173.21272
G1 X92.089 Y108.854 E173.22952
G1 X92.617 Y109.663 E173.25356
G1 X94.581 Y108.288 E173.31321
G1 X94.184 Y107.678 E173.33132
G1 X93.856 Y107.109 E173.34766
G1 X93.556 Y106.496 E173.36465
G1 X93.309 Y105.889 E173.38095
G1 X93.098 Y105.250 E173.39770
G1 X92.931 Y104.594 E173.41454
G1 X92.859 Y104.301 E173.42205
G0 F3600 X92.962 Y103.402
;TYPE:SKIN
G1 F3000 X90.596 Y101.036 E173.50531
G0 F3600 X90.596 Y101.600
G1 F3000 X92.398 Y103.402 E173.56872
G0 F3600 X91.834 Y103.402
G1 F3000 X90.596 Y102.164 E173.61228
G0 F3600 X90.596 Y102.729
G1 F3000 X91.269 Y103.402 E173.63596
G0 F3600 X90.705 Y103.402
G1 F3000 X90.596 Y103.293 E173.63980
G0 F3600 X90.596 Y100.472
G1 F3000 X93.526 Y103.402 E173.74291
G0 F3600 X93.575 Y103.451
G1 F3000 X104.364 Y114.240 E174.12256
G0 F3600 X103.800 Y114.240
G1 F3000 X93.761 Y104.201 E174.47583
G0 F3600 X93.948 Y104.952
G1 F3000 X103.236 Y114.240 E174.80267
G0 F3600 X102.671 Y114.240
G1 F3000 X94.247 Y105.815 E175.09913
G0 F3600 X94.778 Y106.911
G1 F3000 X102.107 Y114.240 E175.35703
G0 F3600 X101.543 Y114.240
G1 F3000 X95.767 Y108.464 E175.56028
G0 F3600 X95.488 Y108.749
G1 F3000 X100.979 Y114.240 E175.75351
G0 F3600 X100.414 Y114.240
G1 F3000 X95.156 Y108.982 E175.93854
G0 F3600 X94.824 Y109.214
G1 F3000 X99.850 Y114.240 E176.11540
G0 F3600 X99.286 Y114.240
G1 F3000 X94.492 Y109.446 E176.28410
G0 F3600 X94.161 Y109.679
G1 F3000 X98.722 Y114.240 E176.44460
G0 F3600 X98.157 Y114.240
G1 F3000 X93.828 Y109.911 E176.59693
G0 F3600 X93.497 Y110.143
G1 F3000 X97.593 Y114.240 E176.74109
G0 F3600 X97.029 Y114.240
G1 F3000 X93.165 Y110.376 E176.87706
G0 F3600 X92.525 Y110.141
G0 X90.569 Y106.537
G0 X90.028 Y103.974
G0 X90.596 Y99.907
G1 F3000 X104.928 Y114.240 E177.38141
G0 F3600 X105.493 Y114.240
G1 F3000 X90.596 Y99.343 E177.90563
G0 F3600 X90.596 Y98.779
G1 F3000 X106.057 Y114.240 E178.44970
G0 F3600 X106.621 Y114.240
G1 F3000 X90.596 Y98.215 E179.01361
G0 F3600 X90.596 Y97.650
G1 F3000 X107.186 Y114.240 E179.59740
G0 F3600 X107.750 Y114.240
G1 F3000 X90.611 Y97.101 E180.20051
G0 F3600 X90.893 Y96.819
G1 F3000 X108.179 Y114.105 E180.80880
G0 F3600 X108.461 Y113.822
G1 F3000 X91.175 Y96.537 E181.41707
G0 F3600 X91.457 Y96.254
G1 F3000 X108.743 Y113.540 E182.02535
G0 F3600 X109.025 Y113.258
G1 F3000 X91.740 Y95.972 E182.63362
G0 F3600 X92.022 Y95.690
G1 F3000 X109.308 Y112.976 E183.24191
G0 F3600 X109.590 Y112.694
G1 F3000 X92.304 Y95.408 E183.85019
G0 F3600 X92.586 Y95.126
G1 F3000 X109.872 Y112.412 E184.45848
G0 F3600 X110.154 Y112.130
G1 F3000 X92.868 Y94.844 E185.06677
G0 F3600 X93.150 Y94.562
G1 F3000 X110.436 Y111.848 E185.67505
G0 F3600 X110.718 Y111.565
G1 F3000 X93.432 Y94.279 E186.28334
G0 F3600 X93.714 Y93.997
G1 F3000 X111.000 Y111.283 E186.89162
G0 F3600 X111.283 Y111.001
G1 F3000 X93.997 Y93.715 E187.49991
G0 F3600 X94.279 Y93.433
G1 F3000 X111.565 Y110.719 E188.10819
G0 F3600 X111.847 Y110.437
G1 F3000 X94.561 Y93.151 E188.71648
G0 F3600 X94.843 Y92.869
G1 F3000 X112.129 Y110.155 E189.32477
G0 F3600 X112.411 Y109.873
G1 F3000 X95.125 Y92.587 E189.93305
G0 F3600 X95.407 Y92.305
G1 F3000 X112.693 Y109.590 E190.54132
G0 F3600 X112.975 Y109.308
G1 F3000 X95.689 Y92.022 E191.14961
G0 F3600 X95.972 Y91.740
G1 F3000 X113.258 Y109.026 E191.75789
G0 F3600 X113.540 Y108.744
G1 F3000 X96.254 Y91.458 E192.36618
G0 F3600 X96.536 Y91.176
G1 F3000 X113.822 Y108.462 E192.97446
G0 F3600 X114.104 Y108.180
G1 F3000 X96.818 Y90.894 E193.58275
G0 F3600 X97.246 Y90.758
G1 F3000 X114.386 Y107.898 E194.18590
G0 F3600 X114.402 Y107.350
G1 F3000 X97.811 Y90.758 E194.76974
G0 F3600 X98.375 Y90.758
G1 F3000 X114.402 Y106.785 E195.33373
G0 F3600 X114.402 Y106.221
G1 F3000 X98.939 Y90.758 E195.87786
G0 F3600 X99.504 Y90.758
G1 F3000 X114.402 Y105.657 E196.40213
G0 F3600 X114.402 Y105.093
G1 F3000 X100.068 Y90.758 E196.90656
G0 F3600 X100.632 Y90.758
G1 F3000 X111.424 Y101.550 E197.28632
G0 F3600 X111.471 Y101.597
G1 F3000 X114.402 Y104.528 E197.38946
G0 F3600 X114.402 Y103.964
G1 F3000 X112.035 Y101.597 E197.47276
G0 F3600 X112.599 Y101.597
G1 F3000 X114.402 Y103.400 E197.53620
G0 F3600 X114.402 Y102.835
G1 F3000 X113.163 Y101.597 E197.57978
G0 F3600 X113.728 Y101.597
G1 F3000 X114.402 Y102.271 E197.60350
G0 F3600 X114.402 Y101.707
G1 F3000 X114.292 Y101.597 E197.60737
G0 F3600 X111.237 Y100.799
G1 F3000 X101.196 Y90.758 E197.96071
G0 F3600 X101.761 Y90.758
G1 F3000 X111.051 Y100.049 E198.28764
G0 F3600 X110.752 Y99.185
G1 F3000 X102.325 Y90.758 E198.58418
G0 F3600 X102.889 Y90.758
G1 F3000 X110.222 Y98.091 E198.84223
G0 F3600 X109.234 Y96.539
G1 F3000 X103.453 Y90.758 E199.04566
G0 F3600 X104.018 Y90.758
G1 F3000 X109.510 Y96.250 E199.23892
G0 F3600 X109.841 Y96.018
G1 F3000 X104.582 Y90.758 E199.42400
G0 F3600 X105.146 Y90.758
G1 F3000 X110.174 Y95.786 E199.60093
G0 F3600 X110.505 Y95.553
G1 F3000 X105.711 Y90.758 E199.76964
G0 F3600 X106.275 Y90.758
G1 F3000 X110.837 Y95.320 E199.93018
G0 F3600 X111.169 Y95.088
G1 F3000 X106.839 Y90.758 E200.08255
G0 F3600 X107.403 Y90.758
G1 F3000 X111.501 Y94.856 E200.22676
G0 F3600 X111.833 Y94.623
G1 F3000 X107.968 Y90.758 E200.36276
;LAYER:5
M117 Nb = 6 / 55
G0 F3600 X108.087 Y90.659 Z1.010
;TYPE:WALL-INNER
G1 F2700 X112.035 Y94.607 E200.50169
G1 X109.330 Y96.501 E200.58386
G1 X110.183 Y97.812 E200.62278
G1 X110.485 Y98.350 E200.63813
G1 X110.753 Y98.910 E200.65358
G1 X110.977 Y99.479 E200.66879
G1 X111.166 Y100.072 E200.68428
G1 X111.318 Y100.695 E200.70024
G1 X111.519 Y101.497 E200.72081
G1 X114.503 Y101.497 E200.79506
G1 X114.503 Y107.925 E200.95501
G1 X108.087 Y114.341 E201.18078
G1 X96.913 Y114.341 E201.45882
G1 X92.965 Y110.393 E201.59775
G1 X95.670 Y108.499 E201.67992
G1 X94.817 Y107.188 E201.71883
G1 X94.515 Y106.650 E201.73419
G1 X94.247 Y106.090 E201.74963
G1 X94.023 Y105.521 E201.76485
G1 X93.834 Y104.928 E201.78034
G1 X93.682 Y104.305 E201.79629
G1 X93.481 Y103.503 E201.81687
G1 X90.497 Y103.503 E201.89112
G1 X90.497 Y97.075 E202.05106
G1 X96.913 Y90.659 E202.27684
G1 X108.087 Y90.659 E202.55488
G0 F3600 X112.476 Y94.858
G0 X114.280 Y97.016
G1 F2700 X114.118 Y96.690 E202.56394
G1 X114.503 Y97.075 E202.57748
G1 X114.503 Y97.531 E202.58883
G1 X114.280 Y97.016 E202.60280
G0 F3600 X112.476 Y94.858
G0 X109.950 Y96.621
G0 X95.050 Y108.379
G0 X92.524 Y110.142
G0 X90.720 Y107.984
G1 F2700 X90.882 Y108.310 E202.61185
G1 X90.497 Y107.925 E202.62540
G1 X90.497 Y107.469 E202.63675
G1 X90.720 Y107.984 E202.65071
G0 F3600 X91.082 Y107.815
G1 F2700 X91.393 Y108.441 E202.66811
G1 X91.740 Y109.048 E202.68550
G1 X92.507 Y110.227 E202.72050
G1 X95.125 Y108.394 E202.80002
G1 X94.474 Y107.391 E202.82978
G1 X94.163 Y106.840 E202.84552
G1 X93.877 Y106.241 E202.86204
G1 X93.649 Y105.662 E202.87752
G1 X93.452 Y105.045 E202.89364
G1 X93.295 Y104.400 E202.91016
G1 X93.170 Y103.902 E202.92293
G1 X90.098 Y103.902 E202.99937
G1 X90.098 Y96.910 E203.17335
G1 X96.748 Y90.260 E203.40736
G1 X108.252 Y90.260 E203.69361
G1 X114.902 Y96.910 E203.92762
G1 X114.902 Y100.301 E204.01200
G1 X114.786 Y99.716 E204.02684
G1 X114.641 Y99.145 E204.04150
G1 X114.436 Y98.480 E204.05882
G1 X114.196 Y97.825 E204.07617
G1 X113.918 Y97.185 E204.09354
G1 X113.607 Y96.559 E204.11093
G1 X113.260 Y95.952 E204.12833
G1 X112.493 Y94.773 E204.16332
G1 X109.875 Y96.606 E204.24285
G1 X110.526 Y97.609 E204.27260
G1 X110.837 Y98.160 E204.28834
G1 X111.123 Y98.759 E204.30486
G1 X111.351 Y99.338 E204.32034
G1 X111.548 Y99.955 E204.33646
G1 X111.705 Y100.600 E204.35298
G1 X111.830 Y101.098 E204.36575
G1 X114.902 Y101.098 E204.44219
G1 X114.902 Y108.090 E204.61617
G1 X108.252 Y114.740 E204.85018
G1 X96.748 Y114.740 E205.13644
G1 X90.098 Y108.090 E205.37045
G1 X90.098 Y104.699 E205.45482
G1 X90.214 Y105.284 E205.46966
G1 X90.359 Y105.855 E205.48432
G1 X90.564 Y106.520 E205.50164
G1 X90.804 Y107.175 E205.51900
G1 X91.082 Y107.815 E205.53636
G0 F3600 X91.443 Y107.647
;TYPE:WALL-OUTER
G1 F2400 X91.745 Y108.253 E205.55321
G1 X92.081 Y108.840 E205.57004
G1 X92.616 Y109.663 E205.59446
G1 X94.581 Y108.288 E205.65414
G1 X94.129 Y107.593 E205.67477
G1 X93.807 Y107.020 E205.69112
G1 X93.513 Y106.405 E205.70808
G1 X93.273 Y105.794 E205.72442
G1 X93.066 Y105.146 E205.74134
G1 X92.859 Y104.301 E205.76299
G1 X90.426 Y104.301 E205.82353
G1 X90.603 Y105.196 E205.84623
G1 X90.743 Y105.747 E205.86038
G1 X90.942 Y106.393 E205.87720
G1 X91.175 Y107.027 E205.89400
G1 X91.443 Y107.647 E205.91081
G0 F3600 X91.167 Y107.760
G0 X89.999 Y108.163
G0 X89.699 Y108.255
G1 F2400 X89.699 Y96.745 E206.19721
G1 X96.583 Y89.861 E206.43946
G1 X108.417 Y89.861 E206.73392
G1 X115.301 Y96.745 E206.97616
G1 X115.301 Y108.255 E207.26256
G1 X108.417 Y115.139 E207.50481
G1 X96.583 Y115.139 E207.79927
G1 X89.699 Y108.255 E208.04152
G0 F3600 X89.999 Y108.163
G0 X92.524 Y110.142
G0 X95.050 Y108.379
G0 X111.850 Y100.771
G0 X112.141 Y100.699
G1 F2400 X114.574 Y100.699 E208.10206
G1 X114.397 Y99.804 E208.12476
G1 X114.257 Y99.253 E208.13890
G1 X114.058 Y98.607 E208.15572
G1 X113.825 Y97.973 E208.17253
G1 X113.557 Y97.353 E208.18934
G1 X113.255 Y96.747 E208.20618
G1 X112.919 Y96.160 E208.22301
G1 X112.384 Y95.337 E208.24744
G1 X110.419 Y96.712 E208.30712
G1 X110.871 Y97.407 E208.32774
G1 X111.193 Y97.980 E208.34410
G1 X111.487 Y98.595 E208.36106
G1 X111.727 Y99.204 E208.37735
G1 X111.934 Y99.854 E208.39432
G1 X112.141 Y100.699 E208.41597
G0 F3600 X111.980 Y101.597
;TYPE:SKIN
G1 F3000 X99.336 Y114.240 E208.86089
G0 F3600 X99.900 Y114.240
G1 F3000 X112.544 Y101.597 E209.30581
G0 F3600 X113.108 Y101.597
G1 F3000 X100.465 Y114.240 E209.75071
G0 F3600 X101.029 Y114.240
G1 F3000 X113.673 Y101.597 E210.19563
G0 F3600 X114.237 Y101.597
G1 F3000 X101.593 Y114.240 E210.64055
G0 F3600 X102.157 Y114.240
G1 F3000 X114.402 Y101.996 E211.07142
G0 F3600 X114.402 Y102.560
G1 F3000 X102.722 Y114.240 E211.48244
G0 F3600 X103.286 Y114.240
G1 F3000 X114.402 Y103.125 E211.87359
G0 F3600 X114.402 Y103.689
G1 F3000 X103.850 Y114.240 E212.24489
G0 F3600 X104.414 Y114.240
G1 F3000 X114.402 Y104.253 E212.59634
G0 F3600 X114.402 Y104.817
G1 F3000 X104.979 Y114.240 E212.92793
G0 F3600 X105.543 Y114.240
G1 F3000 X114.402 Y105.382 E213.23966
G0 F3600 X114.402 Y105.946
G1 F3000 X106.107 Y114.240 E213.53154
G0 F3600 X106.672 Y114.240
G1 F3000 X114.402 Y106.510 E213.80355
G0 F3600 X114.402 Y107.075
G1 F3000 X107.236 Y114.240 E214.05570
G0 F3600 X107.800 Y114.240
G1 F3000 X114.402 Y107.639 E214.28801
G0 F3600 X111.435 Y101.578
G1 F3000 X98.772 Y114.240 E214.73360
G0 F3600 X98.207 Y114.240
G1 F3000 X111.322 Y101.126 E215.19509
G0 F3600 X111.210 Y100.673
G1 F3000 X97.643 Y114.240 E215.67250
G0 F3600 X97.079 Y114.240
G1 F3000 X111.098 Y100.221 E216.16583
G0 F3600 X110.968 Y99.787
G1 F3000 X96.735 Y114.020 E216.66668
G0 F3600 X96.452 Y113.738
G1 F3000 X110.824 Y99.367 E217.17240
G0 F3600 X110.665 Y98.962
G1 F3000 X96.170 Y113.456 E217.68246
G0 F3600 X95.888 Y113.174
G1 F3000 X110.482 Y98.580 E218.19601
G0 F3600 X110.290 Y98.208
G1 F3000 X95.606 Y112.892 E218.71274
G0 F3600 X95.324 Y112.610
G1 F3000 X110.085 Y97.848 E219.23219
G0 F3600 X109.863 Y97.507
G1 F3000 X95.042 Y112.328 E219.75373
G0 F3600 X94.760 Y112.046
G1 F3000 X109.641 Y97.164 E220.27740
G0 F3600 X109.418 Y96.823
G1 F3000 X94.477 Y111.763 E220.80315
G0 F3600 X94.195 Y111.481
G1 F3000 X109.196 Y96.481 E221.33101
G0 F3600 X109.229 Y96.447
G1 F3000 X111.481 Y94.195 E221.41026
G0 F3600 X111.199 Y93.913
G1 F3000 X93.913 Y111.199 E222.01854
G0 F3600 X93.631 Y110.917
G1 F3000 X110.917 Y93.631 E222.62683
G0 F3600 X110.635 Y93.349
G1 F3000 X95.670 Y108.313 E223.15342
G0 F3600 X95.448 Y107.972
G1 F3000 X110.353 Y93.067 E223.67792
G0 F3600 X110.071 Y92.785
G1 F3000 X95.226 Y107.630 E224.20031
G0 F3600 X95.003 Y107.288
G1 F3000 X109.788 Y92.503 E224.72059
G0 F3600 X109.506 Y92.220
G1 F3000 X94.791 Y106.936 E225.23842
G0 F3600 X94.590 Y106.573
G1 F3000 X109.224 Y91.938 E225.75340
G0 F3600 X108.942 Y91.656
G1 F3000 X94.407 Y106.191 E226.26488
G0 F3600 X94.239 Y105.795
G1 F3000 X108.660 Y91.374 E226.77235
G0 F3600 X108.378 Y91.092
G1 F3000 X94.086 Y105.384 E227.27528
G0 F3600 X93.949 Y104.957
G1 F3000 X108.096 Y90.810 E227.77310
G0 F3600 X107.583 Y90.758
G1 F3000 X93.833 Y104.508 E228.25696
G0 F3600 X93.721 Y104.056
G1 F3000 X107.019 Y90.758 E228.72491
G0 F3600 X106.454 Y90.758
G1 F3000 X93.609 Y103.603 E229.17692
G0 F3600 X93.246 Y103.402
G1 F3000 X105.890 Y90.758 E229.62185
G0 F3600 X105.326 Y90.758
G1 F3000 X92.682 Y103.402 E230.06679
G0 F3600 X92.118 Y103.402
G1 F3000 X104.762 Y90.758 E230.51173
G0 F3600 X104.197 Y90.758
G1 F3000 X91.554 Y103.402 E230.95664
G0 F3600 X90.989 Y103.402
G1 F3000 X103.633 Y90.758 E231.40158
G0 F3600 X103.069 Y90.758
G1 F3000 X90.596 Y103.231 E231.84050
G0 F3600 X90.596 Y102.666
G1 F3000 X102.505 Y90.758 E232.25955
G0 F3600 X101.940 Y90.758
G1 F3000 X90.596 Y102.102 E232.65874
G0 F3600 X90.596 Y101.538
G1 F3000 X101.376 Y90.758 E233.03809
G0 F3600 X100.812 Y90.758
G1 F3000 X90.596 Y100.974 E233.39758
G0 F3600 X90.596 Y100.409
G1 F3000 X100.247 Y90.758 E233.73720
G0 F3600 X111.113 Y95.128
G1 F3000 X111.763 Y94.477 E233.76009
G0 F3600 X99.683 Y90.758
G1 F3000 X90.596 Y99.845 E234.07985
G0 F3600 X90.596 Y99.281
G1 F3000 X99.119 Y90.758 E234.37977
G0 F3600 X98.555 Y90.758
G1 F3000 X90.596 Y98.717 E234.65985
G0 F3600 X90.596 Y98.152
G1 F3000 X97.990 Y90.758 E234.92004
G0 F3600 X97.426 Y90.758
G1 F3000 X90.596 Y97.588 E235.16038
G0 F3600 X95.050 Y108.379
G0 X94.646 Y109.338
G1 F3000 X93.349 Y110.635 E235.20602
;LAYER:6
M117 Nb = 7 / 55
G0 F3600 X94.851 Y110.400 Z1.160
;TYPE:WALL-INNER
G1 F2700 X95.371 Y110.873 E235.22351
G1 X95.920 Y111.311 E235.24099
G1 X96.498 Y111.714 E235.25852
G1 X97.097 Y112.078 E235.27596
G1 X97.719 Y112.403 E235.29343
G1 X98.361 Y112.688 E235.31090
G1 X98.954 Y112.908 E235.32664
G1 X98.954 Y114.341 E235.36230
G1 X96.913 Y114.341 E235.41308
G1 X92.965 Y110.393 E235.55201
G1 X94.106 Y109.595 E235.58666
G1 X94.851 Y110.400 E235.61395
G0 F3600 X92.523 Y110.142
G0 X90.712 Y107.968
G1 F2700 X90.884 Y108.312 E235.62352
G1 X90.497 Y107.925 E235.63714
G1 X90.497 Y107.468 E235.64851
G1 X90.712 Y107.968 E235.66205
G0 F3600 X89.902 Y102.491
G0 X90.229 Y99.948
G0 X90.497 Y99.503
G1 F2700 X90.497 Y97.075 E235.72247
G1 X96.913 Y90.659 E235.94824
G1 X108.087 Y90.659 E236.22628
G1 X112.035 Y94.607 E236.36521
G1 X110.924 Y95.384 E236.39895
G1 X110.715 Y95.094 E236.40784
G1 X108.721 Y97.064 E236.47759
G1 X108.014 Y96.348 E236.50263
G1 X110.034 Y94.352 E236.57329
G1 X108.467 Y93.263 E236.62077
G1 X107.833 Y92.883 E236.63916
G1 X107.173 Y92.545 E236.65761
G1 X106.490 Y92.252 E236.67611
G1 X105.791 Y92.007 E236.69454
G1 X105.080 Y91.810 E236.71290
G1 X104.353 Y91.661 E236.73136
G1 X103.618 Y91.561 E236.74982
G1 X102.880 Y91.510 E236.76823
G1 X102.138 Y91.508 E236.78669
G1 X101.398 Y91.558 E236.80514
G1 X100.663 Y91.656 E236.82359
G1 X99.935 Y91.806 E236.84209
G1 X99.221 Y92.003 E236.86052
G1 X98.518 Y92.249 E236.87905
G1 X97.835 Y92.541 E236.89754
G1 X97.175 Y92.878 E236.91598
G1 X96.538 Y93.259 E236.93444
G1 X94.966 Y94.353 E236.98210
G1 X96.986 Y96.348 E237.05274
G1 X96.279 Y97.064 E237.07778
G1 X94.263 Y95.072 E237.14830
G1 X93.228 Y96.586 E237.19394
G1 X92.886 Y97.162 E237.21061
G1 X92.577 Y97.760 E237.22735
G1 X92.306 Y98.374 E237.24405
G1 X92.074 Y99.005 E237.26078
G1 X91.924 Y99.503 E237.27372
G1 X90.497 Y99.503 E237.30923
G0 F3600 X89.922 Y101.790
G0 X90.355 Y105.839
G0 X91.731 Y109.031
G0 X92.523 Y110.142
G0 X90.083 Y108.097
G0 X90.083 Y96.903
G0 X96.741 Y90.245
G0 X108.259 Y90.245
G0 X114.917 Y96.903
G0 X114.917 Y108.097
G0 X106.046 Y112.908
G1 F2700 X106.661 Y112.679 E237.32556
G1 X107.317 Y112.386 E237.34344
G1 X107.952 Y112.050 E237.36132
G1 X108.567 Y111.673 E237.37926
G1 X109.152 Y111.256 E237.39714
G1 X109.711 Y110.803 E237.41504
G1 X110.238 Y110.314 E237.43293
G1 X110.733 Y109.791 E237.45085
G1 X111.192 Y109.235 E237.46879
G1 X111.612 Y108.655 E237.48661
G1 X111.996 Y108.045 E237.50454
G1 X112.339 Y107.413 E237.52244
G1 X112.639 Y106.758 E237.54036
G1 X112.895 Y106.086 E237.55826
G1 X113.077 Y105.497 E237.57360
G1 X114.503 Y105.497 E237.60908
G1 X114.503 Y107.925 E237.66950
G1 X108.087 Y114.341 E237.89527
G1 X106.046 Y114.341 E237.94606
G1 X106.046 Y112.908 E237.98171
G0 F3600 X110.434 Y109.527
G0 X112.271 Y106.603
G0 X114.771 Y105.052
G0 X115.021 Y101.106
G0 X114.503 Y97.532
G1 F2700 X114.288 Y97.032 E237.99526
G1 X114.116 Y96.688 E238.00483
G1 X114.503 Y97.075 E238.01844
G1 X114.503 Y97.532 E238.02982
G0 F3600 X114.202 Y97.842
G1 F2700 X113.926 Y97.200 E238.04720
G1 X113.614 Y96.576 E238.06456
G1 X113.269 Y95.968 E238.08196
G1 X112.493 Y94.773 E238.11741
G1 X110.831 Y95.936 E238.16789
G1 X110.664 Y95.705 E238.17498
G1 X108.717 Y97.629 E238.24309
G1 X107.449 Y96.344 E238.28801
G1 X109.412 Y94.406 E238.35665
G1 X108.251 Y93.598 E238.39185
G1 X107.639 Y93.232 E238.40959
G1 X107.003 Y92.906 E238.42737
G1 X106.345 Y92.624 E238.44519
G1 X105.672 Y92.388 E238.46293
G1 X104.986 Y92.198 E238.48064
G1 X104.286 Y92.054 E238.49843
G1 X103.578 Y91.958 E238.51620
G1 X102.865 Y91.909 E238.53399
G1 X102.151 Y91.907 E238.55175
G1 X101.438 Y91.956 E238.56954
G1 X100.729 Y92.050 E238.58733
G1 X100.028 Y92.194 E238.60514
G1 X99.341 Y92.384 E238.62288
G1 X98.663 Y92.621 E238.64075
G1 X98.004 Y92.902 E238.65857
G1 X97.368 Y93.228 E238.67636
G1 X96.754 Y93.594 E238.69414
G1 X95.588 Y94.406 E238.72950
G1 X97.551 Y96.344 E238.79814
G1 X96.283 Y97.629 E238.84306
G1 X94.323 Y95.692 E238.91163
G1 X93.565 Y96.801 E238.94505
G1 X93.235 Y97.356 E238.96112
G1 X92.937 Y97.932 E238.97726
G1 X92.676 Y98.524 E238.99335
G1 X92.453 Y99.131 E239.00944
G1 X92.266 Y99.751 E239.02556
G1 X92.230 Y99.902 E239.02942
G1 X90.190 Y99.902 E239.08018
G1 X90.098 Y100.424 E239.09337
G1 X90.098 Y96.910 E239.18081
G1 X96.748 Y90.260 E239.41482
G1 X108.252 Y90.260 E239.70107
G1 X114.902 Y96.910 E239.93508
G1 X114.902 Y100.299 E240.01941
G1 X114.786 Y99.716 E240.03420
G1 X114.645 Y99.161 E240.04845
G1 X114.441 Y98.497 E240.06573
G1 X114.202 Y97.842 E240.08308
G0 F3600 X115.080 Y101.807
G0 X114.810 Y105.098
G1 F2700 X114.902 Y104.576 E240.09627
G1 X114.902 Y108.090 E240.18371
G1 X108.252 Y114.740 E240.41772
G1 X105.647 Y114.740 E240.48254
G1 X105.647 Y112.615 E240.53541
G1 X106.510 Y112.310 E240.55819
G1 X107.142 Y112.027 E240.57542
G1 X107.754 Y111.704 E240.59264
G1 X108.346 Y111.340 E240.60993
G1 X108.911 Y110.938 E240.62719
G1 X109.449 Y110.502 E240.64442
G1 X109.957 Y110.030 E240.66167
G1 X110.434 Y109.526 E240.67894
G1 X110.876 Y108.991 E240.69621
G1 X111.282 Y108.431 E240.71342
G1 X111.652 Y107.844 E240.73068
G1 X111.981 Y107.234 E240.74793
G1 X112.271 Y106.603 E240.76521
G1 X112.518 Y105.956 E240.78244
G1 X112.722 Y105.294 E240.79968
G1 X112.769 Y105.098 E240.80469
G1 X114.810 Y105.098 E240.85548
G0 F3600 X108.346 Y111.340
G0 X114.917 Y108.097
G0 X114.917 Y96.903
G0 X108.259 Y90.245
G0 X96.741 Y90.245
G0 X90.083 Y96.903
G0 X90.083 Y108.097
G0 X96.741 Y114.755
G0 X99.147 Y112.554
G1 F2700 X99.353 Y112.615 E240.86082
G1 X99.353 Y114.740 E240.91370
G1 X96.748 Y114.740 E240.97852
G1 X90.098 Y108.090 E241.21253
G1 X90.098 Y104.701 E241.29686
G1 X90.214 Y105.284 E241.31165
G1 X90.355 Y105.839 E241.32590
G1 X90.559 Y106.503 E241.34318
G1 X90.798 Y107.158 E241.36053
G1 X91.074 Y107.800 E241.37792
G1 X91.386 Y108.424 E241.39528
G1 X91.731 Y109.032 E241.41267
G1 X92.507 Y110.227 E241.44813
G1 X94.175 Y109.059 E241.49879
G1 X94.658 Y109.628 E241.51737
G1 X95.129 Y110.114 E241.53421
G1 X95.630 Y110.569 E241.55105
G1 X96.159 Y110.992 E241.56790
G1 X96.715 Y111.379 E241.58476
G1 X97.293 Y111.730 E241.60158
G1 X97.893 Y112.044 E241.61843
G1 X98.512 Y112.318 E241.63528
G1 X99.147 Y112.554 E241.65213
G0 F3600 X99.273 Y112.175
;TYPE:WALL-OUTER
G1 F2400 X99.752 Y112.318 E241.66457
G1 X99.752 Y115.139 E241.73477
G1 X96.583 Y115.139 E241.81362
G1 X89.699 Y108.255 E242.05586
G1 X89.699 Y96.745 E242.34226
G1 X96.583 Y89.861 E242.58451
G1 X108.417 Y89.861 E242.87897
G1 X115.301 Y96.745 E243.12122
G1 X115.301 Y108.255 E243.40762
G1 X108.417 Y115.139 E243.64986
G1 X105.248 Y115.139 E243.72871
G1 X105.248 Y112.318 E243.79891
G1 X105.733 Y112.173 E243.81150
G1 X106.358 Y111.940 E243.82810
G1 X106.967 Y111.668 E243.84470
G1 X107.557 Y111.357 E243.86129
G1 X108.126 Y111.007 E243.87792
G1 X108.669 Y110.621 E243.89449
G1 X109.188 Y110.200 E243.91112
G1 X109.676 Y109.746 E243.92771
G1 X110.135 Y109.262 E243.94431
G1 X110.560 Y108.747 E243.96092
G1 X110.951 Y108.208 E243.97749
G1 X111.307 Y107.642 E243.99413
G1 X111.624 Y107.056 E244.01070
G1 X111.903 Y106.449 E244.02733
G1 X112.140 Y105.826 E244.04391
G1 X112.337 Y105.189 E244.06050
G1 X112.454 Y104.699 E244.07304
G1 X114.475 Y104.699 E244.12333
G1 X114.623 Y103.862 E244.14448
G1 X114.679 Y103.188 E244.16131
G1 X114.698 Y102.508 E244.17823
G1 X114.681 Y101.828 E244.19516
G1 X114.624 Y101.150 E244.21209
G1 X114.528 Y100.467 E244.22925
G1 X114.397 Y99.804 E244.24607
G1 X114.261 Y99.269 E244.25980
G1 X114.063 Y98.624 E244.27659
G1 X113.831 Y97.989 E244.29341
G1 X113.564 Y97.368 E244.31023
G1 X113.262 Y96.763 E244.32706
G1 X112.928 Y96.176 E244.34386
G1 X112.384 Y95.337 E244.36874
G1 X110.738 Y96.489 E244.41874
G1 X110.613 Y96.316 E244.42405
G1 X108.714 Y98.192 E244.49047
G1 X106.886 Y96.341 E244.55520
G1 X108.790 Y94.459 E244.62182
G1 X108.034 Y93.934 E244.64472
G1 X107.446 Y93.581 E244.66178
G1 X106.834 Y93.268 E244.67889
G1 X106.200 Y92.996 E244.69605
G1 X105.553 Y92.769 E244.71311
G1 X104.893 Y92.586 E244.73016
G1 X104.219 Y92.448 E244.74728
G1 X103.537 Y92.355 E244.76440
G1 X102.851 Y92.308 E244.78151
G1 X102.165 Y92.306 E244.79858
G1 X101.478 Y92.353 E244.81572
G1 X100.796 Y92.444 E244.83284
G1 X100.121 Y92.582 E244.84998
G1 X99.460 Y92.765 E244.86705
G1 X98.807 Y92.993 E244.88426
G1 X98.174 Y93.264 E244.90139
G1 X97.562 Y93.577 E244.91849
G1 X96.971 Y93.930 E244.93562
G1 X96.210 Y94.459 E244.95869
G1 X98.114 Y96.341 E245.02530
G1 X96.286 Y98.192 E245.09003
G1 X94.382 Y96.312 E245.15661
G1 X93.901 Y97.016 E245.17783
G1 X93.584 Y97.549 E245.19326
G1 X93.297 Y98.104 E245.20881
G1 X93.046 Y98.673 E245.22428
G1 X92.831 Y99.258 E245.23979
G1 X92.652 Y99.854 E245.25527
G1 X92.545 Y100.301 E245.26671
G1 X90.525 Y100.301 E245.31697
G1 X90.377 Y101.138 E245.33812
G1 X90.321 Y101.812 E245.35495
G1 X90.302 Y102.492 E245.37188
G1 X90.319 Y103.172 E245.38880
G1 X90.376 Y103.850 E245.40573
G1 X90.472 Y104.533 E245.42290
G1 X90.603 Y105.196 E245.43971
G1 X90.739 Y105.731 E245.45345
G1 X90.937 Y106.376 E245.47024
G1 X91.169 Y107.011 E245.48706
G1 X91.436 Y107.632 E245.50388
G1 X91.738 Y108.237 E245.52070
G1 X92.072 Y108.824 E245.53751
G1 X92.616 Y109.663 E245.56239
G1 X94.252 Y108.518 E245.61208
G1 X94.954 Y109.359 E245.63934
G1 X95.406 Y109.827 E245.65553
G1 X95.889 Y110.266 E245.67177
G1 X96.398 Y110.672 E245.68797
G1 X96.933 Y111.045 E245.70420
G1 X97.489 Y111.382 E245.72037
G1 X98.066 Y111.684 E245.73658
G1 X98.662 Y111.948 E245.75280
G1 X99.273 Y112.175 E245.76902
G0 F3600 X98.429 Y112.819
;TYPE:SKIN
G1 F3000 X98.853 Y113.243 E245.78394
G0 F3600 X98.853 Y113.807
G1 F3000 X97.388 Y112.342 E245.83549
G0 F3600 X95.900 Y111.418
G1 F3000 X98.722 Y114.240 E245.93480
G0 F3600 X98.157 Y114.240
G1 F3000 X93.828 Y109.911 E246.08713
G0 F3600 X93.497 Y110.143
G1 F3000 X97.593 Y114.240 E246.23128
G0 F3600 X97.029 Y114.240
G1 F3000 X93.165 Y110.376 E246.36726
G0 F3600 X92.523 Y110.142
G0 X90.559 Y106.503
G0 X89.902 Y102.491
G0 X90.229 Y99.948
G0 X91.783 Y99.402
G1 F3000 X90.596 Y98.215 E246.40903
G0 F3600 X90.596 Y98.779
G1 F3000 X91.219 Y99.402 E246.43095
G0 F3600 X90.655 Y99.402
G1 F3000 X90.596 Y99.343 E246.43303
G0 F3600 X91.964 Y99.018
G1 F3000 X90.596 Y97.650 E246.48117
G0 F3600 X90.611 Y97.101
G1 F3000 X92.114 Y98.603 E246.53404
G0 F3600 X92.273 Y98.199
G1 F3000 X90.893 Y96.819 E246.58260
G0 F3600 X91.175 Y96.537
G1 F3000 X92.447 Y97.808 E246.62734
G0 F3600 X92.634 Y97.431
G1 F3000 X91.457 Y96.254 E246.66876
G0 F3600 X91.740 Y95.972
G1 F3000 X92.828 Y97.061 E246.70706
G0 F3600 X93.038 Y96.707
G1 F3000 X92.022 Y95.690 E246.74283
G0 F3600 X92.304 Y95.408
G1 F3000 X93.258 Y96.363 E246.77642
G0 F3600 X93.488 Y96.027
G1 F3000 X92.586 Y95.126 E246.80815
G0 F3600 X92.868 Y94.844
G1 F3000 X93.717 Y95.692 E246.83800
G0 F3600 X93.946 Y95.357
G1 F3000 X93.150 Y94.562 E246.86600
G0 F3600 X93.432 Y94.279
G1 F3000 X94.175 Y95.022 E246.89214
G0 F3600 X93.714 Y93.997
G1 F3000 X96.457 Y96.740 E246.98867
G0 F3600 X96.737 Y96.456
G1 F3000 X93.997 Y93.715 E247.08511
G0 F3600 X94.279 Y93.433
G1 F3000 X95.030 Y94.184 E247.11153
G0 F3600 X95.363 Y93.953
G1 F3000 X94.561 Y93.151 E247.13975
G0 F3600 X94.843 Y92.869
G1 F3000 X95.696 Y93.722 E247.16977
G0 F3600 X96.028 Y93.490
G1 F3000 X95.125 Y92.587 E247.20155
G0 F3600 X95.407 Y92.305
G1 F3000 X96.361 Y93.258 E247.23510
G0 F3600 X96.707 Y93.040
G1 F3000 X95.689 Y92.022 E247.27092
G0 F3600 X95.972 Y91.740
G1 F3000 X97.061 Y92.829 E247.30924
G0 F3600 X97.430 Y92.635
G1 F3000 X96.254 Y91.458 E247.35065
G0 F3600 X96.536 Y91.176
G1 F3000 X97.804 Y92.445 E247.39528
G0 F3600 X98.200 Y92.276
G1 F3000 X96.818 Y90.894 E247.44392
G0 F3600 X97.246 Y90.758
G1 F3000 X98.601 Y92.112 E247.49158
G0 F3600 X99.018 Y91.966
G1 F3000 X97.811 Y90.758 E247.53407
G0 F3600 X98.375 Y90.758
G1 F3000 X99.451 Y91.834 E247.57193
G0 F3600 X99.893 Y91.712
G1 F3000 X98.939 Y90.758 E247.60551
G0 F3600 X99.504 Y90.758
G1 F3000 X100.361 Y91.615 E247.63566
G0 F3600 X100.840 Y91.530
G1 F3000 X100.068 Y90.758 E247.66283
G0 F3600 X100.632 Y90.758
G1 F3000 X101.339 Y91.464 E247.68769
G0 F3600 X101.865 Y91.426
G1 F3000 X101.196 Y90.758 E247.71121
G0 F3600 X101.761 Y90.758
G1 F3000 X102.410 Y91.408 E247.73407
G0 F3600 X102.983 Y91.416
G1 F3000 X102.325 Y90.758 E247.75722
G0 F3600 X102.889 Y90.758
G1 F3000 X103.590 Y91.459 E247.78189
G0 F3600 X104.240 Y91.544
G1 F3000 X103.453 Y90.758 E247.80957
G0 F3600 X104.018 Y90.758
G1 F3000 X104.938 Y91.678 E247.84194
G0 F3600 X105.701 Y91.877
G1 F3000 X104.582 Y90.758 E247.88132
G0 F3600 X105.146 Y90.758
G1 F3000 X106.561 Y92.173 E247.93111
G0 F3600 X107.607 Y92.655
G1 F3000 X105.711 Y90.758 E247.99785
G0 F3600 X106.275 Y90.758
G1 F3000 X109.092 Y93.575 E248.09698
G0 F3600 X110.021 Y94.504
G1 F3000 X110.590 Y95.074 E248.11702
G0 F3600 X110.307 Y95.354
G1 F3000 X109.738 Y94.785 E248.13704
G0 F3600 X109.453 Y95.065
G1 F3000 X110.023 Y95.635 E248.15710
G0 F3600 X109.739 Y95.915
G1 F3000 X109.170 Y95.346 E248.17712
G0 F3600 X108.886 Y95.626
G1 F3000 X109.455 Y96.196 E248.19716
G0 F3600 X109.171 Y96.476
G1 F3000 X108.602 Y95.907 E248.21719
G0 F3600 X108.318 Y96.187
G1 F3000 X108.888 Y96.756 E248.23723
G0 F3600 X111.170 Y95.089
G1 F3000 X106.839 Y90.758 E248.38963
G0 F3600 X107.403 Y90.758
G1 F3000 X111.501 Y94.856 E248.53384
G0 F3600 X111.833 Y94.623
G1 F3000 X107.968 Y90.758 E248.66985
G0 F3600 X112.477 Y94.858
G0 X114.441 Y98.497
G0 X115.098 Y102.509
G0 X114.771 Y105.052
G0 X113.214 Y105.597
G1 F3000 X114.402 Y106.785 E248.71165
G0 F3600 X114.402 Y107.349
G1 F3000 X113.031 Y105.979 E248.75988
G0 F3600 X112.883 Y106.394
G1 F3000 X114.386 Y107.898 E248.81279
G0 F3600 X114.104 Y108.180
G1 F3000 X112.727 Y106.803 E248.86124
G0 F3600 X112.550 Y107.190
G1 F3000 X113.822 Y108.462 E248.90600
G0 F3600 X113.540 Y108.744
G1 F3000 X112.366 Y107.570 E248.94732
G0 F3600 X112.167 Y107.936
G1 F3000 X113.258 Y109.026 E248.98569
G0 F3600 X112.975 Y109.308
G1 F3000 X111.957 Y108.290 E249.02151
G0 F3600 X111.739 Y108.637
G1 F3000 X112.693 Y109.590 E249.05507
G0 F3600 X112.411 Y109.873
G1 F3000 X111.507 Y108.968 E249.08690
G0 F3600 X111.270 Y109.296
G1 F3000 X112.129 Y110.155 E249.11712
G0 F3600 X111.847 Y110.437
G1 F3000 X111.015 Y109.605 E249.14640
G0 F3600 X110.756 Y109.910
G1 F3000 X111.565 Y110.719 E249.17487
G0 F3600 X111.283 Y111.001
G1 F3000 X110.481 Y110.200 E249.20307
G0 F3600 X110.201 Y110.484
G1 F3000 X111.000 Y111.283 E249.23119
G0 F3600 X110.718 Y111.565
G1 F3000 X109.907 Y110.754 E249.25973
G0 F3600 X109.605 Y111.016
G1 F3000 X110.436 Y111.848 E249.28899
G0 F3600 X110.154 Y112.130
G1 F3000 X109.293 Y111.269 E249.31929
G0 F3600 X108.968 Y111.508
G1 F3000 X109.872 Y112.412 E249.35110
G0 F3600 X109.590 Y112.694
G1 F3000 X108.639 Y111.744 E249.38455
G0 F3600 X108.291 Y111.959
G1 F3000 X109.308 Y112.976 E249.42033
G0 F3600 X109.025 Y113.258
G1 F3000 X107.937 Y112.170 E249.45862
G0 F3600 X107.568 Y112.365
G1 F3000 X108.743 Y113.540 E249.49997
G0 F3600 X108.461 Y113.822
G1 F3000 X107.191 Y112.552 E249.54466
G0 F3600 X106.801 Y112.726
G1 F3000 X108.179 Y114.105 E249.59317
G0 F3600 X107.750 Y114.240
G1 F3000 X106.394 Y112.883 E249.64090
G0 F3600 X106.145 Y113.200
G1 F3000 X107.186 Y114.240 E249.67752
G0 F3600 X106.621 Y114.240
G1 F3000 X106.145 Y113.764 E249.69427
G0 F3600 X110.434 Y109.527
G0 X113.778 Y105.597
G1 F3000 X114.402 Y106.220 E249.71621
G0 F3600 X114.402 Y105.656
G1 F3000 X114.342 Y105.597 E249.71830
;LAYER:7
M117 Nb = 8 / 55
G0 F3600 X112.895 Y106.087 Z1.310
;TYPE:WALL-INNER
G1 F2700 X113.077 Y105.497 E249.73366
G1 X114.503 Y105.497 E249.76915
G1 X114.503 Y107.925 E249.82956
G1 X108.087 Y114.341 E250.05534
G1 X106.046 Y114.341 E250.10612
G1 X106.046 Y112.907 E250.14181
G1 X106.652 Y112.684 E250.15787
G1 X107.308 Y112.389 E250.17577
G1 X107.944 Y112.055 E250.19365
G1 X108.559 Y111.677 E250.21161
G1 X109.147 Y111.261 E250.22953
G1 X109.706 Y110.808 E250.24743
G1 X110.234 Y110.318 E250.26536
G1 X110.729 Y109.794 E250.28329
G1 X111.188 Y109.240 E250.30120
G1 X111.610 Y108.658 E250.31908
G1 X111.994 Y108.049 E250.33700
G1 X112.337 Y107.415 E250.35493
G1 X112.638 Y106.760 E250.37287
G1 X112.895 Y106.087 E250.39080
G0 F3600 X114.810 Y105.049
G0 X115.022 Y101.121
G0 X114.295 Y97.049
G1 F2700 X114.116 Y96.688 E250.40082
G1 X114.503 Y97.075 E250.41444
G1 X114.503 Y97.534 E250.42586
G1 X114.295 Y97.049 E250.43899
G0 F3600 X112.477 Y94.858
G0 X110.554 Y95.012
G1 F2700 X110.089 Y94.542 E250.45545
G1 X109.597 Y94.100 E250.47190
G1 X109.076 Y93.686 E250.48846
G1 X108.470 Y93.265 E250.50682
G1 X107.834 Y92.884 E250.52527
G1 X107.176 Y92.547 E250.54366
G1 X106.494 Y92.254 E250.56213
G1 X105.797 Y92.010 E250.58051
G1 X105.091 Y91.812 E250.59875
G1 X104.364 Y91.663 E250.61722
G1 X103.631 Y91.563 E250.63563
G1 X102.893 Y91.510 E250.65404
G1 X102.151 Y91.508 E250.67250
G1 X101.412 Y91.557 E250.69093
G1 X100.678 Y91.654 E250.70935
G1 X99.951 Y91.803 E250.72782
G1 X99.237 Y91.998 E250.74624
G1 X98.527 Y92.246 E250.76495
G1 X97.845 Y92.537 E250.78340
G1 X97.185 Y92.873 E250.80183
G1 X96.547 Y93.254 E250.82032
G1 X95.929 Y93.683 E250.83904
G1 X95.407 Y94.097 E250.85562
G1 X94.914 Y94.539 E250.87209
G1 X94.449 Y95.009 E250.88854
G1 X94.012 Y95.508 E250.90505
G1 X93.606 Y96.033 E250.92156
G1 X93.232 Y96.582 E250.93809
G1 X92.888 Y97.158 E250.95479
G1 X92.579 Y97.756 E250.97153
G1 X92.308 Y98.371 E250.98826
G1 X92.074 Y99.002 E251.00500
G1 X91.924 Y99.503 E251.01802
G1 X90.497 Y99.503 E251.05352
G1 X90.497 Y97.075 E251.11394
G1 X96.913 Y90.659 E251.33971
G1 X108.087 Y90.659 E251.61775
G1 X112.035 Y94.607 E251.75668
G1 X110.897 Y95.404 E251.79125
G1 X110.554 Y95.012 E251.80421
G0 F3600 X112.477 Y94.858
G0 X114.448 Y98.514
G0 X115.098 Y102.523
G0 X114.810 Y105.049
G0 X108.339 Y111.344
G0 X114.917 Y108.097
G0 X114.917 Y96.903
G0 X108.259 Y90.245
G0 X96.741 Y90.245
G0 X90.083 Y96.903
G0 X90.083 Y108.097
G0 X96.741 Y114.755
G0 X98.356 Y112.686
G1 F2700 X98.954 Y112.907 E251.82008
G1 X98.954 Y114.341 E251.85576
G1 X96.913 Y114.341 E251.90654
G1 X92.965 Y110.393 E252.04547
G1 X94.106 Y109.595 E252.08012
G1 X94.842 Y110.392 E252.10711
G1 X95.363 Y110.866 E252.12464
G1 X95.912 Y111.306 E252.14215
G1 X96.490 Y111.708 E252.15966
G1 X97.090 Y112.074 E252.17715
G1 X97.714 Y112.400 E252.19467
G1 X98.356 Y112.686 E252.21216
G0 F3600 X92.523 Y110.142
G0 X90.705 Y107.951
G1 F2700 X90.884 Y108.312 E252.22219
G1 X90.497 Y107.925 E252.23580
G1 X90.497 Y107.466 E252.24722
G1 X90.705 Y107.951 E252.26036
G0 F3600 X91.067 Y107.783
G1 F2700 X91.378 Y108.409 E252.27775
G1 X91.722 Y109.016 E252.29511
G1 X92.506 Y110.228 E252.33103
G1 X94.177 Y109.058 E252.38179
G1 X94.210 Y109.102 E252.38315
G1 X94.650 Y109.618 E252.40003
G1 X95.120 Y110.105 E252.41687
G1 X95.622 Y110.562 E252.43376
G1 X96.152 Y110.986 E252.45065
G1 X96.708 Y111.374 E252.46752
G1 X97.287 Y111.727 E252.48439
G1 X97.888 Y112.041 E252.50127
G1 X98.506 Y112.316 E252.51810
G1 X99.142 Y112.551 E252.53497
G1 X99.353 Y112.614 E252.54045
G1 X99.353 Y114.740 E252.59335
G1 X96.748 Y114.740 E252.65817
G1 X90.098 Y108.090 E252.89218
G1 X90.098 Y104.700 E252.97653
G1 X90.214 Y105.284 E252.99135
G1 X90.351 Y105.822 E253.00516
G1 X90.553 Y106.487 E253.02245
G1 X90.792 Y107.142 E253.03980
G1 X91.067 Y107.783 E253.05716
G0 F3600 X89.978 Y103.879
G0 X89.980 Y101.098
G0 X90.148 Y99.902
G1 F2700 X90.098 Y100.258 E253.06610
G1 X90.098 Y96.910 E253.14941
G1 X96.748 Y90.260 E253.38342
G1 X108.252 Y90.260 E253.66967
G1 X114.902 Y96.910 E253.90368
G1 X114.902 Y100.300 E253.98803
G1 X114.786 Y99.716 E254.00285
G1 X114.649 Y99.178 E254.01666
G1 X114.447 Y98.513 E254.03396
G1 X114.208 Y97.858 E254.05131
G1 X113.933 Y97.217 E254.06866
G1 X113.622 Y96.591 E254.08606
G1 X113.278 Y95.984 E254.10342
G1 X112.494 Y94.772 E254.13933
G1 X110.820 Y95.945 E254.19020
G1 X110.685 Y95.767 E254.19575
G1 X110.262 Y95.284 E254.21173
G1 X109.814 Y94.831 E254.22758
G1 X109.339 Y94.405 E254.24346
G1 X108.838 Y94.007 E254.25938
G1 X108.253 Y93.601 E254.27710
G1 X107.640 Y93.233 E254.29489
G1 X107.006 Y92.908 E254.31262
G1 X106.349 Y92.626 E254.33041
G1 X105.677 Y92.390 E254.34813
G1 X104.997 Y92.200 E254.36570
G1 X104.297 Y92.056 E254.38348
G1 X103.590 Y91.960 E254.40123
G1 X102.878 Y91.909 E254.41900
G1 X102.164 Y91.907 E254.43676
G1 X101.452 Y91.955 E254.45452
G1 X100.744 Y92.048 E254.47229
G1 X100.044 Y92.191 E254.49007
G1 X99.355 Y92.380 E254.50784
G1 X98.671 Y92.618 E254.52586
G1 X98.014 Y92.899 E254.54364
G1 X97.378 Y93.222 E254.56139
G1 X96.764 Y93.589 E254.57919
G1 X96.166 Y94.004 E254.59730
G1 X95.664 Y94.402 E254.61325
G1 X95.189 Y94.828 E254.62912
G1 X94.741 Y95.281 E254.64498
G1 X94.320 Y95.762 E254.66088
G1 X93.929 Y96.267 E254.67677
G1 X93.569 Y96.796 E254.69269
G1 X93.237 Y97.352 E254.70881
G1 X92.939 Y97.929 E254.72497
G1 X92.678 Y98.521 E254.74107
G1 X92.453 Y99.129 E254.75720
G1 X92.266 Y99.750 E254.77333
G1 X92.230 Y99.902 E254.77722
G1 X90.148 Y99.902 E254.82903
G0 F3600 X89.978 Y103.879
G0 X91.067 Y107.783
G0 X92.523 Y110.142
G0 X90.083 Y108.097
G0 X90.083 Y96.903
G0 X96.741 Y90.245
G0 X108.259 Y90.245
G0 X114.917 Y96.903
G0 X114.917 Y108.097
G0 X105.647 Y112.615
G1 F2700 X106.501 Y112.314 E254.85156
G1 X107.134 Y112.030 E254.86882
G1 X107.747 Y111.708 E254.88605
G1 X108.339 Y111.344 E254.90334
G1 X108.906 Y110.943 E254.92062
G1 X109.444 Y110.506 E254.93787
G1 X109.953 Y110.034 E254.95514
G1 X110.430 Y109.530 E254.97241
G1 X110.873 Y108.996 E254.98967
G1 X111.280 Y108.434 E255.00694
G1 X111.649 Y107.847 E255.02419
G1 X111.980 Y107.236 E255.04148
G1 X112.270 Y106.606 E255.05874
G1 X112.518 Y105.957 E255.07603
G1 X112.722 Y105.294 E255.09329
G1 X112.769 Y105.098 E255.09831
G1 X114.852 Y105.098 E255.15014
G1 X114.902 Y104.742 E255.15908
G1 X114.902 Y108.090 E255.24239
G1 X108.252 Y114.740 E255.47640
G1 X105.647 Y114.740 E255.54122
G1 X105.647 Y112.615 E255.59409
G0 F3600 X106.350 Y111.944
;TYPE:WALL-OUTER
G1 F2400 X106.959 Y111.671 E255.61070
G1 X107.549 Y111.361 E255.62728
G1 X108.119 Y111.011 E255.64393
G1 X108.664 Y110.625 E255.66055
G1 X109.182 Y110.204 E255.67716
G1 X109.672 Y109.750 E255.69378
G1 X110.131 Y109.265 E255.71039
G1 X110.557 Y108.751 E255.72700
G1 X110.949 Y108.211 E255.74361
G1 X111.305 Y107.646 E255.76022
G1 X111.623 Y107.058 E255.77686
G1 X111.902 Y106.451 E255.79348
G1 X112.140 Y105.827 E255.81010
G1 X112.337 Y105.188 E255.82674
G1 X112.454 Y104.699 E255.83925
G1 X114.505 Y104.699 E255.89028
G1 X114.623 Y103.858 E255.91141
G1 X114.678 Y103.202 E255.92779
G1 X114.698 Y102.522 E255.94472
G1 X114.681 Y101.842 E255.96165
G1 X114.625 Y101.164 E255.97858
G1 X114.528 Y100.467 E255.99609
G1 X114.397 Y99.804 E256.01290
G1 X114.265 Y99.285 E256.02623
G1 X114.069 Y98.640 E256.04300
G1 X113.837 Y98.006 E256.05980
G1 X113.571 Y97.384 E256.07663
G1 X113.270 Y96.779 E256.09345
G1 X112.936 Y96.191 E256.11027
G1 X112.384 Y95.337 E256.13558
G1 X110.734 Y96.492 E256.18569
G1 X110.375 Y96.019 E256.20047
G1 X109.970 Y95.556 E256.21577
G1 X109.538 Y95.120 E256.23105
G1 X109.081 Y94.710 E256.24632
G1 X108.600 Y94.327 E256.26162
G1 X108.036 Y93.936 E256.27870
G1 X107.447 Y93.582 E256.29580
G1 X106.837 Y93.270 E256.31285
G1 X106.204 Y92.998 E256.32999
G1 X105.557 Y92.771 E256.34705
G1 X104.903 Y92.588 E256.36395
G1 X104.230 Y92.450 E256.38105
G1 X103.549 Y92.357 E256.39815
G1 X102.863 Y92.308 E256.41526
G1 X102.177 Y92.306 E256.43233
G1 X101.491 Y92.352 E256.44944
G1 X100.810 Y92.442 E256.46653
G1 X100.137 Y92.579 E256.48362
G1 X99.474 Y92.761 E256.50073
G1 X98.815 Y92.990 E256.51809
G1 X98.183 Y93.261 E256.53520
G1 X97.571 Y93.572 E256.55228
G1 X96.980 Y93.925 E256.56941
G1 X96.404 Y94.324 E256.58684
G1 X95.922 Y94.707 E256.60216
G1 X95.465 Y95.117 E256.61744
G1 X95.033 Y95.553 E256.63271
G1 X94.628 Y96.015 E256.64800
G1 X94.252 Y96.502 E256.66331
G1 X93.905 Y97.011 E256.67864
G1 X93.586 Y97.546 E256.69414
G1 X93.299 Y98.101 E256.70968
G1 X93.047 Y98.671 E256.72519
G1 X92.831 Y99.256 E256.74071
G1 X92.652 Y99.853 E256.75622
G1 X92.545 Y100.301 E256.76768
G1 X90.495 Y100.301 E256.81869
G1 X90.377 Y101.142 E256.83982
G1 X90.322 Y101.798 E256.85620
G1 X90.302 Y102.478 E256.87313
G1 X90.319 Y103.158 E256.89005
G1 X90.375 Y103.836 E256.90698
G1 X90.472 Y104.533 E256.92449
G1 X90.603 Y105.196 E256.94131
G1 X90.735 Y105.715 E256.95463
G1 X90.931 Y106.360 E256.97141
G1 X91.163 Y106.994 E256.98820
G1 X91.429 Y107.616 E257.00504
G1 X91.730 Y108.221 E257.02185
G1 X92.064 Y108.809 E257.03868
G1 X92.616 Y109.663 E257.06398
G1 X94.265 Y108.508 E257.11408
G1 X94.522 Y108.853 E257.12478
G1 X94.946 Y109.350 E257.14104
G1 X95.398 Y109.819 E257.15724
G1 X95.882 Y110.258 E257.17350
G1 X96.391 Y110.666 E257.18974
G1 X96.926 Y111.040 E257.20598
G1 X97.483 Y111.379 E257.22220
G1 X98.061 Y111.681 E257.23843
G1 X98.657 Y111.946 E257.25466
G1 X99.269 Y112.173 E257.27090
G1 X99.752 Y112.318 E257.28345
G1 X99.752 Y115.139 E257.35364
G1 X96.583 Y115.139 E257.43250
G1 X89.699 Y108.255 E257.67474
G1 X89.699 Y96.745 E257.96114
G1 X96.583 Y89.861 E258.20339
G1 X108.417 Y89.861 E258.49785
G1 X115.301 Y96.745 E258.74009
G1 X115.301 Y108.255 E259.02649
G1 X108.417 Y115.139 E259.26874
G1 X105.248 Y115.139 E259.34759
G1 X105.248 Y112.318 E259.41779
G1 X106.350 Y111.944 E259.44674
G0 F3600 X106.300 Y112.919
;TYPE:SKIN
G1 F3000 X106.145 Y113.074 E259.45220
G0 F3600 X106.145 Y113.638
G1 F3000 X107.269 Y112.514 E259.49175
G0 F3600 X108.549 Y111.799
G1 F3000 X106.145 Y114.202 E259.57633
G0 F3600 X106.672 Y114.240
G1 F3000 X114.402 Y106.510 E259.84834
G0 F3600 X114.402 Y105.946
G1 F3000 X111.790 Y108.558 E259.94026
G0 F3600 X112.513 Y107.270
G1 F3000 X114.187 Y105.597 E259.99915
G0 F3600 X113.622 Y105.597
G1 F3000 X112.920 Y106.300 E260.02387
G0 F3600 X114.402 Y107.075
G1 F3000 X107.236 Y114.240 E260.27602
G0 F3600 X107.800 Y114.240
G1 F3000 X114.402 Y107.639 E260.50832
G0 F3600 X115.080 Y101.822
G0 X114.208 Y97.859
G0 X112.477 Y94.858
G0 X111.111 Y95.130
G1 F3000 X111.763 Y94.477 E260.53128
G0 F3600 X111.481 Y94.195
G1 F3000 X110.677 Y95.000 E260.55959
G0 F3600 X110.399 Y94.713
G1 F3000 X111.199 Y93.913 E260.58775
G0 F3600 X110.917 Y93.631
G1 F3000 X110.116 Y94.432 E260.61593
G0 F3600 X109.818 Y94.166
G1 F3000 X110.635 Y93.349 E260.64468
G0 F3600 X110.353 Y93.067
G1 F3000 X109.513 Y93.907 E260.67424
G0 F3600 X109.198 Y93.657
G1 F3000 X110.071 Y92.785 E260.70494
G0 F3600 X109.788 Y92.503
G1 F3000 X108.870 Y93.421 E260.73725
G0 F3600 X108.536 Y93.191
G1 F3000 X109.506 Y92.220 E260.77140
G0 F3600 X109.224 Y91.938
G1 F3000 X108.184 Y92.978 E260.80800
G0 F3600 X107.828 Y92.770
G1 F3000 X108.942 Y91.656 E260.84720
G0 F3600 X108.660 Y91.374
G1 F3000 X107.456 Y92.578 E260.88957
G0 F3600 X107.075 Y92.395
G1 F3000 X108.378 Y91.092 E260.93542
G0 F3600 X108.096 Y90.810
G1 F3000 X106.680 Y92.225 E260.98523
G0 F3600 X106.271 Y92.070
G1 F3000 X107.583 Y90.758 E261.03140
G0 F3600 X107.019 Y90.758
G1 F3000 X105.853 Y91.923 E261.07241
G0 F3600 X105.414 Y91.798
G1 F3000 X106.454 Y90.758 E261.10901
G0 F3600 X105.890 Y90.758
G1 F3000 X104.965 Y91.684 E261.14158
G0 F3600 X104.496 Y91.588
G1 F3000 X105.326 Y90.758 E261.17078
G0 F3600 X104.762 Y90.758
G1 F3000 X104.006 Y91.513 E261.19737
G0 F3600 X103.502 Y91.453
G1 F3000 X104.197 Y90.758 E261.22183
G0 F3600 X103.633 Y90.758
G1 F3000 X102.975 Y91.416 E261.24498
G0 F3600 X102.418 Y91.409
G1 F3000 X103.069 Y90.758 E261.26789
G0 F3600 X102.505 Y90.758
G1 F3000 X101.834 Y91.428 E261.29148
G0 F3600 X101.217 Y91.481
G1 F3000 X101.940 Y90.758 E261.31693
G0 F3600 X101.376 Y90.758
G1 F3000 X100.558 Y91.576 E261.34571
G0 F3600 X99.842 Y91.728
G1 F3000 X100.812 Y90.758 E261.37984
G0 F3600 X100.247 Y90.758
G1 F3000 X99.048 Y91.957 E261.42204
G0 F3600 X98.140 Y92.302
G1 F3000 X99.683 Y90.758 E261.47635
G0 F3600 X99.119 Y90.758
G1 F3000 X97.027 Y92.850 E261.54997
G0 F3600 X97.426 Y90.758
G1 F3000 X90.597 Y97.587 E261.79028
G0 F3600 X90.597 Y98.152
G1 F3000 X97.990 Y90.758 E262.05045
G0 F3600 X98.555 Y90.758
G1 F3000 X94.868 Y94.444 E262.18018
G0 F3600 X94.528 Y94.784
G1 F3000 X90.597 Y98.716 E262.31852
G0 F3600 X90.597 Y99.280
G1 F3000 X92.846 Y97.031 E262.39767
G0 F3600 X92.298 Y98.143
G1 F3000 X91.039 Y99.402 E262.44197
G0 F3600 X91.604 Y99.402
G1 F3000 X91.953 Y99.052 E262.45427
G0 F3600 X90.190 Y99.951
G0 X89.978 Y103.879
G0 X91.067 Y107.783
G0 X92.523 Y110.142
G0 X94.172 Y109.812
G1 F3000 X93.349 Y110.635 E262.48323
G0 F3600 X93.631 Y110.917
G1 F3000 X94.442 Y110.106 E262.51177
G0 F3600 X94.713 Y110.399
G1 F3000 X93.913 Y111.199 E262.53992
G0 F3600 X94.195 Y111.481
G1 F3000 X95.004 Y110.672 E262.56839
G0 F3600 X95.299 Y110.942
G1 F3000 X94.477 Y111.763 E262.59730
G0 F3600 X94.760 Y112.046
G1 F3000 X95.612 Y111.193 E262.62729
G0 F3600 X95.931 Y111.439
G1 F3000 X95.042 Y112.328 E262.65858
G0 F3600 X95.324 Y112.610
G1 F3000 X96.263 Y111.671 E262.69162
G0 F3600 X96.604 Y111.893
G1 F3000 X95.606 Y112.892 E262.72676
G0 F3600 X95.888 Y113.174
G1 F3000 X96.955 Y112.107 E262.76430
G0 F3600 X97.321 Y112.306
G1 F3000 X96.170 Y113.456 E262.80479
G0 F3600 X96.452 Y113.738
G1 F3000 X97.692 Y112.499 E262.84841
G0 F3600 X98.082 Y112.673
G1 F3000 X96.735 Y114.020 E262.89581
G0 F3600 X97.079 Y114.240
G1 F3000 X98.482 Y112.837 E262.94518
G0 F3600 X98.853 Y113.031
G1 F3000 X97.643 Y114.240 E262.98774
G0 F3600 X98.207 Y114.240
G1 F3000 X98.853 Y113.595 E263.01046
G0 F3600 X98.853 Y114.159
G1 F3000 X98.772 Y114.240 E263.01331
;LAYER:8
M117 Nb = 9 / 55
M106 S201
G0 F3600 X99.012 Y112.929 Z1.460
;TYPE:WALL-INNER
G1 F2100 X99.695 Y113.133 E263.03104
G1 X100.385 Y113.291 E263.04866
G1 X101.084 Y113.405 E263.06628
G1 X101.791 Y113.473 E263.08395
G1 X102.498 Y113.496 E263.10155
G1 X103.199 Y113.476 E263.11900
G1 X103.905 Y113.407 E263.13665
G1 X104.605 Y113.294 E263.15430
G1 X105.296 Y113.136 E263.17194
G1 X105.966 Y112.936 E263.18933
G1 X106.642 Y112.687 E263.20726
G1 X107.299 Y112.394 E263.22516
G1 X107.937 Y112.059 E263.24309
G1 X108.552 Y111.682 E263.26104
G1 X109.140 Y111.265 E263.27898
G1 X109.700 Y110.812 E263.29690
G1 X110.229 Y110.323 E263.31482
G1 X110.726 Y109.798 E263.33281
G1 X111.185 Y109.244 E263.35071
G1 X111.608 Y108.662 E263.36862
G1 X111.992 Y108.051 E263.38657
G1 X112.336 Y107.418 E263.40450
G1 X112.638 Y106.762 E263.42247
G1 X112.894 Y106.089 E263.44039
G1 X113.077 Y105.497 E263.45580
G1 X114.503 Y105.497 E263.49129
G1 X114.503 Y107.925 E263.55170
G1 X108.087 Y114.341 E263.77748
G1 X96.913 Y114.341 E264.05552
G1 X92.965 Y110.393 E264.19445
G1 X94.105 Y109.595 E264.22907
G1 X94.347 Y109.878 E264.23834
G1 X94.834 Y110.383 E264.25579
G1 X95.354 Y110.858 E264.27332
G1 X95.904 Y111.299 E264.29086
G1 X96.482 Y111.704 E264.30842
G1 X97.083 Y112.070 E264.32593
G1 X97.707 Y112.397 E264.34346
G1 X98.350 Y112.684 E264.36098
G1 X99.012 Y112.929 E264.37855
G0 F3600 X92.523 Y110.142
G0 X90.697 Y107.934
G1 F2100 X90.884 Y108.312 E264.38904
G1 X90.497 Y107.925 E264.40266
G1 X90.497 Y107.465 E264.41410
G1 X90.697 Y107.934 E264.42679
G0 F3600 X89.902 Y102.448
G0 X90.190 Y99.951
G0 X90.497 Y99.503
G1 F2100 X90.497 Y97.075 E264.48721
G1 X96.913 Y90.659 E264.71298
G1 X108.087 Y90.659 E264.99102
G1 X112.035 Y94.607 E265.12995
G1 X110.897 Y95.404 E265.16452
G1 X110.556 Y95.014 E265.17741
G1 X110.091 Y94.543 E265.19388
G1 X109.598 Y94.100 E265.21037
G1 X109.076 Y93.686 E265.22695
G1 X108.471 Y93.265 E265.24529
G1 X107.836 Y92.885 E265.26370
G1 X107.179 Y92.548 E265.28208
G1 X106.499 Y92.256 E265.30049
G1 X105.801 Y92.010 E265.31891
G1 X105.101 Y91.816 E265.33698
G1 X104.376 Y91.664 E265.35541
G1 X103.642 Y91.564 E265.37385
G1 X102.906 Y91.511 E265.39221
G1 X102.166 Y91.508 E265.41062
G1 X101.427 Y91.556 E265.42905
G1 X100.692 Y91.652 E265.44749
G1 X99.966 Y91.800 E265.46593
G1 X99.253 Y91.994 E265.48431
G1 X98.537 Y92.242 E265.50317
G1 X97.875 Y92.524 E265.52107
G1 X97.214 Y92.858 E265.53950
G1 X96.556 Y93.249 E265.55855
G1 X95.938 Y93.676 E265.57724
G1 X95.416 Y94.090 E265.59382
G1 X94.922 Y94.532 E265.61031
G1 X94.455 Y95.002 E265.62680
G1 X94.016 Y95.503 E265.64337
G1 X93.611 Y96.028 E265.65987
G1 X93.235 Y96.576 E265.67641
G1 X92.890 Y97.154 E265.69316
G1 X92.580 Y97.753 E265.70994
G1 X92.308 Y98.370 E265.72672
G1 X92.075 Y99.001 E265.74345
G1 X91.924 Y99.503 E265.75650
G1 X90.497 Y99.503 E265.79201
G0 F3600 X96.773 Y93.583
G0 X100.059 Y92.188
G0 X103.600 Y91.961
G0 X107.009 Y92.909
G0 X110.264 Y95.286
G0 X112.477 Y94.858
G0 X114.303 Y97.066
G1 F2100 X114.116 Y96.688 E265.80250
G1 X114.503 Y97.075 E265.81612
G1 X114.503 Y97.535 E265.82756
G1 X114.303 Y97.066 E265.84025
G0 F3600 X113.940 Y97.233
G1 F2100 X113.631 Y96.607 E265.85762
G1 X113.287 Y95.998 E265.87503
G1 X112.494 Y94.772 E265.91136
G1 X110.820 Y95.944 E265.96221
G1 X110.264 Y95.286 E265.98364
G1 X109.815 Y94.832 E265.99953
G1 X109.340 Y94.405 E266.01542
G1 X108.838 Y94.007 E266.03136
G1 X108.254 Y93.601 E266.04906
G1 X107.642 Y93.234 E266.06682
G1 X107.009 Y92.910 E266.08451
G1 X106.354 Y92.628 E266.10226
G1 X105.681 Y92.391 E266.12001
G1 X105.006 Y92.204 E266.13744
G1 X104.308 Y92.057 E266.15519
G1 X103.601 Y91.961 E266.17294
G1 X102.891 Y91.910 E266.19065
G1 X102.178 Y91.907 E266.20840
G1 X101.466 Y91.954 E266.22615
G1 X100.758 Y92.046 E266.24392
G1 X100.059 Y92.188 E266.26166
G1 X99.371 Y92.375 E266.27940
G1 X98.681 Y92.615 E266.29758
G1 X98.035 Y92.889 E266.31504
G1 X97.399 Y93.212 E266.33279
G1 X96.773 Y93.584 E266.35091
G1 X96.176 Y93.997 E266.36897
G1 X95.673 Y94.395 E266.38493
G1 X95.197 Y94.821 E266.40083
G1 X94.747 Y95.275 E266.41674
G1 X94.324 Y95.757 E266.43269
G1 X93.933 Y96.263 E266.44860
G1 X93.571 Y96.792 E266.46455
G1 X93.239 Y97.348 E266.48067
G1 X92.940 Y97.926 E266.49686
G1 X92.678 Y98.520 E266.51301
G1 X92.454 Y99.128 E266.52914
G1 X92.266 Y99.749 E266.54528
G1 X92.230 Y99.902 E266.54919
G1 X90.148 Y99.902 E266.60100
G1 X90.098 Y100.258 E266.60994
G1 X90.098 Y96.910 E266.69325
G1 X96.748 Y90.260 E266.92726
G1 X108.252 Y90.260 E267.21351
G1 X114.902 Y96.910 E267.44752
G1 X114.902 Y100.300 E267.53188
G1 X114.786 Y99.716 E267.54669
G1 X114.653 Y99.195 E267.56007
G1 X114.453 Y98.530 E267.57735
G1 X114.214 Y97.875 E267.59470
G1 X113.940 Y97.233 E267.61207
G0 F3600 X115.023 Y101.134
G0 X115.020 Y103.902
G0 X114.852 Y105.098
G1 F2100 X114.902 Y104.742 E267.62101
G1 X114.902 Y108.090 E267.70432
G1 X108.252 Y114.740 E267.93833
G1 X96.748 Y114.740 E268.22458
G1 X90.098 Y108.090 E268.45859
G1 X90.098 Y104.700 E268.54294
G1 X90.214 Y105.284 E268.55776
G1 X90.347 Y105.805 E268.57114
G1 X90.547 Y106.470 E268.58842
G1 X90.786 Y107.125 E268.60577
G1 X91.060 Y107.767 E268.62314
G1 X91.369 Y108.393 E268.64051
G1 X91.713 Y109.002 E268.65791
G1 X92.506 Y110.228 E268.69424
G1 X94.177 Y109.057 E268.74501
G1 X94.225 Y109.121 E268.74701
G1 X94.642 Y109.609 E268.76298
G1 X95.113 Y110.097 E268.77985
G1 X95.614 Y110.554 E268.79673
G1 X96.144 Y110.980 E268.81365
G1 X96.700 Y111.370 E268.83055
G1 X97.279 Y111.723 E268.84742
G1 X97.881 Y112.038 E268.86433
G1 X98.501 Y112.314 E268.88121
G1 X99.138 Y112.550 E268.89812
G1 X99.797 Y112.747 E268.91523
G1 X100.462 Y112.899 E268.93220
G1 X101.136 Y113.009 E268.94920
G1 X101.816 Y113.075 E268.96620
G1 X102.498 Y113.097 E268.98318
G1 X103.174 Y113.077 E269.00000
G1 X103.854 Y113.011 E269.01700
G1 X104.529 Y112.902 E269.03402
G1 X105.194 Y112.750 E269.05099
G1 X105.840 Y112.558 E269.06776
G1 X106.492 Y112.317 E269.08506
G1 X107.125 Y112.034 E269.10231
G1 X107.740 Y111.712 E269.11958
G1 X108.333 Y111.348 E269.13690
G1 X108.899 Y110.947 E269.15416
G1 X109.439 Y110.510 E269.17144
G1 X109.949 Y110.039 E269.18872
G1 X110.427 Y109.534 E269.20602
G1 X110.870 Y108.999 E269.22330
G1 X111.278 Y108.438 E269.24056
G1 X111.647 Y107.849 E269.25786
G1 X111.979 Y107.239 E269.27514
G1 X112.270 Y106.608 E269.29243
G1 X112.517 Y105.959 E269.30971
G1 X112.722 Y105.295 E269.32700
G1 X112.769 Y105.098 E269.33204
G1 X114.852 Y105.098 E269.38387
G0 F3600 X112.706 Y104.932
G0 X112.454 Y104.699
;TYPE:WALL-OUTER
G1 F1860 X114.505 Y104.699 E269.43490
G1 X114.623 Y103.858 E269.45603
G1 X114.677 Y103.215 E269.47209
G1 X114.699 Y102.500 E269.48989
G1 X114.680 Y101.820 E269.50682
G1 X114.626 Y101.177 E269.52287
G1 X114.528 Y100.467 E269.54071
G1 X114.397 Y99.804 E269.55752
G1 X114.269 Y99.303 E269.57039
G1 X114.074 Y98.656 E269.58720
G1 X113.843 Y98.022 E269.60399
G1 X113.578 Y97.400 E269.62082
G1 X113.278 Y96.794 E269.63764
G1 X112.945 Y96.205 E269.65448
G1 X112.384 Y95.337 E269.68020
G1 X110.734 Y96.492 E269.73031
G1 X110.377 Y96.021 E269.74502
G1 X109.972 Y95.558 E269.76032
G1 X109.539 Y95.121 E269.77563
G1 X109.082 Y94.710 E269.79093
G1 X108.600 Y94.327 E269.80624
G1 X108.037 Y93.936 E269.82330
G1 X107.449 Y93.583 E269.84037
G1 X106.839 Y93.271 E269.85741
G1 X106.208 Y93.000 E269.87450
G1 X105.562 Y92.772 E269.89155
G1 X104.912 Y92.592 E269.90833
G1 X104.240 Y92.451 E269.92542
G1 X103.560 Y92.358 E269.94249
G1 X102.876 Y92.309 E269.95956
G1 X102.190 Y92.306 E269.97663
G1 X101.505 Y92.351 E269.99371
G1 X100.823 Y92.440 E270.01082
G1 X100.151 Y92.576 E270.02788
G1 X99.489 Y92.757 E270.04496
G1 X98.824 Y92.987 E270.06247
G1 X98.195 Y93.255 E270.07948
G1 X97.584 Y93.566 E270.09654
G1 X96.989 Y93.920 E270.11377
G1 X96.414 Y94.318 E270.13117
G1 X95.930 Y94.701 E270.14653
G1 X95.472 Y95.111 E270.16182
G1 X95.038 Y95.547 E270.17713
G1 X94.632 Y96.010 E270.19245
G1 X94.256 Y96.498 E270.20778
G1 X93.907 Y97.007 E270.22314
G1 X93.588 Y97.542 E270.23864
G1 X93.300 Y98.098 E270.25422
G1 X93.048 Y98.669 E270.26975
G1 X92.832 Y99.255 E270.28529
G1 X92.652 Y99.852 E270.30080
G1 X92.545 Y100.301 E270.31229
G1 X90.495 Y100.301 E270.36330
G1 X90.377 Y101.142 E270.38443
G1 X90.323 Y101.785 E270.40049
G1 X90.301 Y102.500 E270.41828
G1 X90.320 Y103.180 E270.43521
G1 X90.374 Y103.823 E270.45127
G1 X90.472 Y104.533 E270.46910
G1 X90.603 Y105.196 E270.48592
G1 X90.731 Y105.697 E270.49878
G1 X90.926 Y106.344 E270.51560
G1 X91.157 Y106.978 E270.53239
G1 X91.422 Y107.600 E270.54921
G1 X91.722 Y108.206 E270.56604
G1 X92.055 Y108.795 E270.58287
G1 X92.616 Y109.663 E270.60859
G1 X94.265 Y108.508 E270.65869
G1 X94.938 Y109.341 E270.68533
G1 X95.391 Y109.811 E270.70158
G1 X95.874 Y110.251 E270.71783
G1 X96.384 Y110.660 E270.73410
G1 X96.919 Y111.036 E270.75037
G1 X97.476 Y111.375 E270.76660
G1 X98.055 Y111.678 E270.78286
G1 X98.652 Y111.944 E270.79912
G1 X99.265 Y112.172 E270.81539
G1 X99.898 Y112.361 E270.83183
G1 X100.539 Y112.507 E270.84819
G1 X101.187 Y112.613 E270.86453
G1 X101.842 Y112.677 E270.88090
G1 X102.499 Y112.698 E270.89726
G1 X103.149 Y112.679 E270.91344
G1 X103.802 Y112.615 E270.92977
G1 X104.452 Y112.510 E270.94615
G1 X105.093 Y112.364 E270.96251
G1 X105.714 Y112.179 E270.97863
G1 X106.341 Y111.947 E270.99527
G1 X106.951 Y111.675 E271.01189
G1 X107.542 Y111.365 E271.02849
G1 X108.113 Y111.015 E271.04516
G1 X108.658 Y110.629 E271.06178
G1 X109.177 Y110.209 E271.07839
G1 X109.668 Y109.755 E271.09503
G1 X110.128 Y109.269 E271.11168
G1 X110.554 Y108.754 E271.12831
G1 X110.947 Y108.215 E271.14491
G1 X111.303 Y107.648 E271.16157
G1 X111.622 Y107.060 E271.17821
G1 X111.902 Y106.453 E271.19485
G1 X112.139 Y105.829 E271.21145
G1 X112.337 Y105.190 E271.22810
G1 X112.454 Y104.699 E271.24066
G0 F3600 X112.706 Y104.932
G0 X115.001 Y108.163
G0 X115.301 Y108.255
G1 F1860 X108.417 Y115.139 E271.48290
G1 X96.583 Y115.139 E271.77737
G1 X89.699 Y108.255 E272.01961
G1 X89.699 Y96.745 E272.30601
G1 X96.583 Y89.861 E272.54826
G1 X108.417 Y89.861 E272.84272
G1 X115.301 Y96.745 E273.08496
G1 X115.301 Y108.255 E273.37136
G0 F3600 X115.001 Y108.163
G0 X112.805 Y109.479
;TYPE:FILL
G1 F2340 X111.826 Y108.500 E273.40581
G0 F3600 X108.502 Y111.828
G1 F2340 X109.479 Y112.805 E273.44019
G0 F3600 X104.261 Y114.240
G1 F2340 X103.561 Y113.540 E273.46483
G0 F3600 X102.613 Y113.591
G1 F2340 X101.964 Y114.240 E273.48766
G0 F3600 X97.609 Y114.240
G1 F2340 X93.505 Y110.136 E273.63208
G0 F3600 X96.133 Y113.419
G1 F2340 X97.272 Y112.280 E273.67216
G0 F3600 X92.523 Y110.142
G0 X90.547 Y106.470
G0 X89.902 Y102.448
G0 X90.190 Y99.951
G0 X90.597 Y98.997
G1 F2340 X93.319 Y96.275 E273.76795
G0 F3600 X93.169 Y96.495
G1 F2340 X92.193 Y95.519 E273.80229
G0 F3600 X96.274 Y93.320
G1 F2340 X98.836 Y90.758 E273.89245
G0 F3600 X96.494 Y93.168
G1 F2340 X95.519 Y92.193 E273.92676
G0 F3600 X100.737 Y90.758
G1 F2340 X101.434 Y91.455 E273.95129
G0 F3600 X104.631 Y91.616
G1 F2340 X105.489 Y90.758 E273.98148
G0 F3600 X107.389 Y90.758
G1 F2340 X111.493 Y94.861 E274.12588
G0 F3600 X110.092 Y92.807
G1 F2340 X109.223 Y93.676 E274.15646
;LAYER:9
M117 Nb = 10 / 55
G0 F3600 X109.076 Y93.687 Z1.610
;TYPE:WALL-INNER
G1 F2100 X108.472 Y93.266 E274.17478
G1 X107.839 Y92.886 E274.19315
G1 X107.182 Y92.549 E274.21152
G1 X106.501 Y92.257 E274.22996
G1 X105.806 Y92.013 E274.24829
G1 X105.112 Y91.818 E274.26623
G1 X104.387 Y91.666 E274.28466
G1 X103.654 Y91.565 E274.30307
G1 X102.919 Y91.512 E274.32141
G1 X102.179 Y91.508 E274.33982
G1 X101.441 Y91.555 E274.35822
G1 X100.708 Y91.650 E274.37661
G1 X99.982 Y91.795 E274.39503
G1 X99.268 Y91.989 E274.41344
G1 X98.546 Y92.239 E274.43246
G1 X97.864 Y92.528 E274.45089
G1 X97.203 Y92.863 E274.46933
G1 X96.567 Y93.242 E274.48775
G1 X95.948 Y93.669 E274.50646
G1 X95.424 Y94.083 E274.52308
G1 X94.929 Y94.525 E274.53959
G1 X94.461 Y94.997 E274.55613
G1 X94.022 Y95.497 E274.57268
G1 X93.614 Y96.022 E274.58923
G1 X93.238 Y96.573 E274.60583
G1 X92.892 Y97.151 E274.62259
G1 X92.583 Y97.750 E274.63936
G1 X92.310 Y98.366 E274.65613
G1 X92.075 Y98.999 E274.67293
G1 X91.924 Y99.503 E274.68602
G1 X90.497 Y99.503 E274.72153
G1 X90.497 Y97.075 E274.78194
G1 X96.913 Y90.659 E275.00772
G1 X108.087 Y90.659 E275.28576
G1 X112.035 Y94.607 E275.42469
G1 X110.896 Y95.404 E275.45928
G1 X110.557 Y95.016 E275.47210
G1 X110.091 Y94.544 E275.48860
G1 X109.598 Y94.101 E275.50509
G1 X109.076 Y93.687 E275.52167
G0 F3600 X112.473 Y94.860
G0 X114.233 Y96.911
G1 F2100 X114.122 Y96.694 E275.52774
G1 X114.503 Y97.075 E275.54114
G1 X114.503 Y97.520 E275.55222
G1 X114.233 Y96.911 E275.56879
G0 F3600 X115.096 Y102.571
G0 X114.810 Y105.049
G0 X113.077 Y105.497
G1 F2100 X114.503 Y105.497 E275.60427
G1 X114.503 Y107.925 E275.66469
G1 X108.087 Y114.341 E275.89047
G1 X96.913 Y114.341 E276.16851
G1 X92.965 Y110.393 E276.30743
G1 X94.107 Y109.594 E276.34211
G1 X94.826 Y110.374 E276.36851
G1 X95.347 Y110.850 E276.38607
G1 X95.896 Y111.292 E276.40361
G1 X96.474 Y111.698 E276.42118
G1 X97.076 Y112.066 E276.43874
G1 X97.701 Y112.393 E276.45629
G1 X98.345 Y112.682 E276.47386
G1 X99.007 Y112.927 E276.49142
G1 X99.690 Y113.131 E276.50916
G1 X100.382 Y113.291 E276.52683
G1 X101.084 Y113.405 E276.54453
G1 X101.790 Y113.473 E276.56218
G1 X102.498 Y113.496 E276.57980
G1 X103.184 Y113.476 E276.59688
G1 X103.890 Y113.409 E276.61452
G1 X104.591 Y113.296 E276.63219
G1 X105.284 Y113.139 E276.64987
G1 X105.955 Y112.940 E276.66729
G1 X106.632 Y112.691 E276.68524
G1 X107.290 Y112.398 E276.70316
G1 X107.929 Y112.064 E276.72110
G1 X108.546 Y111.686 E276.73911
G1 X109.134 Y111.269 E276.75704
G1 X109.694 Y110.817 E276.77495
G1 X110.225 Y110.327 E276.79293
G1 X110.721 Y109.803 E276.81088
G1 X111.178 Y109.254 E276.82866
G1 X111.606 Y108.665 E276.84677
G1 X111.991 Y108.054 E276.86474
G1 X112.334 Y107.421 E276.88266
G1 X112.636 Y106.765 E276.90063
G1 X112.894 Y106.090 E276.91861
G1 X113.077 Y105.497 E276.93405
G0 F3600 X109.944 Y110.043
G0 X107.117 Y112.039
G0 X103.159 Y113.077
G0 X99.134 Y112.549
G0 X95.606 Y110.547
G0 X92.527 Y110.140
G0 X90.767 Y108.089
G1 F2100 X90.878 Y108.306 E276.94012
G1 X90.497 Y107.925 E276.95352
G1 X90.497 Y107.480 E276.96460
G1 X90.767 Y108.089 E276.98117
G0 F3600 X91.127 Y107.917
G1 F2100 X91.445 Y108.540 E276.99858
G1 X91.796 Y109.143 E277.01594
G1 X92.511 Y110.224 E277.04819
G1 X94.177 Y109.058 E277.09879
G1 X94.634 Y109.599 E277.11641
G1 X95.104 Y110.088 E277.13328
G1 X95.607 Y110.547 E277.15023
G1 X96.136 Y110.973 E277.16713
G1 X96.693 Y111.364 E277.18406
G1 X97.273 Y111.719 E277.20098
G1 X97.875 Y112.034 E277.21789
G1 X98.496 Y112.312 E277.23482
G1 X99.134 Y112.548 E277.25175
G1 X99.792 Y112.745 E277.26884
G1 X100.459 Y112.899 E277.28587
G1 X101.135 Y113.009 E277.30291
G1 X101.815 Y113.075 E277.31991
G1 X102.498 Y113.097 E277.33691
G1 X103.159 Y113.077 E277.35337
G1 X103.840 Y113.013 E277.37039
G1 X104.516 Y112.904 E277.38743
G1 X105.182 Y112.753 E277.40442
G1 X105.829 Y112.561 E277.42121
G1 X106.482 Y112.321 E277.43852
G1 X107.117 Y112.039 E277.45581
G1 X107.732 Y111.716 E277.47310
G1 X108.326 Y111.353 E277.49042
G1 X108.893 Y110.951 E277.50771
G1 X109.433 Y110.515 E277.52498
G1 X109.944 Y110.043 E277.54229
G1 X110.422 Y109.538 E277.55960
G1 X110.864 Y109.007 E277.57679
G1 X110.906 Y108.951 E277.57853
G1 X111.276 Y108.441 E277.59421
G1 X111.646 Y107.852 E277.61151
G1 X111.977 Y107.242 E277.62878
G1 X112.268 Y106.610 E277.64610
G1 X112.517 Y105.960 E277.66342
G1 X112.722 Y105.296 E277.68071
G1 X112.769 Y105.098 E277.68577
G1 X114.852 Y105.098 E277.73760
G1 X114.902 Y104.742 E277.74655
G1 X114.902 Y108.090 E277.82985
G1 X108.252 Y114.740 E278.06386
G1 X96.748 Y114.740 E278.35012
G1 X90.098 Y108.090 E278.58413
G1 X90.098 Y104.700 E278.66848
G1 X90.214 Y105.284 E278.68329
G1 X90.387 Y105.961 E278.70068
G1 X90.598 Y106.626 E278.71804
G1 X90.844 Y107.279 E278.73540
G1 X91.127 Y107.917 E278.75277
G0 F3600 X89.975 Y103.851
G0 X90.148 Y99.902
G1 F2100 X90.098 Y100.258 E278.76172
G1 X90.098 Y96.910 E278.84502
G1 X96.748 Y90.260 E279.07903
G1 X108.252 Y90.260 E279.36528
G1 X114.902 Y96.910 E279.59930
G1 X114.902 Y100.300 E279.68365
G1 X114.786 Y99.716 E279.69846
G1 X114.613 Y99.039 E279.71585
G1 X114.402 Y98.374 E279.73321
G1 X114.156 Y97.721 E279.75057
G1 X113.873 Y97.083 E279.76794
G1 X113.555 Y96.460 E279.78534
G1 X113.204 Y95.857 E279.80271
G1 X112.489 Y94.776 E279.83496
G1 X110.820 Y95.944 E279.88564
G1 X110.689 Y95.772 E279.89102
G1 X110.265 Y95.288 E279.90703
G1 X109.816 Y94.833 E279.92294
G1 X109.340 Y94.406 E279.93885
G1 X108.838 Y94.007 E279.95481
G1 X108.255 Y93.602 E279.97247
G1 X107.645 Y93.235 E279.99019
G1 X107.012 Y92.911 E280.00788
G1 X106.356 Y92.629 E280.02565
G1 X105.686 Y92.393 E280.04332
G1 X105.017 Y92.206 E280.06061
G1 X104.318 Y92.059 E280.07838
G1 X103.612 Y91.962 E280.09611
G1 X102.903 Y91.911 E280.11380
G1 X102.191 Y91.907 E280.13152
G1 X101.480 Y91.952 E280.14924
G1 X100.773 Y92.044 E280.16698
G1 X100.074 Y92.184 E280.18472
G1 X99.386 Y92.370 E280.20246
G1 X98.689 Y92.612 E280.22082
G1 X98.032 Y92.890 E280.23857
G1 X97.395 Y93.213 E280.25634
G1 X96.783 Y93.578 E280.27407
G1 X96.185 Y93.990 E280.29214
G1 X95.681 Y94.389 E280.30813
G1 X95.203 Y94.815 E280.32407
G1 X94.753 Y95.270 E280.33999
G1 X94.330 Y95.751 E280.35593
G1 X93.937 Y96.258 E280.37189
G1 X93.574 Y96.788 E280.38787
G1 X93.241 Y97.345 E280.40402
G1 X92.943 Y97.922 E280.42018
G1 X92.680 Y98.516 E280.43635
G1 X92.454 Y99.126 E280.45253
G1 X92.266 Y99.749 E280.46872
G1 X92.230 Y99.902 E280.47264
G1 X90.148 Y99.902 E280.52444
G0 F3600 X92.293 Y100.069
G0 X92.545 Y100.301
;TYPE:WALL-OUTER
G1 F1860 X90.495 Y100.301 E280.57545
G1 X90.377 Y101.142 E280.59658
G1 X90.325 Y101.771 E280.61229
G1 X90.303 Y102.443 E280.62902
G1 X90.301 Y102.499 E280.63041
G1 X90.318 Y103.131 E280.64614
G1 X90.372 Y103.808 E280.66304
G1 X90.472 Y104.533 E280.68125
G1 X90.603 Y105.196 E280.69807
G1 X90.771 Y105.851 E280.71489
G1 X90.975 Y106.495 E280.73170
G1 X91.214 Y107.127 E280.74852
G1 X91.487 Y107.746 E280.76535
G1 X91.795 Y108.348 E280.78218
G1 X92.135 Y108.932 E280.79899
G1 X92.618 Y109.662 E280.82077
G1 X94.265 Y108.509 E280.87080
G1 X94.507 Y108.833 E280.88086
G1 X94.930 Y109.331 E280.89712
G1 X95.383 Y109.803 E280.91340
G1 X95.866 Y110.244 E280.92967
G1 X96.376 Y110.654 E280.94595
G1 X96.912 Y111.030 E280.96225
G1 X97.470 Y111.371 E280.97852
G1 X98.049 Y111.675 E280.99479
G1 X98.647 Y111.942 E281.01109
G1 X99.261 Y112.170 E281.02738
G1 X99.894 Y112.359 E281.04382
G1 X100.536 Y112.507 E281.06022
G1 X101.186 Y112.613 E281.07660
G1 X101.841 Y112.677 E281.09298
G1 X102.499 Y112.698 E281.10936
G1 X103.134 Y112.679 E281.12517
G1 X103.789 Y112.617 E281.14154
G1 X104.440 Y112.512 E281.15795
G1 X105.081 Y112.367 E281.17430
G1 X105.704 Y112.182 E281.19047
G1 X106.332 Y111.952 E281.20711
G1 X106.943 Y111.679 E281.22376
G1 X107.535 Y111.369 E281.24039
G1 X108.107 Y111.019 E281.25708
G1 X108.652 Y110.633 E281.27370
G1 X109.172 Y110.213 E281.29033
G1 X109.664 Y109.759 E281.30699
G1 X110.124 Y109.273 E281.32364
G1 X110.551 Y108.759 E281.34026
G1 X110.945 Y108.218 E281.35692
G1 X111.302 Y107.651 E281.37359
G1 X111.620 Y107.063 E281.39022
G1 X111.901 Y106.455 E281.40689
G1 X112.139 Y105.830 E281.42353
G1 X112.337 Y105.191 E281.44018
G1 X112.454 Y104.699 E281.45276
G1 X114.505 Y104.699 E281.50379
G1 X114.623 Y103.858 E281.52493
G1 X114.675 Y103.229 E281.54063
G1 X114.697 Y102.557 E281.55736
G1 X114.699 Y102.501 E281.55875
G1 X114.682 Y101.869 E281.57449
G1 X114.628 Y101.192 E281.59139
G1 X114.528 Y100.467 E281.60960
G1 X114.397 Y99.804 E281.62641
G1 X114.229 Y99.149 E281.64324
G1 X114.025 Y98.505 E281.66005
