;Gcode generated by Cura by Dagoma 2.2.1
;Printer: DiscoEasy200
;Object Name : Battery_Lid.stl
;Date: 18-11-2022
;Time: 23:21:30
;Print duration: 9 min
;Layer height: 0.15 mm
;Filling: 33.0 %
;Print speed: 50.0 mm/s
;Support: Everywhere
;Adhesion improvement: Nothing
;Filament:
;- Material: Other PLA type Generic
;- Temperature: 215.0 °C
;- Flow: 100.0 %
;- Retraction amount: 3.5 mm
;- Retraction speed: 50.0 mm/s
;- Length: 0.46 m
;- Weight: 1 g
;- Cost: 0.06 EUR
D131 E1 ;Disable filrunout 2, just in case the user has a bicolor printer
G90 ;absolute positioning
M106 S255 ;fan on for the sensor
G28 X Y
G1 X50
M109 R90 ;wait for cool down
G28
;Sensor activation
;No Sensor
M104 S215 ;start the heater
M107 ;start with the fan off
G1 X100 Y20 Z0.5 F3000
M109 S215
M82 ;set extruder to absolute mode
G92 E0 ;zero the extruded length
G1 F200 E10 ;extrude 10mm of feed stock
G92 E0 ;zero the extruded length again
G1 E-3.5 F5000 ;filament retract length
G1 F240 Z3
G1 F3600

;Layer count: 46
;LAYER:0
M117 Nb = 1 / 46
M107
G1 F3000 E-3.50000
G0 F3600 X93.850 Y94.330 Z0.260
;TYPE:WALL-INNER
G1 F3000 E0.00000
G1 F1020 X94.358 Y93.822 E0.03106
G1 X94.886 Y93.355 E0.06154
G1 X95.467 Y92.902 E0.09340
G1 X96.047 Y92.503 E0.12384
G1 X96.667 Y92.129 E0.15514
G1 X97.314 Y91.790 E0.18673
G1 X97.727 Y91.605 E0.20629
G1 X97.301 Y91.941 E0.22975
G1 X96.916 Y92.322 E0.25317
G1 X96.580 Y92.732 E0.27609
G1 X96.320 Y93.114 E0.29607
G1 X96.034 Y93.677 E0.32338
G1 X95.844 Y94.186 E0.34687
G1 X95.713 Y94.698 E0.36972
G1 X95.639 Y95.143 E0.38922
G1 X95.608 Y95.693 E0.41304
G1 X95.652 Y96.324 E0.44039
G1 X95.751 Y96.857 E0.46383
G1 X95.903 Y97.367 E0.48684
G1 X96.071 Y97.786 E0.50636
G1 X96.327 Y98.270 E0.53004
G1 X96.701 Y98.805 E0.55826
G1 X97.353 Y99.484 E0.59896
G1 X97.803 Y99.826 E0.62340
G1 X98.267 Y100.105 E0.64681
G1 X98.765 Y100.336 E0.67055
G1 X99.357 Y100.525 E0.69742
G1 X99.800 Y100.622 E0.71703
G1 X100.346 Y100.682 E0.74078
G1 X100.978 Y100.672 E0.76811
G1 X101.506 Y100.603 E0.79113
G1 X102.191 Y100.455 E0.82143
G1 X102.431 Y100.433 E0.83185
G1 X102.734 Y100.448 E0.84497
G1 X103.167 Y100.543 E0.86414
G1 X103.465 Y100.673 E0.87819
G1 X103.623 Y100.763 E0.88606
G1 X103.819 Y100.907 E0.89657
G1 X104.036 Y101.120 E0.90972
G1 X104.191 Y101.315 E0.92049
G1 X104.319 Y101.525 E0.93112
G1 X104.430 Y101.766 E0.94260
G1 X104.667 Y102.462 E0.97439
G1 X104.894 Y102.953 E0.99778
G1 X105.178 Y103.422 E1.02148
G1 X105.568 Y103.918 E1.04876
G1 X105.942 Y104.297 E1.07179
G1 X106.285 Y104.590 E1.09129
G1 X106.741 Y104.899 E1.11511
G1 X107.303 Y105.184 E1.14236
G1 X107.811 Y105.376 E1.16584
G1 X108.325 Y105.507 E1.18877
G1 X108.771 Y105.582 E1.20833
G1 X109.320 Y105.611 E1.23210
G1 X109.949 Y105.568 E1.25936
G1 X110.484 Y105.468 E1.28289
G1 X110.993 Y105.316 E1.30586
G1 X111.420 Y105.146 E1.32573
G1 X111.973 Y104.842 E1.35302
G1 X112.432 Y104.516 E1.37736
G1 X113.115 Y103.862 E1.41825
G1 X113.498 Y103.343 E1.44614
G1 X113.732 Y102.955 E1.46573
G1 X113.963 Y102.455 E1.48954
G1 X114.151 Y101.862 E1.51644
G1 X114.248 Y101.420 E1.53601
G1 X114.296 Y100.981 E1.55510
G1 X114.352 Y101.439 E1.57505
G1 X114.394 Y102.152 E1.60593
G1 X114.393 Y102.873 E1.63711
G1 X114.350 Y103.580 E1.66773
G1 X114.259 Y104.321 E1.70001
G1 X114.131 Y105.012 E1.73040
G1 X113.959 Y105.704 E1.76123
G1 X113.747 Y106.384 E1.79203
G1 X113.483 Y107.076 E1.82405
G1 X113.194 Y107.718 E1.85450
G1 X112.857 Y108.358 E1.88577
G1 X112.481 Y108.979 E1.91716
G1 X112.078 Y109.560 E1.94773
G1 X111.632 Y110.128 E1.97896
G1 X111.152 Y110.668 E2.01020
G1 X110.646 Y111.174 E2.04114
G1 X110.114 Y111.645 E2.07186
G1 X109.533 Y112.098 E2.10371
G1 X108.953 Y112.497 E2.13415
G1 X108.333 Y112.871 E2.16546
G1 X107.686 Y113.210 E2.19704
G1 X107.254 Y113.403 E2.21750
G1 X107.608 Y113.134 E2.23673
G1 X108.001 Y112.764 E2.26007
G1 X108.354 Y112.350 E2.28359
G1 X108.658 Y111.903 E2.30696
G1 X108.917 Y111.418 E2.33074
G1 X109.137 Y110.838 E2.35756
G1 X109.260 Y110.403 E2.37710
G1 X109.349 Y109.867 E2.40060
G1 X109.380 Y109.317 E2.42442
G1 X109.337 Y108.688 E2.45168
G1 X109.239 Y108.154 E2.47515
G1 X109.088 Y107.645 E2.49811
G1 X108.920 Y107.225 E2.51767
G1 X108.665 Y106.740 E2.54136
G1 X108.292 Y106.206 E2.56952
G1 X107.642 Y105.526 E2.61020
G1 X107.193 Y105.182 E2.63465
G1 X106.728 Y104.902 E2.65812
G1 X106.231 Y104.671 E2.68182
G1 X105.641 Y104.481 E2.70862
G1 X105.197 Y104.382 E2.72829
G1 X104.658 Y104.323 E2.75173
G1 X104.108 Y104.322 E2.77552
G1 X103.493 Y104.398 E2.80231
G1 X102.800 Y104.547 E2.83296
G1 X102.570 Y104.567 E2.84294
G1 X102.259 Y104.551 E2.85640
G1 X101.832 Y104.457 E2.87531
G1 X101.386 Y104.242 E2.89672
G1 X101.136 Y104.050 E2.91035
G1 X100.809 Y103.685 E2.93154
G1 X100.678 Y103.472 E2.94235
G1 X100.571 Y103.238 E2.95347
G1 X100.333 Y102.538 E2.98544
G1 X100.106 Y102.047 E3.00883
G1 X99.822 Y101.578 E3.03254
G1 X99.432 Y101.082 E3.05982
G1 X99.058 Y100.703 E3.08284
G1 X98.715 Y100.410 E3.10235
G1 X98.259 Y100.101 E3.12616
G1 X97.697 Y99.816 E3.15341
G1 X97.189 Y99.624 E3.17689
G1 X96.675 Y99.493 E3.19983
G1 X96.229 Y99.418 E3.21938
G1 X95.680 Y99.389 E3.24315
G1 X95.051 Y99.432 E3.27041
G1 X94.516 Y99.532 E3.29395
G1 X94.007 Y99.684 E3.31691
G1 X93.580 Y99.854 E3.33679
G1 X93.027 Y100.158 E3.36407
G1 X92.568 Y100.484 E3.38841
G1 X91.885 Y101.138 E3.42930
G1 X91.502 Y101.657 E3.45719
G1 X91.268 Y102.045 E3.47678
G1 X91.037 Y102.545 E3.50060
G1 X90.849 Y103.138 E3.52750
G1 X90.752 Y103.580 E3.54706
G1 X90.704 Y104.019 E3.56616
G1 X90.648 Y103.556 E3.58632
G1 X90.606 Y102.844 E3.61716
G1 X90.607 Y102.124 E3.64829
G1 X90.651 Y101.418 E3.67888
G1 X90.741 Y100.679 E3.71107
G1 X90.869 Y99.987 E3.74149
G1 X91.042 Y99.291 E3.77250
G1 X91.253 Y98.616 E3.80308
G1 X91.517 Y97.924 E3.83511
G1 X91.808 Y97.277 E3.86578
G1 X92.143 Y96.642 E3.89682
G1 X92.519 Y96.021 E3.92821
G1 X92.922 Y95.440 E3.95879
G1 X93.371 Y94.868 E3.99023
G1 X93.850 Y94.330 E4.02137
G0 F3600 X93.559 Y94.055
G1 F1020 X94.076 Y93.538 E4.05299
G1 X94.632 Y93.046 E4.08509
G1 X95.223 Y92.584 E4.11752
G1 X95.839 Y92.161 E4.14983
G1 X96.472 Y91.779 E4.18180
G1 X97.137 Y91.432 E4.21423
G1 X97.809 Y91.130 E4.24609
G1 X98.498 Y90.870 E4.27793
G1 X99.208 Y90.650 E4.31007
G1 X99.945 Y90.469 E4.34288
G1 X100.654 Y90.340 E4.37404
G1 X101.408 Y90.250 E4.40688
G1 X102.145 Y90.206 E4.43880
G1 X102.885 Y90.207 E4.47079
G1 X103.623 Y90.253 E4.50277
G1 X104.374 Y90.345 E4.53548
G1 X105.099 Y90.478 E4.56735
G1 X105.808 Y90.655 E4.59895
G1 X106.530 Y90.881 E4.63166
G1 X107.226 Y91.145 E4.66385
G1 X107.891 Y91.445 E4.69539
G1 X108.561 Y91.798 E4.72813
G1 X109.189 Y92.179 E4.75989
G1 X109.805 Y92.606 E4.79230
G1 X110.376 Y93.053 E4.82366
G1 X110.945 Y93.559 E4.85658
G1 X111.462 Y94.076 E4.88819
G1 X111.950 Y94.628 E4.92005
G1 X112.416 Y95.223 E4.95273
G1 X112.839 Y95.839 E4.98504
G1 X113.221 Y96.472 E5.01701
G1 X113.568 Y97.137 E5.04944
G1 X113.870 Y97.809 E5.08129
G1 X114.127 Y98.490 E5.11277
G1 X114.348 Y99.200 E5.14492
G1 X114.533 Y99.952 E5.17840
G1 X114.659 Y100.648 E5.20899
G1 X114.750 Y101.403 E5.24187
G1 X114.794 Y102.145 E5.27401
G1 X114.793 Y102.885 E5.30600
G1 X114.748 Y103.616 E5.33767
G1 X114.655 Y104.374 E5.37069
G1 X114.522 Y105.099 E5.40256
G1 X114.346 Y105.805 E5.43402
G1 X114.119 Y106.530 E5.46687
G1 X113.855 Y107.226 E5.49905
G1 X113.558 Y107.886 E5.53035
G1 X113.202 Y108.561 E5.56334
G1 X112.821 Y109.189 E5.59510
G1 X112.394 Y109.805 E5.62751
G1 X111.947 Y110.376 E5.65887
G1 X111.441 Y110.945 E5.69179
G1 X110.924 Y111.462 E5.72340
G1 X110.371 Y111.951 E5.75532
G1 X109.777 Y112.416 E5.78794
G1 X109.161 Y112.839 E5.82025
G1 X108.528 Y113.221 E5.85222
G1 X107.863 Y113.568 E5.88465
G1 X107.191 Y113.870 E5.91650
G1 X106.502 Y114.130 E5.94835
G1 X105.792 Y114.350 E5.98049
G1 X105.055 Y114.531 E6.01330
G1 X104.346 Y114.660 E6.04446
G1 X103.592 Y114.750 E6.07729
G1 X102.855 Y114.794 E6.10921
G1 X102.115 Y114.793 E6.14121
G1 X101.377 Y114.747 E6.17318
G1 X100.626 Y114.655 E6.20590
G1 X99.901 Y114.522 E6.23777
G1 X99.192 Y114.345 E6.26936
G1 X98.470 Y114.119 E6.30208
G1 X97.774 Y113.855 E6.33426
G1 X97.109 Y113.555 E6.36581
G1 X96.439 Y113.202 E6.39855
G1 X95.811 Y112.821 E6.43031
G1 X95.195 Y112.394 E6.46272
G1 X94.616 Y111.940 E6.49453
G1 X94.055 Y111.441 E6.52700
G1 X93.538 Y110.924 E6.55861
G1 X93.046 Y110.368 E6.59071
G1 X92.584 Y109.777 E6.62315
G1 X92.161 Y109.161 E6.65545
G1 X91.779 Y108.528 E6.68742
G1 X91.432 Y107.863 E6.71985
G1 X91.130 Y107.191 E6.75171
G1 X90.870 Y106.502 E6.78355
G1 X90.650 Y105.792 E6.81569
G1 X90.467 Y105.048 E6.84882
G1 X90.340 Y104.346 E6.87966
G1 X90.250 Y103.592 E6.91250
G1 X90.206 Y102.855 E6.94442
G1 X90.207 Y102.115 E6.97642
G1 X90.253 Y101.377 E7.00839
G1 X90.345 Y100.626 E7.04110
G1 X90.478 Y99.901 E7.07297
G1 X90.657 Y99.184 E7.10493
G1 X90.881 Y98.470 E7.13728
G1 X91.145 Y97.774 E7.16947
G1 X91.445 Y97.109 E7.20101
G1 X91.798 Y96.439 E7.23376
G1 X92.179 Y95.811 E7.26552
G1 X92.606 Y95.195 E7.29793
G1 X93.060 Y94.616 E7.32974
G1 X93.559 Y94.055 E7.36220
G0 F3600 X96.104 Y94.780
G1 F1020 X96.037 Y95.187 E7.38004
G1 X96.009 Y95.690 E7.40182
G1 X96.050 Y96.273 E7.42709
G1 X96.141 Y96.764 E7.44868
G1 X96.281 Y97.235 E7.46993
G1 X96.435 Y97.618 E7.48778
G1 X96.669 Y98.061 E7.50944
G1 X97.011 Y98.550 E7.53524
G1 X97.620 Y99.184 E7.57325
G1 X98.028 Y99.494 E7.59541
G1 X98.455 Y99.751 E7.61696
G1 X98.911 Y99.962 E7.63868
G1 X99.461 Y100.138 E7.66365
G1 X99.865 Y100.227 E7.68154
G1 X100.365 Y100.282 E7.70329
G1 X100.949 Y100.272 E7.72854
G1 X101.437 Y100.209 E7.74982
G1 X102.127 Y100.059 E7.78035
G1 X102.429 Y100.032 E7.79346
G1 X102.777 Y100.049 E7.80852
G1 X103.077 Y100.102 E7.82170
G1 X103.306 Y100.167 E7.83199
G1 X103.637 Y100.311 E7.84760
G1 X103.843 Y100.429 E7.85786
G1 X104.081 Y100.604 E7.87063
G1 X104.332 Y100.850 E7.88583
G1 X104.519 Y101.085 E7.89881
G1 X104.675 Y101.340 E7.91174
G1 X104.802 Y101.617 E7.92492
G1 X105.039 Y102.313 E7.95671
G1 X105.248 Y102.765 E7.97824
G1 X105.507 Y103.195 E7.99994
G1 X105.868 Y103.653 E8.02516
G1 X106.214 Y104.004 E8.04647
G1 X106.528 Y104.271 E8.06429
G1 X106.944 Y104.554 E8.08604
G1 X107.464 Y104.818 E8.11126
G1 X107.931 Y104.994 E8.13284
G1 X108.407 Y105.116 E8.15409
G1 X108.815 Y105.183 E8.17196
G1 X109.317 Y105.210 E8.19370
G1 X109.898 Y105.170 E8.21888
G1 X110.390 Y105.079 E8.24051
G1 X110.862 Y104.938 E8.26181
G1 X111.249 Y104.784 E8.27982
G1 X111.760 Y104.502 E8.30506
G1 X112.177 Y104.207 E8.32715
G1 X112.813 Y103.597 E8.36525
G1 X113.165 Y103.120 E8.39088
G1 X113.378 Y102.767 E8.40871
G1 X113.589 Y102.310 E8.43047
G1 X113.764 Y101.759 E8.45547
G1 X113.853 Y101.355 E8.47336
G1 X113.908 Y100.856 E8.49506
G1 X113.898 Y100.273 E8.52027
G1 X113.834 Y99.766 E8.54237
G1 X113.531 Y98.689 E8.59075
G1 X113.314 Y98.120 E8.61708
G1 X113.019 Y97.452 E8.64865
G1 X112.682 Y96.802 E8.68031
G1 X112.303 Y96.173 E8.71206
G1 X111.887 Y95.570 E8.74374
G1 X111.432 Y94.996 E8.77541
G1 X110.943 Y94.449 E8.80713
G1 X110.422 Y93.935 E8.83877
G1 X109.870 Y93.455 E8.87040
G1 X109.286 Y93.009 E8.90218
G1 X108.677 Y92.602 E8.93385
G1 X108.043 Y92.234 E8.96554
G1 X107.387 Y91.906 E8.99726
G1 X106.712 Y91.619 E9.02897
G1 X106.036 Y91.382 E9.05994
G1 X105.893 Y91.333 E9.06648
G1 X105.312 Y91.177 E9.09249
G1 X104.599 Y91.023 E9.12403
G1 X103.874 Y90.914 E9.15573
G1 X103.144 Y90.851 E9.18741
G1 X102.428 Y90.833 E9.21838
G1 X102.276 Y90.831 E9.22495
G1 X101.676 Y90.862 E9.25093
G1 X100.950 Y90.935 E9.28248
G1 X100.226 Y91.056 E9.31422
G1 X99.377 Y91.254 E9.35191
G1 X98.909 Y91.412 E9.37327
G1 X98.457 Y91.621 E9.39480
G1 X98.025 Y91.880 E9.41658
G1 X97.566 Y92.242 E9.44186
G1 X97.212 Y92.591 E9.46335
G1 X96.901 Y92.972 E9.48462
G1 X96.665 Y93.318 E9.50272
G1 X96.401 Y93.838 E9.52794
G1 X96.226 Y94.306 E9.54954
G1 X96.104 Y94.780 E9.57071
G0 F3600 X95.683 Y99.790
G1 F1020 X95.102 Y99.830 E9.59589
G1 X94.610 Y99.921 E9.61752
G1 X94.138 Y100.062 E9.63882
G1 X93.751 Y100.216 E9.65683
G1 X93.240 Y100.498 E9.68207
G1 X92.823 Y100.793 E9.70415
G1 X92.187 Y101.403 E9.74226
G1 X91.835 Y101.880 E9.76789
G1 X91.622 Y102.233 E9.78572
G1 X91.411 Y102.690 E9.80748
G1 X91.236 Y103.241 E9.83248
G1 X91.147 Y103.645 E9.85036
G1 X91.092 Y104.144 E9.87207
G1 X91.102 Y104.727 E9.89728
G1 X91.166 Y105.234 E9.91938
G1 X91.469 Y106.311 E9.96775
G1 X91.686 Y106.878 E9.99400
G1 X91.980 Y107.545 E10.02552
G1 X92.317 Y108.195 E10.05718
G1 X92.694 Y108.822 E10.08881
G1 X93.110 Y109.425 E10.12049
G1 X93.563 Y110.001 E10.15217
G1 X94.051 Y110.547 E10.18383
G1 X94.573 Y111.061 E10.21551
G1 X95.113 Y111.530 E10.24644
G1 X95.710 Y111.988 E10.27897
G1 X96.303 Y112.384 E10.30980
G1 X96.952 Y112.763 E10.34230
G1 X97.603 Y113.089 E10.37378
G1 X98.260 Y113.369 E10.40466
G1 X98.954 Y113.614 E10.43648
G1 X99.675 Y113.820 E10.46890
G1 X100.387 Y113.974 E10.50040
G1 X101.111 Y114.084 E10.53206
G1 X101.840 Y114.148 E10.56370
G1 X102.556 Y114.167 E10.59467
G1 X102.707 Y114.169 E10.60120
G1 X103.307 Y114.141 E10.62717
G1 X104.032 Y114.067 E10.65869
G1 X104.755 Y113.948 E10.69037
G1 X105.604 Y113.751 E10.72805
G1 X106.077 Y113.592 E10.74963
G1 X106.597 Y113.342 E10.77458
G1 X106.952 Y113.130 E10.79245
G1 X107.349 Y112.828 E10.81402
G1 X107.711 Y112.487 E10.83552
G1 X108.036 Y112.107 E10.85714
G1 X108.315 Y111.696 E10.87862
G1 X108.552 Y111.252 E10.90038
G1 X108.757 Y110.712 E10.92536
G1 X108.869 Y110.315 E10.94319
G1 X108.951 Y109.823 E10.96476
G1 X108.979 Y109.320 E10.98654
G1 X108.939 Y108.738 E11.01177
G1 X108.849 Y108.247 E11.03335
G1 X108.709 Y107.776 E11.05460
G1 X108.557 Y107.392 E11.07245
G1 X108.322 Y106.948 E11.09418
G1 X107.982 Y106.460 E11.11989
G1 X107.374 Y105.825 E11.15790
G1 X106.967 Y105.513 E11.18008
G1 X106.540 Y105.256 E11.20163
G1 X106.085 Y105.044 E11.22333
G1 X105.536 Y104.867 E11.24827
G1 X105.131 Y104.777 E11.26621
G1 X104.635 Y104.723 E11.28778
G1 X104.133 Y104.722 E11.30949
G1 X103.560 Y104.793 E11.33445
G1 X102.863 Y104.942 E11.36527
G1 X102.569 Y104.968 E11.37803
G1 X102.218 Y104.950 E11.39323
G1 X101.695 Y104.834 E11.41639
G1 X101.166 Y104.577 E11.44182
G1 X100.876 Y104.354 E11.45764
G1 X100.663 Y104.143 E11.47060
G1 X100.480 Y103.915 E11.48324
G1 X100.322 Y103.657 E11.49633
G1 X100.199 Y103.388 E11.50912
G1 X99.961 Y102.687 E11.54112
G1 X99.752 Y102.235 E11.56266
G1 X99.493 Y101.805 E11.58436
G1 X99.132 Y101.347 E11.60958
G1 X98.786 Y100.996 E11.63089
G1 X98.472 Y100.729 E11.64871
G1 X98.056 Y100.446 E11.67046
G1 X97.536 Y100.182 E11.69568
G1 X97.069 Y100.006 E11.71726
G1 X96.593 Y99.884 E11.73850
G1 X96.185 Y99.817 E11.75638
G1 X95.683 Y99.790 E11.77812
G0 F3600 X95.686 Y100.191
;TYPE:WALL-OUTER
G1 F1020 X95.152 Y100.227 E11.80126
G1 X94.704 Y100.310 E11.82096
G1 X94.270 Y100.440 E11.84055
G1 X93.922 Y100.579 E11.85675
G1 X93.453 Y100.837 E11.87990
G1 X93.078 Y101.102 E11.89975
G1 X92.488 Y101.668 E11.93510
G1 X92.168 Y102.102 E11.95842
G1 X91.976 Y102.421 E11.97452
G1 X91.784 Y102.835 E11.99425
G1 X91.623 Y103.345 E12.01737
G1 X91.542 Y103.710 E12.03354
G1 X91.493 Y104.163 E12.05324
G1 X91.501 Y104.698 E12.07637
G1 X91.559 Y105.154 E12.09625
G1 X91.849 Y106.185 E12.14256
G1 X92.056 Y106.726 E12.16760
G1 X92.341 Y107.372 E12.19813
G1 X92.666 Y108.000 E12.22871
G1 X93.031 Y108.605 E12.25926
G1 X93.432 Y109.188 E12.28985
G1 X93.870 Y109.744 E12.32046
G1 X94.341 Y110.271 E12.35102
G1 X94.845 Y110.767 E12.38159
G1 X95.374 Y111.227 E12.41190
G1 X95.941 Y111.661 E12.44278
G1 X96.524 Y112.051 E12.47311
G1 X97.140 Y112.410 E12.50393
G1 X97.771 Y112.726 E12.53445
G1 X98.542 Y113.053 E12.57066
G1 X99.084 Y113.236 E12.59539
G1 X99.770 Y113.431 E12.62623
G1 X100.460 Y113.581 E12.65676
G1 X101.158 Y113.687 E12.68729
G1 X101.863 Y113.749 E12.71789
G1 X102.564 Y113.767 E12.74821
G1 X102.700 Y113.769 E12.75409
G1 X103.277 Y113.742 E12.77906
G1 X103.979 Y113.670 E12.80958
G1 X104.677 Y113.555 E12.84016
G1 X105.495 Y113.366 E12.87646
G1 X105.926 Y113.221 E12.89613
G1 X106.408 Y112.989 E12.91926
G1 X106.728 Y112.798 E12.93537
G1 X107.090 Y112.523 E12.95502
G1 X107.421 Y112.211 E12.97469
G1 X107.717 Y111.864 E12.99441
G1 X107.972 Y111.489 E13.01402
G1 X108.187 Y111.086 E13.03377
G1 X108.377 Y110.587 E13.05686
G1 X108.478 Y110.228 E13.07298
G1 X108.553 Y109.779 E13.09267
G1 X108.578 Y109.323 E13.11241
G1 X108.542 Y108.788 E13.13560
G1 X108.460 Y108.340 E13.15529
G1 X108.331 Y107.907 E13.17482
G1 X108.193 Y107.560 E13.19097
G1 X107.980 Y107.157 E13.21068
G1 X107.671 Y106.714 E13.23403
G1 X107.107 Y106.124 E13.26933
G1 X106.742 Y105.844 E13.28922
G1 X106.352 Y105.609 E13.30890
G1 X105.939 Y105.417 E13.32860
G1 X105.431 Y105.254 E13.35166
G1 X105.066 Y105.172 E13.36784
G1 X104.613 Y105.123 E13.38754
G1 X104.157 Y105.122 E13.40726
G1 X103.627 Y105.188 E13.43035
G1 X102.918 Y105.340 E13.46170
G1 X102.584 Y105.369 E13.47620
G1 X102.169 Y105.348 E13.49417
G1 X101.824 Y105.287 E13.50931
G1 X101.560 Y105.212 E13.52118
G1 X101.185 Y105.048 E13.53888
G1 X100.941 Y104.909 E13.55102
G1 X100.611 Y104.655 E13.56903
G1 X100.366 Y104.413 E13.58392
G1 X100.152 Y104.145 E13.59874
G1 X99.970 Y103.848 E13.61381
G1 X99.824 Y103.529 E13.62897
G1 X99.589 Y102.836 E13.66061
G1 X99.398 Y102.423 E13.68029
G1 X99.163 Y102.033 E13.69998
G1 X98.831 Y101.612 E13.72316
G1 X98.513 Y101.289 E13.74276
G1 X98.229 Y101.048 E13.75886
G1 X97.852 Y100.791 E13.77859
G1 X97.374 Y100.549 E13.80176
G1 X96.948 Y100.388 E13.82145
G1 X96.510 Y100.276 E13.84100
G1 X96.142 Y100.215 E13.85712
G1 X95.686 Y100.191 E13.87687
G0 F3600 X95.701 Y99.891
G0 X97.075 Y98.467
G0 X97.321 Y98.295
G1 F1020 X97.887 Y98.885 E13.91222
G1 X98.253 Y99.163 E13.93209
G1 X98.642 Y99.397 E13.95172
G1 X99.056 Y99.589 E13.97145
G1 X99.565 Y99.751 E13.99455
G1 X99.930 Y99.832 E14.01071
G1 X100.384 Y99.881 E14.03046
G1 X100.920 Y99.873 E14.05364
G1 X101.369 Y99.814 E14.07322
G1 X102.069 Y99.662 E14.10419
G1 X102.413 Y99.632 E14.11912
G1 X102.827 Y99.651 E14.13704
G1 X103.166 Y99.712 E14.15193
G1 X103.442 Y99.790 E14.16433
G1 X103.812 Y99.951 E14.18178
G1 X104.061 Y100.092 E14.19415
G1 X104.339 Y100.297 E14.20909
G1 X104.632 Y100.585 E14.22685
G1 X104.847 Y100.855 E14.24178
G1 X105.027 Y101.148 E14.25664
G1 X105.178 Y101.477 E14.27230
G1 X105.411 Y102.164 E14.30366
G1 X105.602 Y102.577 E14.32334
G1 X105.837 Y102.967 E14.34303
G1 X106.169 Y103.388 E14.36621
G1 X106.487 Y103.711 E14.38581
G1 X106.771 Y103.952 E14.40191
G1 X107.148 Y104.209 E14.42164
G1 X107.626 Y104.451 E14.44481
G1 X108.052 Y104.612 E14.46450
G1 X108.490 Y104.724 E14.48404
G1 X108.858 Y104.785 E14.50017
G1 X109.314 Y104.809 E14.51992
G1 X109.848 Y104.773 E14.54306
G1 X110.296 Y104.690 E14.56276
G1 X110.730 Y104.560 E14.58235
G1 X111.078 Y104.421 E14.59855
G1 X111.547 Y104.163 E14.62169
G1 X111.922 Y103.898 E14.64155
G1 X112.512 Y103.332 E14.67690
G1 X112.832 Y102.898 E14.70022
G1 X113.024 Y102.579 E14.71631
G1 X113.216 Y102.165 E14.73605
G1 X113.377 Y101.655 E14.75917
G1 X113.458 Y101.290 E14.77534
G1 X113.507 Y100.837 E14.79504
G1 X113.499 Y100.302 E14.81817
G1 X113.441 Y99.846 E14.83805
G1 X113.151 Y98.814 E14.88440
G1 X112.944 Y98.272 E14.90948
G1 X112.658 Y97.625 E14.94007
G1 X112.333 Y96.997 E14.97064
G1 X111.967 Y96.390 E15.00129
G1 X111.565 Y95.808 E15.03188
G1 X111.126 Y95.253 E15.06247
G1 X110.654 Y94.725 E15.09309
G1 X110.150 Y94.229 E15.12367
G1 X109.617 Y93.765 E15.15422
G1 X109.053 Y93.334 E15.18492
G1 X108.465 Y92.941 E15.21550
G1 X107.853 Y92.586 E15.24609
G1 X107.219 Y92.269 E15.27674
G1 X106.567 Y91.992 E15.30737
G1 X105.905 Y91.760 E15.33770
G1 X105.218 Y91.566 E15.36856
G1 X104.527 Y91.417 E15.39913
G1 X103.827 Y91.311 E15.42974
G1 X103.122 Y91.250 E15.46034
G1 X102.420 Y91.233 E15.49070
G1 X102.283 Y91.231 E15.49662
G1 X101.707 Y91.261 E15.52156
G1 X101.003 Y91.332 E15.55216
G1 X100.305 Y91.449 E15.58276
G1 X99.486 Y91.639 E15.61911
G1 X99.057 Y91.784 E15.63869
G1 X98.644 Y91.975 E15.65836
G1 X98.252 Y92.210 E15.67813
G1 X97.831 Y92.542 E15.70131
G1 X97.508 Y92.861 E15.72094
G1 X97.222 Y93.211 E15.74048
G1 X97.010 Y93.522 E15.75675
G1 X96.768 Y93.999 E15.77988
G1 X96.608 Y94.426 E15.79960
G1 X96.496 Y94.863 E15.81910
G1 X96.435 Y95.231 E15.83523
G1 X96.410 Y95.687 E15.85498
G1 X96.447 Y96.222 E15.87817
G1 X96.530 Y96.670 E15.89787
G1 X96.659 Y97.103 E15.91740
G1 X96.798 Y97.449 E15.93352
G1 X97.011 Y97.852 E15.95323
G1 X97.321 Y98.295 E15.97661
G0 F3600 X97.075 Y98.467
G0 X92.980 Y94.554
G0 X92.750 Y94.362
G1 F1020 X93.268 Y93.780 E16.01030
G1 X93.802 Y93.246 E16.04295
G1 X94.377 Y92.738 E16.07613
G1 X94.991 Y92.258 E16.10983
G1 X95.623 Y91.824 E16.14298
G1 X96.271 Y91.433 E16.17570
G1 X96.961 Y91.072 E16.20937
G1 X97.650 Y90.763 E16.24202
G1 X98.375 Y90.490 E16.27552
G1 X99.106 Y90.262 E16.30863
G1 X99.845 Y90.081 E16.34152
G1 X100.603 Y89.944 E16.37483
G1 X101.368 Y89.852 E16.40814
G1 X102.139 Y89.806 E16.44154
G1 X102.894 Y89.807 E16.47418
G1 X103.663 Y89.855 E16.50750
G1 X104.430 Y89.949 E16.54091
G1 X105.187 Y90.088 E16.57419
G1 X105.919 Y90.270 E16.60680
G1 X106.663 Y90.503 E16.64051
G1 X107.380 Y90.776 E16.67369
G1 X108.069 Y91.086 E16.70635
G1 X108.747 Y91.443 E16.73949
G1 X109.413 Y91.847 E16.77317
G1 X110.044 Y92.284 E16.80635
G1 X110.638 Y92.750 E16.83900
G1 X111.220 Y93.268 E16.87269
G1 X111.754 Y93.802 E16.90534
G1 X112.262 Y94.377 E16.93851
G1 X112.742 Y94.991 E16.97221
G1 X113.176 Y95.623 E17.00536
G1 X113.567 Y96.271 E17.03808
G1 X113.928 Y96.961 E17.07176
G1 X114.237 Y97.650 E17.10441
G1 X114.512 Y98.379 E17.13809
G1 X114.736 Y99.100 E17.17074
G1 X114.919 Y99.845 E17.20391
G1 X115.056 Y100.600 E17.23709
G1 X115.148 Y101.361 E17.27023
G1 X115.194 Y102.139 E17.30393
G1 X115.193 Y102.894 E17.33657
G1 X115.146 Y103.659 E17.36971
G1 X115.052 Y104.424 E17.40304
G1 X114.912 Y105.187 E17.43658
G1 X114.730 Y105.919 E17.46919
G1 X114.498 Y106.660 E17.50277
G1 X114.224 Y107.380 E17.53608
G1 X113.914 Y108.069 E17.56874
G1 X113.557 Y108.747 E17.60188
G1 X113.153 Y109.413 E17.63556
G1 X112.716 Y110.043 E17.66871
G1 X112.250 Y110.638 E17.70139
G1 X111.732 Y111.220 E17.73507
G1 X111.198 Y111.754 E17.76773
G1 X110.623 Y112.262 E17.80090
G1 X110.010 Y112.741 E17.83454
G1 X109.377 Y113.176 E17.86775
G1 X108.729 Y113.567 E17.90047
G1 X108.040 Y113.928 E17.93411
G1 X107.350 Y114.237 E17.96679
G1 X106.625 Y114.510 E18.00029
G1 X105.894 Y114.738 E18.03340
G1 X105.155 Y114.919 E18.06630
G1 X104.397 Y115.056 E18.09960
G1 X103.632 Y115.148 E18.13292
G1 X102.861 Y115.194 E18.16631
G1 X102.106 Y115.193 E18.19896
G1 X101.337 Y115.145 E18.23227
G1 X100.570 Y115.051 E18.26569
G1 X99.813 Y114.912 E18.29896
G1 X99.081 Y114.730 E18.33158
G1 X98.337 Y114.497 E18.36529
G1 X97.620 Y114.224 E18.39846
G1 X96.930 Y113.914 E18.43117
G1 X96.250 Y113.555 E18.46442
G1 X95.587 Y113.153 E18.49794
G1 X94.956 Y112.716 E18.53113
G1 X94.361 Y112.249 E18.56383
G1 X93.780 Y111.732 E18.59746
G1 X93.246 Y111.198 E18.63011
G1 X92.738 Y110.623 E18.66329
G1 X92.258 Y110.009 E18.69699
G1 X91.824 Y109.377 E18.73014
G1 X91.433 Y108.729 E18.76286
G1 X91.072 Y108.039 E18.79653
G1 X90.763 Y107.350 E18.82918
G1 X90.488 Y106.621 E18.86287
G1 X90.261 Y105.889 E18.89601
G1 X90.081 Y105.154 E18.92873
G1 X89.944 Y104.397 E18.96199
G1 X89.851 Y103.627 E18.99552
G1 X89.806 Y102.861 E19.02870
G1 X89.807 Y102.106 E19.06135
G1 X89.854 Y101.341 E19.09449
G1 X89.949 Y100.567 E19.12820
G1 X90.088 Y99.813 E19.16135
G1 X90.270 Y99.081 E19.19397
G1 X90.503 Y98.337 E19.22768
G1 X90.776 Y97.620 E19.26085
G1 X91.086 Y96.931 E19.29352
G1 X91.443 Y96.253 E19.32665
G1 X91.847 Y95.587 E19.36033
G1 X92.284 Y94.956 E19.39352
G1 X92.750 Y94.362 E19.42616
G0 F3600 X93.479 Y94.893
;TYPE:SKIN
G1 F1020 X95.733 Y97.147 E19.56399
G0 F3600 X95.567 Y96.416
G1 F1020 X93.746 Y94.594 E19.67537
G0 F3600 X94.019 Y94.301
G1 F1020 X95.515 Y95.798 E19.76688
G0 F3600 X95.532 Y95.250
G1 F1020 X94.301 Y94.019 E19.84215
G0 F3600 X94.595 Y93.746
G1 F1020 X95.602 Y94.753 E19.90373
G0 F3600 X95.711 Y94.297
G1 F1020 X94.895 Y93.480 E19.95365
G0 F3600 X95.209 Y93.229
G1 F1020 X95.853 Y93.874 E19.99306
G0 F3600 X96.022 Y93.477
G1 F1020 X95.694 Y92.866 E20.02335
G1 X96.325 Y92.931 E20.04467
G1 X96.378 Y92.418 E20.05906
G1 X96.686 Y92.444 E20.07242
G0 F3600 X93.229 Y95.209
G1 F1020 X96.129 Y98.108 E20.24972
G0 F3600 X96.204 Y99.315
G1 F1020 X92.750 Y95.861 E20.46093
G0 F3600 X92.982 Y95.528
G1 F1020 X96.901 Y99.447 E20.70056
G0 F3600 X95.614 Y99.291
G1 F1020 X92.524 Y96.201 E20.88951
G0 F3600 X92.312 Y96.554
G1 F1020 X95.085 Y99.327 E21.05908
G0 F3600 X94.603 Y99.412
G1 F1020 X92.109 Y96.918 E21.21158
G0 F3600 X91.913 Y97.287
G1 F1020 X94.159 Y99.533 E21.34892
G0 F3600 X93.741 Y99.681
G1 F1020 X91.737 Y97.676 E21.47149
G0 F3600 X91.566 Y98.072
G1 F1020 X93.356 Y99.861 E21.58091
G0 F3600 X92.990 Y100.061
G1 F1020 X91.410 Y98.481 E21.67753
G0 F3600 X91.266 Y98.903
G1 F1020 X92.658 Y100.295 E21.76264
G0 F3600 X92.349 Y100.551
G1 F1020 X91.133 Y99.335 E21.83700
G0 F3600 X91.020 Y99.789
G1 F1020 X92.060 Y100.828 E21.90056
G0 F3600 X91.778 Y101.112
G1 F1020 X90.920 Y100.254 E21.95303
G0 F3600 X90.834 Y100.734
G1 F1020 X91.539 Y101.438 E21.99611
G0 F3600 X91.312 Y101.778
G1 F1020 X90.750 Y101.498 E22.02916
G1 X91.024 Y102.337 E22.05254
G1 X90.706 Y102.302 E22.06637
G0 F3600 X94.139 Y100.063
G0 X96.592 Y99.885
G0 X99.274 Y100.689
G1 F1020 X102.989 Y104.403 E22.29350
G0 F3600 X103.454 Y104.303
G1 F1020 X99.883 Y100.731 E22.51189
G0 F3600 X100.496 Y100.778
G1 F1020 X103.956 Y104.238 E22.72347
G0 F3600 X104.505 Y104.222
G1 F1020 X101.046 Y100.764 E22.93495
G0 F3600 X101.545 Y100.696
G1 F1020 X105.120 Y104.272 E23.15358
G0 F3600 X105.732 Y104.318
G1 F1020 X102.010 Y100.596 E23.38117
G0 F3600 X102.519 Y100.539
G1 F1020 X104.654 Y102.674 E23.51172
G0 F3600 X104.324 Y101.778
G1 F1020 X103.220 Y100.675 E23.57920
G0 F3600 X100.344 Y102.324
G1 F1020 X102.480 Y104.460 E23.70981
G0 F3600 X101.768 Y104.313
G1 F1020 X100.671 Y103.217 E23.77686
G0 F3600 X108.098 Y105.552
G1 F1020 X112.017 Y109.471 E24.01650
G0 F3600 X111.770 Y109.790
G1 F1020 X108.841 Y106.861 E24.19560
G0 F3600 X109.246 Y107.832
G1 F1020 X111.519 Y110.105 E24.33459
G0 F3600 X111.253 Y110.404
G1 F1020 X109.416 Y108.567 E24.44692
G0 F3600 X109.470 Y109.187
G1 F1020 X110.980 Y110.697 E24.53926
G0 F3600 X110.697 Y110.980
G1 F1020 X109.456 Y109.739 E24.61514
G0 F3600 X109.388 Y110.236
G1 F1020 X110.403 Y111.251 E24.67721
G0 F3600 X110.103 Y111.517
G1 F1020 X109.281 Y110.695 E24.72747
G0 F3600 X109.136 Y111.116
G1 F1020 X109.789 Y111.769 E24.76740
G0 F3600 X109.472 Y112.017
G1 F1020 X108.875 Y111.704 E24.79778
G1 X108.966 Y112.360 E24.81969
G1 X108.432 Y112.392 E24.83449
G1 X108.444 Y112.687 E24.84726
G0 F3600 X112.248 Y109.137
G1 F1020 X108.794 Y105.682 E25.05849
G0 F3600 X109.383 Y105.706
G1 F1020 X112.473 Y108.796 E25.24744
G0 F3600 X112.687 Y108.444
G1 F1020 X109.914 Y105.671 E25.41701
G0 F3600 X110.395 Y105.587
G1 F1020 X112.889 Y108.081 E25.56951
G0 F3600 X113.084 Y107.710
G1 F1020 X110.840 Y105.466 E25.70672
G0 F3600 X111.257 Y105.317
G1 F1020 X113.262 Y107.322 E25.82933
G0 F3600 X113.432 Y106.927
G1 F1020 X111.642 Y105.137 E25.93878
G0 F3600 X112.008 Y104.937
G1 F1020 X113.588 Y106.517 E26.03540
G0 F3600 X113.731 Y106.095
G1 F1020 X112.340 Y104.704 E26.12045
G0 F3600 X112.649 Y104.447
G1 F1020 X113.865 Y105.662 E26.19478
G0 F3600 X113.978 Y105.210
G1 F1020 X112.939 Y104.170 E26.25834
G0 F3600 X113.220 Y103.886
G1 F1020 X114.078 Y104.744 E26.31081
G0 F3600 X114.163 Y104.264
G1 F1020 X113.460 Y103.560 E26.35382
G0 F3600 X113.686 Y103.221
G1 F1020 X114.248 Y103.500 E26.38679
G1 X113.974 Y102.660 E26.41019
G1 X114.293 Y102.696 E26.42407
G1 F3000 E22.92407
G0 F3600 X112.749 Y102.641
;TYPE:SUPPORT
G1 F3000 E26.42407
G1 F1020 X105.876 Y102.641 E26.72124
G0 F3600 X105.307 Y101.271
G1 F1020 X105.307 Y91.799 E27.13079
G0 F3600 X105.913 Y91.977
G1 F1020 X99.123 Y91.977 E27.42438
G0 F3600 X99.975 Y91.733
G1 F1020 X99.975 Y99.633 E27.76596
G0 F3600 X100.096 Y98.845
G0 X97.963 Y97.470
G0 X97.309 Y97.926
G1 F1020 X97.309 Y93.441 E27.95989
G0 F3600 X96.760 Y94.643
G1 F1020 X110.282 Y94.643 E28.54455
G0 F3600 X110.639 Y95.013
G1 F1020 X110.639 Y104.377 E28.94944
G0 F3600 X110.394 Y103.616
G0 X108.259 Y103.622
G0 X107.973 Y104.366
G1 F1020 X107.973 Y92.890 E29.44564
G0 F3600 X107.572 Y93.579
G0 X102.621 Y92.238
G0 X102.641 Y91.441
G1 F1020 X102.641 Y99.440 E29.79150
G0 F3600 X102.681 Y98.644
G0 X104.307 Y98.967
G0 X104.715 Y99.333
G0 X104.241 Y99.975
G1 F1020 X113.255 Y99.975 E30.18125
G0 F3600 X112.462 Y100.075
G0 X111.559 Y97.676
G0 X112.267 Y97.309
G1 F1020 X96.959 Y97.309 E30.84314
G1 F3000 E27.34314
G0 F3600 X97.309 Y100.743
G1 F3000 E30.84314
G1 F1020 X97.309 Y112.267 E31.34141
G0 F3600 X97.665 Y111.555
G0 X95.517 Y110.026
G0 X95.007 Y110.639
G1 F1020 X108.141 Y110.639 E31.90930
G0 F3600 X107.973 Y111.059
G1 F1020 X107.973 Y107.580 E32.05973
G0 F3600 X108.140 Y107.973
G1 F1020 X92.886 Y107.973 E32.71929
G0 F3600 X93.570 Y107.563
G0 X92.745 Y105.679
G0 X91.977 Y105.894
G1 F1020 X91.977 Y102.900 E32.84874
G0 F3600 X92.097 Y102.641
G1 F1020 X99.277 Y102.641 E33.15919
G0 F3600 X98.552 Y102.976
G0 X99.296 Y104.659
G0 X99.975 Y104.241
G1 F1020 X99.975 Y113.269 E33.54954
G0 F3600 X100.143 Y112.491
G0 X95.201 Y109.716
G0 X94.643 Y110.284
G1 F1020 X94.643 Y100.540 E33.97086
G0 F3600 X94.869 Y101.306
G0 X92.580 Y105.091
G0 X91.811 Y105.307
G1 F1020 X101.275 Y105.307 E34.38006
G0 F3600 X102.641 Y105.568
G1 F1020 X102.641 Y113.566 E34.72588
G0 F3600 X102.658 Y112.769
G0 X104.682 Y112.528
G0 X104.861 Y113.305
G1 F1020 X100.138 Y113.305 E34.93010
G0 F3600 X100.307 Y112.526
G0 X105.129 Y112.425
G0 X105.307 Y113.203
G1 F1020 X105.307 Y105.433 E35.26606
;LAYER:1
M117 Nb = 2 / 46
M106 S81
G0 F3600 X105.726 Y104.503 Z0.410
;TYPE:WALL-INNER
G1 F1380 X105.196 Y104.385 E35.27957
G1 X104.657 Y104.326 E35.29306
G1 X104.117 Y104.325 E35.30650
G1 X103.580 Y104.382 E35.31993
G1 X102.799 Y104.550 E35.33981
G1 X102.555 Y104.571 E35.34591
G1 X102.315 Y104.563 E35.35188
G1 X102.053 Y104.523 E35.35848
G1 X101.824 Y104.458 E35.36440
G1 X101.591 Y104.362 E35.37067
G1 X101.396 Y104.251 E35.37625
G1 X100.984 Y103.906 E35.38962
G1 X100.710 Y103.539 E35.40102
G1 X100.475 Y102.969 E35.41636
G1 X100.331 Y102.540 E35.42762
G1 X100.103 Y102.049 E35.44109
G1 X99.824 Y101.587 E35.45452
G1 X99.497 Y101.156 E35.46798
G1 X99.116 Y100.753 E35.48178
G1 X98.568 Y100.312 E35.49929
G1 X98.121 Y100.032 E35.51241
G1 X97.787 Y99.855 E35.52182
G1 X97.272 Y99.649 E35.53562
G1 X96.607 Y99.484 E35.55267
G1 X96.228 Y99.421 E35.56223
G1 X95.675 Y99.392 E35.57600
G1 X94.991 Y99.447 E35.59308
G1 X94.613 Y99.509 E35.60261
G1 X94.078 Y99.657 E35.61642
G1 X93.419 Y99.941 E35.63428
G1 X92.679 Y100.397 E35.65591
G1 X92.241 Y100.769 E35.67021
G1 X91.782 Y101.279 E35.68728
G1 X91.550 Y101.584 E35.69681
G1 X91.271 Y102.047 E35.71027
G1 X91.043 Y102.539 E35.72376
G1 X90.871 Y103.053 E35.73724
G1 X90.755 Y103.580 E35.75067
G1 X90.704 Y104.048 E35.76239
G1 X90.645 Y103.556 E35.77472
G1 X90.603 Y102.845 E35.79244
G1 X90.604 Y102.123 E35.81040
G1 X90.648 Y101.417 E35.82801
G1 X90.738 Y100.684 E35.84638
G1 X90.866 Y99.991 E35.86392
G1 X91.044 Y99.275 E35.88228
G1 X91.250 Y98.615 E35.89948
G1 X91.514 Y97.923 E35.91791
G1 X91.805 Y97.276 E35.93556
G1 X92.144 Y96.633 E35.95365
G1 X92.505 Y96.039 E35.97094
G1 X92.933 Y95.420 E35.98967
G1 X93.357 Y94.879 E36.00677
G1 X93.848 Y94.328 E36.02514
G1 X94.356 Y93.820 E36.04301
G1 X94.894 Y93.345 E36.06087
G1 X95.447 Y92.913 E36.07833
G1 X96.053 Y92.496 E36.09664
G1 X96.677 Y92.120 E36.11476
G1 X97.293 Y91.797 E36.13207
G1 X97.745 Y91.595 E36.14439
G1 X97.376 Y91.876 E36.15593
G1 X96.972 Y92.258 E36.16977
G1 X96.544 Y92.791 E36.18678
G1 X96.328 Y93.108 E36.19632
G1 X96.074 Y93.587 E36.20981
G1 X95.869 Y94.104 E36.22365
G1 X95.704 Y94.767 E36.24065
G1 X95.642 Y95.144 E36.25016
G1 X95.611 Y95.699 E36.26399
G1 X95.667 Y96.383 E36.28107
G1 X95.729 Y96.760 E36.29057
G1 X95.873 Y97.282 E36.30405
G1 X96.074 Y97.784 E36.31750
G1 X96.326 Y98.262 E36.33095
G1 X96.630 Y98.711 E36.34444
G1 X96.981 Y99.124 E36.35793
G1 X97.373 Y99.496 E36.37137
G1 X97.805 Y99.824 E36.38487
G1 X98.268 Y100.102 E36.39831
G1 X98.758 Y100.329 E36.41174
G1 X99.271 Y100.503 E36.42522
G1 X99.800 Y100.619 E36.43870
G1 X100.352 Y100.679 E36.45252
G1 X101.038 Y100.662 E36.46959
G1 X101.418 Y100.619 E36.47911
G1 X102.189 Y100.452 E36.49874
G1 X102.438 Y100.430 E36.50496
G1 X102.694 Y100.437 E36.51133
G1 X102.935 Y100.475 E36.51740
G1 X103.177 Y100.543 E36.52365
G1 X103.396 Y100.633 E36.52954
G1 X103.700 Y100.817 E36.53839
G1 X104.007 Y101.079 E36.54843
G1 X104.172 Y101.278 E36.55486
G1 X104.305 Y101.483 E36.56094
G1 X104.415 Y101.710 E36.56722
G1 X104.670 Y102.460 E36.58693
G1 X104.897 Y102.951 E36.60039
G1 X105.176 Y103.413 E36.61382
G1 X105.503 Y103.844 E36.62728
G1 X105.884 Y104.247 E36.64108
G1 X106.432 Y104.688 E36.65858
G1 X106.879 Y104.968 E36.67171
G1 X107.213 Y105.145 E36.68111
G1 X107.728 Y105.351 E36.69492
G1 X108.393 Y105.516 E36.71196
G1 X108.772 Y105.579 E36.72152
G1 X109.325 Y105.608 E36.73530
G1 X110.009 Y105.553 E36.75238
G1 X110.387 Y105.491 E36.76191
G1 X110.922 Y105.343 E36.77572
G1 X111.581 Y105.059 E36.79358
G1 X112.321 Y104.603 E36.81521
G1 X112.759 Y104.231 E36.82951
G1 X113.218 Y103.721 E36.84658
G1 X113.450 Y103.416 E36.85611
G1 X113.729 Y102.953 E36.86956
G1 X113.957 Y102.461 E36.88306
G1 X114.129 Y101.947 E36.89654
G1 X114.245 Y101.420 E36.90997
G1 X114.296 Y100.952 E36.92169
G1 X114.355 Y101.444 E36.93402
G1 X114.397 Y102.152 E36.95166
G1 X114.396 Y102.873 E36.96960
G1 X114.353 Y103.580 E36.98723
G1 X114.264 Y104.305 E37.00540
G1 X114.134 Y105.009 E37.02322
G1 X113.959 Y105.715 E37.04132
G1 X113.750 Y106.385 E37.05878
G1 X113.486 Y107.077 E37.07721
G1 X113.197 Y107.720 E37.09475
G1 X112.860 Y108.360 E37.11275
G1 X112.495 Y108.961 E37.13024
G1 X112.067 Y109.580 E37.14897
G1 X111.643 Y110.121 E37.16607
G1 X111.154 Y110.670 E37.18437
G1 X110.648 Y111.176 E37.20217
G1 X110.108 Y111.654 E37.22012
G1 X109.553 Y112.087 E37.23763
G1 X108.947 Y112.504 E37.25594
G1 X108.323 Y112.880 E37.27407
G1 X107.707 Y113.203 E37.29137
G1 X107.232 Y113.416 E37.30433
G1 X107.617 Y113.124 E37.31635
G1 X108.125 Y112.618 E37.33419
G1 X108.645 Y111.921 E37.35583
G1 X108.910 Y111.424 E37.36984
G1 X109.111 Y110.922 E37.38330
G1 X109.258 Y110.401 E37.39677
G1 X109.346 Y109.867 E37.41024
G1 X109.377 Y109.312 E37.42407
G1 X109.323 Y108.630 E37.44109
G1 X109.262 Y108.251 E37.45064
G1 X109.118 Y107.730 E37.46409
G1 X108.918 Y107.226 E37.47758
G1 X108.666 Y106.748 E37.49103
G1 X108.363 Y106.300 E37.50449
G1 X108.004 Y105.875 E37.51833
G1 X107.471 Y105.395 E37.53618
G1 X106.747 Y104.914 E37.55781
G1 X106.238 Y104.678 E37.57177
G1 X105.726 Y104.503 E37.58523
G0 F3600 X105.618 Y104.887
G1 F1380 X105.131 Y104.779 E37.59764
G1 X104.635 Y104.725 E37.61006
G1 X104.138 Y104.724 E37.62242
G1 X103.643 Y104.777 E37.63481
G1 X102.863 Y104.944 E37.65466
G1 X102.568 Y104.970 E37.66203
G1 X102.266 Y104.960 E37.66955
G1 X101.975 Y104.915 E37.67687
G1 X101.688 Y104.834 E37.68430
G1 X101.415 Y104.721 E37.69165
G1 X101.170 Y104.581 E37.69867
G1 X100.693 Y104.182 E37.71414
G1 X100.355 Y103.726 E37.72827
G1 X100.102 Y103.112 E37.74479
G1 X99.959 Y102.688 E37.75592
G1 X99.750 Y102.236 E37.76832
G1 X99.494 Y101.811 E37.78066
G1 X99.193 Y101.415 E37.79304
G1 X98.844 Y101.046 E37.80568
G1 X98.336 Y100.638 E37.82189
G1 X97.619 Y100.218 E37.84256
G1 X97.149 Y100.030 E37.85516
G1 X96.526 Y99.875 E37.87114
G1 X96.185 Y99.819 E37.87973
G1 X95.680 Y99.792 E37.89232
G1 X95.039 Y99.843 E37.90832
G1 X94.699 Y99.899 E37.91689
G1 X94.211 Y100.035 E37.92950
G1 X93.603 Y100.296 E37.94596
G1 X92.915 Y100.721 E37.96608
G1 X92.519 Y101.056 E37.97899
G1 X92.090 Y101.533 E37.99495
G1 X91.881 Y101.809 E38.00357
G1 X91.624 Y102.234 E38.01593
G1 X91.415 Y102.687 E38.02834
G1 X91.256 Y103.159 E38.04073
G1 X91.149 Y103.645 E38.05312
G1 X91.094 Y104.147 E38.06568
G1 X91.111 Y104.789 E38.08166
G1 X91.148 Y105.133 E38.09027
G1 X91.253 Y105.613 E38.10250
G1 X91.474 Y106.318 E38.12088
G1 X91.735 Y107.002 E38.13910
G1 X92.039 Y107.668 E38.15731
G1 X92.383 Y108.314 E38.17553
G1 X92.768 Y108.937 E38.19375
G1 X93.191 Y109.536 E38.21200
G1 X93.650 Y110.105 E38.23019
G1 X94.145 Y110.646 E38.24843
G1 X94.673 Y111.154 E38.26666
G1 X95.230 Y111.628 E38.28486
G1 X95.818 Y112.066 E38.30311
G1 X96.431 Y112.466 E38.32132
G1 X97.068 Y112.827 E38.33954
G1 X97.726 Y113.147 E38.35774
G1 X98.403 Y113.426 E38.37596
G1 X99.097 Y113.661 E38.39420
G1 X99.804 Y113.853 E38.41243
G1 X100.521 Y114.000 E38.43064
G1 X101.246 Y114.101 E38.44885
G1 X101.976 Y114.157 E38.46707
G1 X102.707 Y114.167 E38.48526
G1 X103.439 Y114.131 E38.50350
G1 X104.167 Y114.049 E38.52173
G1 X104.887 Y113.922 E38.53992
G1 X105.606 Y113.748 E38.55833
G1 X106.072 Y113.592 E38.57055
G1 X106.524 Y113.384 E38.58293
G1 X106.951 Y113.128 E38.59532
G1 X107.354 Y112.822 E38.60791
G1 X107.823 Y112.356 E38.62436
G1 X108.307 Y111.706 E38.64453
G1 X108.548 Y111.256 E38.65723
G1 X108.733 Y110.793 E38.66964
G1 X108.868 Y110.314 E38.68202
G1 X108.949 Y109.823 E38.69440
G1 X108.977 Y109.317 E38.70701
G1 X108.926 Y108.677 E38.72299
G1 X108.871 Y108.336 E38.73158
G1 X108.739 Y107.857 E38.74395
G1 X108.555 Y107.393 E38.75637
G1 X108.323 Y106.953 E38.76874
G1 X108.045 Y106.541 E38.78111
G1 X107.717 Y106.154 E38.79373
G1 X107.226 Y105.711 E38.81019
G1 X106.551 Y105.263 E38.83035
G1 X106.089 Y105.048 E38.84303
G1 X105.618 Y104.887 E38.85541
G0 F3600 X106.156 Y103.954
G1 F1380 X106.664 Y104.362 E38.87163
G1 X107.381 Y104.782 E38.89230
G1 X107.851 Y104.970 E38.90490
G1 X108.474 Y105.125 E38.92087
G1 X108.815 Y105.181 E38.92947
G1 X109.320 Y105.208 E38.94205
G1 X109.961 Y105.157 E38.95805
G1 X110.301 Y105.101 E38.96663
G1 X110.789 Y104.965 E38.97923
G1 X111.397 Y104.704 E38.99570
G1 X112.085 Y104.279 E39.01582
G1 X112.481 Y103.944 E39.02873
G1 X112.910 Y103.467 E39.04469
G1 X113.119 Y103.191 E39.05330
G1 X113.376 Y102.766 E39.06566
G1 X113.585 Y102.313 E39.07808
G1 X113.744 Y101.841 E39.09047
G1 X113.851 Y101.355 E39.10285
G1 X113.906 Y100.853 E39.11542
G1 X113.889 Y100.211 E39.13140
G1 X113.852 Y99.867 E39.14001
G1 X113.747 Y99.388 E39.15221
G1 X113.526 Y98.681 E39.17064
G1 X113.265 Y97.996 E39.18888
G1 X112.960 Y97.330 E39.20711
G1 X112.616 Y96.683 E39.22534
G1 X112.230 Y96.059 E39.24360
G1 X111.806 Y95.461 E39.26184
G1 X111.345 Y94.891 E39.28008
G1 X110.850 Y94.350 E39.29833
G1 X110.322 Y93.842 E39.31656
G1 X109.764 Y93.368 E39.33478
G1 X109.176 Y92.929 E39.35304
G1 X108.562 Y92.529 E39.37127
G1 X107.923 Y92.168 E39.38953
G1 X107.263 Y91.848 E39.40778
G1 X106.586 Y91.570 E39.42599
G1 X105.891 Y91.335 E39.44425
G1 X105.183 Y91.144 E39.46250
G1 X104.465 Y90.998 E39.48073
G1 X103.739 Y90.897 E39.49897
G1 X103.008 Y90.842 E39.51721
G1 X102.275 Y90.833 E39.53545
G1 X101.544 Y90.871 E39.55366
G1 X100.816 Y90.953 E39.57189
G1 X100.094 Y91.083 E39.59014
G1 X99.375 Y91.257 E39.60855
G1 X98.909 Y91.414 E39.62079
G1 X98.458 Y91.623 E39.63316
G1 X98.030 Y91.879 E39.64556
G1 X97.634 Y92.181 E39.65796
G1 X97.266 Y92.529 E39.67056
G1 X96.865 Y93.029 E39.68651
G1 X96.670 Y93.314 E39.69510
G1 X96.436 Y93.755 E39.70752
G1 X96.249 Y94.226 E39.72013
G1 X96.095 Y94.848 E39.73608
G1 X96.039 Y95.187 E39.74463
G1 X96.011 Y95.694 E39.75726
G1 X96.063 Y96.334 E39.77324
G1 X96.119 Y96.675 E39.78184
G1 X96.251 Y97.154 E39.79420
G1 X96.436 Y97.616 E39.80658
G1 X96.668 Y98.056 E39.81896
G1 X96.948 Y98.470 E39.83140
G1 X97.271 Y98.849 E39.84379
G1 X97.632 Y99.191 E39.85616
G1 X98.029 Y99.493 E39.86857
G1 X98.456 Y99.749 E39.88096
G1 X98.907 Y99.958 E39.89333
G1 X99.378 Y100.118 E39.90571
G1 X99.865 Y100.225 E39.91811
G1 X100.368 Y100.280 E39.93070
G1 X101.011 Y100.263 E39.94671
G1 X101.354 Y100.225 E39.95530
G1 X102.127 Y100.057 E39.97498
G1 X102.430 Y100.030 E39.98255
G1 X102.727 Y100.039 E39.98994
G1 X103.021 Y100.085 E39.99735
G1 X103.313 Y100.166 E40.00489
G1 X103.571 Y100.273 E40.01184
G1 X103.933 Y100.493 E40.02238
G1 X104.304 Y100.811 E40.03454
G1 X104.492 Y101.038 E40.04187
G1 X104.654 Y101.289 E40.04930
G1 X104.783 Y101.554 E40.05664
G1 X105.041 Y102.312 E40.07656
G1 X105.250 Y102.764 E40.08895
G1 X105.506 Y103.189 E40.10130
G1 X105.807 Y103.585 E40.11368
G1 X106.156 Y103.954 E40.12631
G0 F3600 X107.851 Y104.971
G0 X113.854 Y107.232
G1 F1380 X113.560 Y107.887 E40.14418
G1 X113.204 Y108.562 E40.16317
G1 X112.832 Y109.176 E40.18103
G1 X112.388 Y109.817 E40.20043
G1 X111.952 Y110.373 E40.21801
G1 X111.442 Y110.946 E40.23710
G1 X110.917 Y111.471 E40.25558
G1 X110.361 Y111.962 E40.27403
G1 X109.786 Y112.412 E40.29220
G1 X109.162 Y112.841 E40.31104
G1 X108.529 Y113.223 E40.32944
G1 X107.880 Y113.562 E40.34766
G1 X107.192 Y113.871 E40.36643
G1 X106.488 Y114.136 E40.38514
G1 X105.796 Y114.351 E40.40317
G1 X105.055 Y114.533 E40.42216
G1 X104.344 Y114.662 E40.44014
G1 X103.594 Y114.752 E40.45894
G1 X102.855 Y114.796 E40.47736
G1 X102.115 Y114.795 E40.49577
G1 X101.377 Y114.749 E40.51417
G1 X100.623 Y114.657 E40.53307
G1 X99.900 Y114.524 E40.55136
G1 X99.195 Y114.349 E40.56944
G1 X98.470 Y114.121 E40.58835
G1 X97.765 Y113.853 E40.60712
G1 X97.108 Y113.557 E40.62505
G1 X96.438 Y113.204 E40.64389
G1 X95.822 Y112.830 E40.66182
G1 X95.183 Y112.388 E40.68115
G1 X94.625 Y111.950 E40.69881
G1 X94.054 Y111.442 E40.71782
G1 X93.529 Y110.917 E40.73630
G1 X93.038 Y110.361 E40.75475
G1 X92.588 Y109.786 E40.77292
G1 X92.159 Y109.162 E40.79176
G1 X91.777 Y108.529 E40.81016
G1 X91.437 Y107.877 E40.82846
G1 X91.129 Y107.192 E40.84715
G1 X90.861 Y106.481 E40.86605
G1 X90.649 Y105.796 E40.88390
G1 X90.465 Y105.048 E40.90306
G1 X90.338 Y104.344 E40.92086
G1 X90.247 Y103.585 E40.93988
G1 X90.204 Y102.855 E40.95808
G1 X90.205 Y102.115 E40.97649
G1 X90.251 Y101.377 E40.99489
G1 X90.344 Y100.616 E41.01397
G1 X90.476 Y99.899 E41.03211
G1 X90.650 Y99.200 E41.05003
G1 X90.879 Y98.470 E41.06907
G1 X91.148 Y97.762 E41.08792
G1 X91.443 Y97.108 E41.10577
G1 X91.796 Y96.438 E41.12461
G1 X92.168 Y95.824 E41.14248
G1 X92.612 Y95.183 E41.16188
G1 X93.048 Y94.627 E41.17946
G1 X93.558 Y94.054 E41.19855
G1 X94.083 Y93.529 E41.21702
G1 X94.639 Y93.038 E41.23548
G1 X95.214 Y92.588 E41.25365
G1 X95.838 Y92.159 E41.27249
G1 X96.471 Y91.777 E41.29089
G1 X97.123 Y91.437 E41.30918
G1 X97.808 Y91.129 E41.32787
G1 X98.512 Y90.864 E41.34659
G1 X99.204 Y90.649 E41.36462
G1 X99.945 Y90.467 E41.38361
G1 X100.656 Y90.338 E41.40159
G1 X101.406 Y90.248 E41.42038
G1 X102.145 Y90.204 E41.43880
G1 X102.885 Y90.205 E41.45722
G1 X103.623 Y90.251 E41.47562
G1 X104.377 Y90.343 E41.49452
G1 X105.100 Y90.476 E41.51281
G1 X105.805 Y90.651 E41.53088
G1 X106.530 Y90.879 E41.54979
G1 X107.232 Y91.146 E41.56848
G1 X107.892 Y91.443 E41.58649
G1 X108.562 Y91.796 E41.60533
G1 X109.176 Y92.168 E41.62320
G1 X109.817 Y92.612 E41.64260
G1 X110.373 Y93.048 E41.66018
G1 X110.946 Y93.558 E41.67927
G1 X111.471 Y94.083 E41.69774
G1 X111.962 Y94.639 E41.71620
G1 X112.412 Y95.214 E41.73437
G1 X112.841 Y95.838 E41.75321
G1 X113.223 Y96.471 E41.77161
G1 X113.563 Y97.123 E41.78990
G1 X113.871 Y97.808 E41.80859
G1 X114.139 Y98.519 E41.82750
G1 X114.350 Y99.200 E41.84524
G1 X114.535 Y99.952 E41.86451
G1 X114.661 Y100.651 E41.88218
G1 X114.752 Y101.406 E41.90111
G1 X114.796 Y102.145 E41.91953
G1 X114.795 Y102.885 E41.93794
G1 X114.750 Y103.616 E41.95616
G1 X114.657 Y104.377 E41.97524
G1 X114.524 Y105.100 E41.99353
G1 X114.350 Y105.800 E42.01148
G1 X114.121 Y106.530 E42.03052
G1 X113.854 Y107.232 E42.04921
G0 F3600 X114.225 Y107.380
;TYPE:WALL-OUTER
G1 F1320 X113.915 Y108.069 E42.06800
G1 X113.552 Y108.757 E42.08736
G1 X113.160 Y109.404 E42.10618
G1 X112.723 Y110.035 E42.12528
G1 X112.242 Y110.648 E42.14467
G1 X111.740 Y111.212 E42.16346
G1 X111.189 Y111.763 E42.18285
G1 X110.623 Y112.263 E42.20164
G1 X110.010 Y112.742 E42.22100
G1 X109.377 Y113.177 E42.24011
G1 X108.722 Y113.572 E42.25914
G1 X108.051 Y113.923 E42.27798
G1 X107.340 Y114.242 E42.29738
G1 X106.633 Y114.509 E42.31618
G1 X105.890 Y114.740 E42.33554
G1 X105.156 Y114.920 E42.35435
G1 X104.400 Y115.057 E42.37346
G1 X103.632 Y115.149 E42.39271
G1 X102.861 Y115.195 E42.41193
G1 X102.106 Y115.194 E42.43072
G1 X101.337 Y115.146 E42.44989
G1 X100.570 Y115.052 E42.46912
G1 X99.813 Y114.913 E42.48827
G1 X99.076 Y114.730 E42.50716
G1 X98.344 Y114.501 E42.52625
G1 X97.620 Y114.225 E42.54553
G1 X96.930 Y113.915 E42.56435
G1 X96.242 Y113.552 E42.58370
G1 X95.596 Y113.160 E42.60251
G1 X94.964 Y112.722 E42.62164
G1 X94.352 Y112.242 E42.64099
G1 X93.786 Y111.738 E42.65985
G1 X93.237 Y111.189 E42.67917
G1 X92.737 Y110.623 E42.69796
G1 X92.257 Y110.009 E42.71736
G1 X91.823 Y109.377 E42.73643
G1 X91.426 Y108.719 E42.75555
G1 X91.077 Y108.051 E42.77431
G1 X90.758 Y107.340 E42.79370
G1 X90.490 Y106.631 E42.81256
G1 X90.260 Y105.889 E42.83189
G1 X90.080 Y105.156 E42.85067
G1 X89.943 Y104.400 E42.86979
G1 X89.850 Y103.627 E42.88916
G1 X89.805 Y102.861 E42.90825
G1 X89.806 Y102.106 E42.92704
G1 X89.853 Y101.341 E42.94611
G1 X89.948 Y100.567 E42.96551
G1 X90.087 Y99.813 E42.98459
G1 X90.269 Y99.080 E43.00338
G1 X90.498 Y98.348 E43.02247
G1 X90.775 Y97.620 E43.04185
G1 X91.085 Y96.931 E43.06065
G1 X91.448 Y96.242 E43.08003
G1 X91.840 Y95.596 E43.09883
G1 X92.277 Y94.965 E43.11793
G1 X92.758 Y94.352 E43.13732
G1 X93.260 Y93.788 E43.15611
G1 X93.811 Y93.237 E43.17549
G1 X94.377 Y92.737 E43.19429
G1 X94.991 Y92.257 E43.21368
G1 X95.623 Y91.823 E43.23276
G1 X96.281 Y91.426 E43.25188
G1 X96.949 Y91.077 E43.27063
G1 X97.660 Y90.758 E43.29002
G1 X98.367 Y90.491 E43.30883
G1 X99.111 Y90.260 E43.32821
G1 X99.844 Y90.080 E43.34699
G1 X100.600 Y89.943 E43.36611
G1 X101.368 Y89.851 E43.38536
G1 X102.139 Y89.805 E43.40458
G1 X102.894 Y89.806 E43.42336
G1 X103.663 Y89.854 E43.44253
G1 X104.430 Y89.948 E43.46176
G1 X105.187 Y90.087 E43.48091
G1 X105.924 Y90.270 E43.49981
G1 X106.656 Y90.499 E43.51889
G1 X107.380 Y90.775 E43.53817
G1 X108.069 Y91.085 E43.55697
G1 X108.758 Y91.448 E43.57635
G1 X109.404 Y91.840 E43.59515
G1 X110.035 Y92.277 E43.61425
G1 X110.648 Y92.758 E43.63364
G1 X111.212 Y93.260 E43.65243
G1 X111.763 Y93.811 E43.67182
G1 X112.263 Y94.377 E43.69061
G1 X112.743 Y94.991 E43.71000
G1 X113.177 Y95.623 E43.72908
G1 X113.574 Y96.281 E43.74820
G1 X113.923 Y96.949 E43.76695
G1 X114.242 Y97.660 E43.78634
G1 X114.509 Y98.367 E43.80515
G1 X114.740 Y99.111 E43.82453
G1 X114.920 Y99.844 E43.84331
G1 X115.057 Y100.600 E43.86243
G1 X115.149 Y101.361 E43.88151
G1 X115.195 Y102.139 E43.90090
G1 X115.194 Y102.894 E43.91969
G1 X115.147 Y103.659 E43.93876
G1 X115.053 Y104.424 E43.95793
G1 X114.913 Y105.187 E43.97724
G1 X114.731 Y105.920 E43.99603
G1 X114.502 Y106.652 E44.01511
G1 X114.225 Y107.380 E44.03450
G0 F3600 X113.948 Y107.264
G0 X112.007 Y104.211
G0 X111.850 Y103.955
G1 F1320 X112.202 Y103.657 E44.04597
G1 X112.602 Y103.212 E44.06086
G1 X112.789 Y102.967 E44.06853
G1 X113.023 Y102.578 E44.07983
G1 X113.214 Y102.166 E44.09113
G1 X113.359 Y101.734 E44.10246
G1 X113.457 Y101.290 E44.11378
G1 X113.506 Y100.836 E44.12514
G1 X113.491 Y100.238 E44.14003
G1 X113.458 Y99.932 E44.14768
G1 X113.361 Y99.490 E44.15894
G1 X113.149 Y98.812 E44.17662
G1 X112.897 Y98.150 E44.19424
G1 X112.602 Y97.507 E44.21185
G1 X112.270 Y96.882 E44.22946
G1 X111.897 Y96.279 E44.24710
G1 X111.488 Y95.702 E44.26470
G1 X111.043 Y95.151 E44.28232
G1 X110.564 Y94.629 E44.29995
G1 X110.055 Y94.138 E44.31755
G1 X109.515 Y93.680 E44.33517
G1 X108.947 Y93.257 E44.35279
G1 X108.354 Y92.870 E44.37041
G1 X107.737 Y92.522 E44.38804
G1 X107.100 Y92.212 E44.40566
G1 X106.446 Y91.944 E44.42325
G1 X105.775 Y91.716 E44.44088
G1 X105.092 Y91.532 E44.45848
G1 X104.397 Y91.392 E44.47612
G1 X103.696 Y91.294 E44.49374
G1 X102.991 Y91.241 E44.51133
G1 X102.283 Y91.232 E44.52895
G1 X101.577 Y91.269 E44.54654
G1 X100.873 Y91.348 E44.56417
G1 X100.176 Y91.473 E44.58179
G1 X99.486 Y91.641 E44.59946
G1 X99.057 Y91.785 E44.61072
G1 X98.645 Y91.976 E44.62202
G1 X98.254 Y92.210 E44.63336
G1 X97.893 Y92.485 E44.64465
G1 X97.560 Y92.800 E44.65605
G1 X97.186 Y93.266 E44.67092
G1 X97.012 Y93.521 E44.67860
G1 X96.799 Y93.922 E44.68990
G1 X96.630 Y94.348 E44.70130
G1 X96.486 Y94.929 E44.71620
G1 X96.436 Y95.231 E44.72382
G1 X96.411 Y95.689 E44.73523
G1 X96.459 Y96.285 E44.75011
G1 X96.509 Y96.589 E44.75777
G1 X96.630 Y97.027 E44.76908
G1 X96.799 Y97.449 E44.78039
G1 X97.011 Y97.850 E44.79168
G1 X97.266 Y98.228 E44.80302
G1 X97.561 Y98.574 E44.81434
G1 X97.891 Y98.887 E44.82565
G1 X98.253 Y99.162 E44.83697
G1 X98.643 Y99.396 E44.84828
G1 X99.055 Y99.587 E44.85958
G1 X99.486 Y99.733 E44.87091
G1 X99.930 Y99.831 E44.88222
G1 X100.385 Y99.880 E44.89361
G1 X100.984 Y99.865 E44.90852
G1 X101.289 Y99.831 E44.91615
G1 X102.070 Y99.661 E44.93604
G1 X102.416 Y99.630 E44.94469
G1 X102.760 Y99.641 E44.95325
G1 X103.105 Y99.694 E44.96193
G1 X103.443 Y99.789 E44.97067
G1 X103.759 Y99.920 E44.97918
G1 X104.154 Y100.159 E44.99067
G1 X104.422 Y100.374 E44.99922
G1 X104.596 Y100.538 E45.00517
G1 X104.814 Y100.802 E45.01369
G1 X105.002 Y101.092 E45.02229
G1 X105.155 Y101.408 E45.03102
G1 X105.412 Y102.164 E45.05089
G1 X105.603 Y102.576 E45.06219
G1 X105.837 Y102.965 E45.07349
G1 X106.112 Y103.327 E45.08480
G1 X106.427 Y103.660 E45.09621
G1 X106.895 Y104.036 E45.11114
G1 X107.549 Y104.420 E45.13002
G1 X107.974 Y104.590 E45.14141
G1 X108.555 Y104.734 E45.15630
G1 X108.858 Y104.784 E45.16394
G1 X109.315 Y104.808 E45.17533
G1 X109.912 Y104.761 E45.19023
G1 X110.215 Y104.711 E45.19787
G1 X110.656 Y104.588 E45.20926
G1 X111.212 Y104.349 E45.22432
G1 X111.850 Y103.955 E45.24298
G0 F3600 X112.007 Y104.211
G0 X107.955 Y106.589
G0 X107.726 Y106.782
G1 F1320 X107.430 Y106.432 E45.25439
G1 X106.980 Y106.027 E45.26945
G1 X106.356 Y105.612 E45.28810
G1 X105.940 Y105.419 E45.29951
G1 X105.510 Y105.272 E45.31082
G1 X105.065 Y105.173 E45.32216
G1 X104.613 Y105.124 E45.33347
G1 X104.159 Y105.123 E45.34477
G1 X103.706 Y105.171 E45.35610
G1 X102.917 Y105.341 E45.37619
G1 X102.582 Y105.370 E45.38455
G1 X102.235 Y105.358 E45.39319
G1 X101.885 Y105.305 E45.40200
G1 X101.562 Y105.214 E45.41035
G1 X101.236 Y105.078 E45.41914
G1 X100.945 Y104.913 E45.42746
G1 X100.405 Y104.460 E45.44500
G1 X100.114 Y104.088 E45.45676
G1 X100.000 Y103.912 E45.46197
G1 X99.728 Y103.252 E45.47974
G1 X99.588 Y102.836 E45.49066
G1 X99.397 Y102.424 E45.50196
G1 X99.163 Y102.035 E45.51325
G1 X98.888 Y101.673 E45.52456
G1 X98.573 Y101.340 E45.53597
G1 X98.105 Y100.964 E45.55091
G1 X97.451 Y100.580 E45.56978
G1 X97.026 Y100.410 E45.58117
G1 X96.445 Y100.266 E45.59606
G1 X96.142 Y100.216 E45.60370
G1 X95.685 Y100.192 E45.61509
G1 X95.088 Y100.239 E45.62999
G1 X94.785 Y100.289 E45.63763
G1 X94.344 Y100.412 E45.64903
G1 X93.788 Y100.651 E45.66409
G1 X93.150 Y101.045 E45.68274
G1 X92.798 Y101.343 E45.69422
G1 X92.398 Y101.788 E45.70911
G1 X92.211 Y102.033 E45.71678
G1 X91.977 Y102.422 E45.72807
G1 X91.786 Y102.834 E45.73937
G1 X91.641 Y103.266 E45.75071
G1 X91.543 Y103.710 E45.76203
G1 X91.494 Y104.164 E45.77339
G1 X91.509 Y104.762 E45.78827
G1 X91.542 Y105.068 E45.79593
G1 X91.639 Y105.510 E45.80719
G1 X91.851 Y106.187 E45.82484
G1 X92.103 Y106.848 E45.84244
G1 X92.396 Y107.491 E45.86003
G1 X92.729 Y108.115 E45.87763
G1 X93.101 Y108.717 E45.89524
G1 X93.509 Y109.295 E45.91284
G1 X93.953 Y109.845 E45.93043
G1 X94.430 Y110.367 E45.94802
G1 X94.940 Y110.858 E45.96564
G1 X95.479 Y111.316 E45.98324
G1 X96.046 Y111.738 E46.00083
G1 X96.638 Y112.125 E46.01842
G1 X97.253 Y112.473 E46.03601
G1 X97.889 Y112.783 E46.05361
G1 X98.543 Y113.052 E46.07121
G1 X99.213 Y113.279 E46.08881
G1 X99.896 Y113.465 E46.10642
G1 X100.588 Y113.606 E46.12400
G1 X101.289 Y113.704 E46.14161
G1 X101.994 Y113.758 E46.15920
G1 X102.700 Y113.768 E46.17677
G1 X103.407 Y113.733 E46.19439
G1 X104.110 Y113.654 E46.21199
G1 X104.806 Y113.531 E46.22958
G1 X105.495 Y113.364 E46.24722
G1 X105.924 Y113.220 E46.25848
G1 X106.338 Y113.030 E46.26981
G1 X106.728 Y112.797 E46.28112
G1 X107.092 Y112.520 E46.29250
G1 X107.521 Y112.094 E46.30754
G1 X107.969 Y111.492 E46.32621
G1 X108.186 Y111.087 E46.33765
G1 X108.355 Y110.665 E46.34896
G1 X108.478 Y110.227 E46.36028
G1 X108.552 Y109.779 E46.37158
G1 X108.577 Y109.322 E46.38296
G1 X108.530 Y108.725 E46.39786
G1 X108.481 Y108.422 E46.40550
G1 X108.360 Y107.984 E46.41681
G1 X108.192 Y107.561 E46.42813
G1 X107.980 Y107.159 E46.43944
G1 X107.726 Y106.782 E46.45075
G0 F3600 X108.452 Y106.253
;TYPE:SKIN
G1 F1440 X108.760 Y105.663 E46.47051
G1 X108.055 Y105.804 E46.48141
G1 X108.045 Y105.532 E46.48818
G0 F3600 X108.680 Y106.589
G1 F1440 X109.583 Y105.687 E46.51994
G0 F3600 X110.214 Y105.619
G1 F1440 X108.884 Y106.949 E46.56674
G0 F3600 X109.066 Y107.331
G1 F1440 X110.966 Y105.431 E46.63360
G0 F3600 X112.118 Y104.844
G1 F1440 X109.223 Y107.739 E46.73547
G0 F3600 X109.346 Y108.180
G1 F1440 X114.271 Y103.255 E46.90878
G0 F3600 X114.295 Y102.667
G1 F1440 X113.594 Y103.368 E46.93345
G0 F3600 X114.214 Y103.876
G1 F1440 X109.425 Y108.666 E47.10199
G0 F3600 X109.466 Y109.189
G1 F1440 X114.117 Y104.537 E47.26567
G0 F3600 X113.970 Y105.250
G1 F1440 X109.451 Y109.768 E47.42468
G0 F3600 X109.354 Y110.430
G1 F1440 X113.755 Y106.028 E47.57956
G0 F3600 X113.443 Y106.905
G1 F1440 X109.080 Y111.268 E47.73310
G0 F3600 X109.421 Y112.055
G1 F1440 X112.052 Y109.424 E47.82568
G0 F3600 X112.959 Y107.953
G1 F1440 X108.267 Y112.644 E47.99077
G0 F3600 X108.978 Y109.317
G0 X108.323 Y106.954
G0 X106.551 Y105.263
G0 X105.317 Y104.310
G1 F1440 X105.438 Y103.906 E47.99958
G1 X104.820 Y104.243 E48.01710
G0 F3600 X104.274 Y104.224
G1 F1440 X105.068 Y103.430 E48.04504
G0 F3600 X104.856 Y103.078
G1 F1440 X103.663 Y104.271 E48.08702
G0 F3600 X102.957 Y104.412
G1 F1440 X104.670 Y102.700 E48.14728
G0 F3600 X104.508 Y102.297
G1 F1440 X102.343 Y104.463 E48.22348
G0 F3600 X101.872 Y104.368
G1 F1440 X104.365 Y101.876 E48.31119
G0 F3600 X104.188 Y101.488
G1 F1440 X101.488 Y104.189 E48.40622
G0 F3600 X101.176 Y103.936
G1 F1440 X103.947 Y101.165 E48.50373
G0 F3600 X103.647 Y100.902
G1 F1440 X100.909 Y103.639 E48.60006
G0 F3600 X100.709 Y103.275
G1 F1440 X103.288 Y100.696 E48.69082
G0 F3600 X102.856 Y100.564
G1 F1440 X100.548 Y102.872 E48.77203
G0 F3600 X100.401 Y102.454
G1 F1440 X102.315 Y100.540 E48.83939
G0 F3600 X101.613 Y100.678
G1 F1440 X100.223 Y102.068 E48.88830
G0 F3600 X100.016 Y101.710
G1 F1440 X100.964 Y100.763 E48.92164
G0 F3600 X100.386 Y100.776
G1 F1440 X99.789 Y101.374 E48.94267
G0 F3600 X99.542 Y101.056
G1 F1440 X99.636 Y100.680 E48.95427
G1 X99.268 Y100.766 E48.96367
G0 F3600 X95.692 Y97.006
G1 F1440 X90.713 Y101.986 E49.13890
G0 F3600 X91.112 Y102.151
G1 F1440 X90.704 Y102.559 E49.15326
G0 F3600 X90.753 Y101.381
G1 F1440 X95.591 Y96.543 E49.32350
G0 F3600 X95.537 Y96.032
G1 F1440 X90.832 Y100.738 E49.48909
G0 F3600 X90.957 Y100.049
G1 F1440 X95.522 Y95.484 E49.64973
G0 F3600 X95.587 Y94.854
G1 F1440 X91.140 Y99.301 E49.80622
G0 F3600 X91.414 Y98.463
G1 F1440 X95.762 Y94.115 E49.95922
G0 F3600 X96.222 Y93.091
G1 F1440 X91.813 Y97.500 E50.11437
G0 F3600 X92.483 Y96.266
G1 F1440 X96.265 Y92.483 E50.24747
G0 F3600 X95.827 Y97.436
G1 F1440 X93.440 Y99.822 E50.33145
G0 F3600 X94.350 Y99.477
G1 F1440 X95.989 Y97.838 E50.38913
G0 F3600 X96.184 Y98.207
G1 F1440 X95.050 Y99.341 E50.42904
G0 F3600 X95.663 Y99.292
G1 F1440 X96.402 Y98.553 E50.45504
G0 F3600 X96.640 Y98.879
G1 F1440 X96.443 Y99.359 E50.47051
G1 X96.900 Y99.184 E50.48268
G1 F3000 E46.98268
G0 F3600 X97.309 Y101.410
;TYPE:SUPPORT
G1 F3000 E50.48268
G1 F1440 X97.309 Y111.586 E50.73589
G0 F3600 X97.407 Y111.414
G0 X100.026 Y112.465
G0 X99.975 Y112.656
G1 F1440 X99.975 Y105.143 E50.92283
G0 F3600 X99.846 Y105.294
G0 X94.696 Y101.352
G0 X94.643 Y101.159
G1 F1440 X94.643 Y109.412 E51.12819
G0 F3600 X94.789 Y109.279
G0 X102.656 Y106.365
G0 X102.641 Y106.166
G1 F1440 X102.641 Y112.966 E51.29739
G0 F3600 X102.644 Y112.768
G0 X105.244 Y112.396
G0 X105.307 Y112.584
G1 F1440 X105.307 Y106.049 E51.46000
G1 F3000 E47.96000
G0 F3600 X107.973 Y103.727
G1 F3000 E51.46000
G1 F1440 X107.973 Y93.577 E51.71256
G0 F3600 X107.864 Y93.742
G0 X105.255 Y92.610
G0 X105.307 Y92.419
G1 F1440 X105.307 Y100.141 E51.90471
G0 F3600 X105.461 Y100.016
G0 X110.562 Y103.541
G0 X110.639 Y103.725
G1 F1440 X110.639 Y95.926 E52.09877
G0 F3600 X110.485 Y96.050
G0 X102.648 Y98.638
G0 X102.641 Y98.836
G1 F1440 X102.641 Y92.037 E52.26795
G0 F3600 X102.638 Y92.235
G0 X100.021 Y92.538
G0 X99.975 Y92.344
G1 F1440 X99.975 Y99.022 E52.43411
G0 F3600 X100.018 Y98.829
G0 X97.501 Y96.426
G0 X97.309 Y96.479
G1 F1440 X97.309 Y94.935 E52.47253
;LAYER:2
M117 Nb = 3 / 46
M106 S165
G0 F3600 X96.239 Y94.638 Z0.560
G0 X95.729 Y94.611
;TYPE:WALL-INNER
G1 F1800 X95.641 Y95.144 E52.48597
G1 X95.611 Y95.686 E52.49948
G1 X95.641 Y96.226 E52.51294
G1 X95.729 Y96.760 E52.52640
G1 X95.873 Y97.282 E52.53988
G1 X96.074 Y97.784 E52.55333
G1 X96.326 Y98.262 E52.56678
G1 X96.630 Y98.711 E52.58027
G1 X96.981 Y99.124 E52.59376
G1 X97.373 Y99.496 E52.60721
G1 X97.805 Y99.824 E52.62070
G1 X98.268 Y100.102 E52.63414
G1 X98.775 Y100.337 E52.64804
G1 X99.494 Y100.552 E52.66672
G1 X99.800 Y100.619 E52.67451
G1 X100.339 Y100.678 E52.68800
G1 X100.880 Y100.678 E52.70147
G1 X101.417 Y100.619 E52.71491
G1 X102.189 Y100.452 E52.73456
G1 X102.438 Y100.430 E52.74078
G1 X102.694 Y100.437 E52.74715
G1 X102.935 Y100.475 E52.75323
G1 X103.177 Y100.543 E52.75948
G1 X103.414 Y100.641 E52.76586
G1 X103.622 Y100.759 E52.77181
G1 X103.812 Y100.899 E52.77768
G1 X104.172 Y101.278 E52.79069
G1 X104.305 Y101.483 E52.79677
G1 X104.413 Y101.707 E52.80296
G1 X104.592 Y102.232 E52.81676
G1 X104.888 Y102.936 E52.83576
G1 X105.176 Y103.413 E52.84963
G1 X105.503 Y103.844 E52.86309
G1 X105.875 Y104.238 E52.87657
G1 X106.288 Y104.588 E52.89004
G1 X106.735 Y104.891 E52.90348
G1 X107.213 Y105.145 E52.91695
G1 X107.715 Y105.346 E52.93041
G1 X108.237 Y105.491 E52.94389
G1 X108.773 Y105.579 E52.95740
G1 X109.312 Y105.607 E52.97083
G1 X109.852 Y105.579 E52.98429
G1 X110.387 Y105.491 E52.99778
G1 X110.909 Y105.346 E53.01126
G1 X111.411 Y105.146 E53.02470
G1 X111.890 Y104.892 E53.03820
G1 X112.337 Y104.589 E53.05163
G1 X112.749 Y104.239 E53.06508
G1 X113.121 Y103.847 E53.07853
G1 X113.450 Y103.416 E53.09202
G1 X113.729 Y102.953 E53.10547
G1 X113.957 Y102.461 E53.11897
G1 X114.129 Y101.947 E53.13245
G1 X114.245 Y101.420 E53.14588
G1 X114.296 Y100.954 E53.15754
G1 X114.355 Y101.444 E53.16983
G1 X114.397 Y102.152 E53.18747
G1 X114.396 Y102.873 E53.20541
G1 X114.353 Y103.580 E53.22304
G1 X114.264 Y104.305 E53.24121
G1 X114.134 Y105.009 E53.25903
G1 X113.959 Y105.715 E53.27713
G1 X113.750 Y106.385 E53.29459
G1 X113.486 Y107.077 E53.31302
G1 X113.197 Y107.720 E53.33056
G1 X112.860 Y108.360 E53.34856
G1 X112.495 Y108.961 E53.36605
G1 X112.067 Y109.580 E53.38478
G1 X111.643 Y110.121 E53.40188
G1 X111.154 Y110.670 E53.42018
G1 X110.648 Y111.176 E53.43798
G1 X110.108 Y111.654 E53.45593
G1 X109.553 Y112.087 E53.47344
G1 X108.947 Y112.504 E53.49175
G1 X108.323 Y112.880 E53.50988
G1 X107.707 Y113.203 E53.52718
G1 X107.233 Y113.415 E53.54010
G1 X107.621 Y113.121 E53.55222
G1 X108.146 Y112.589 E53.57081
G1 X108.351 Y112.350 E53.57865
G1 X108.656 Y111.901 E53.59216
G1 X108.910 Y111.424 E53.60560
G1 X109.111 Y110.922 E53.61906
G1 X109.258 Y110.401 E53.63253
G1 X109.346 Y109.867 E53.64599
G1 X109.376 Y109.325 E53.65950
G1 X109.348 Y108.786 E53.67293
G1 X109.262 Y108.251 E53.68641
G1 X109.113 Y107.713 E53.70031
G1 X108.812 Y107.025 E53.71899
G1 X108.665 Y106.747 E53.72682
G1 X108.363 Y106.300 E53.74024
G1 X108.013 Y105.885 E53.75375
G1 X107.621 Y105.513 E53.76719
G1 X107.191 Y105.185 E53.78065
G1 X106.727 Y104.905 E53.79414
G1 X106.238 Y104.678 E53.80755
G1 X105.726 Y104.503 E53.82102
G1 X105.196 Y104.385 E53.83453
G1 X104.657 Y104.326 E53.84802
G1 X104.117 Y104.325 E53.86145
G1 X103.580 Y104.382 E53.87489
G1 X102.799 Y104.550 E53.89477
G1 X102.555 Y104.571 E53.90086
G1 X102.315 Y104.563 E53.90684
G1 X102.053 Y104.523 E53.91343
G1 X101.824 Y104.458 E53.91936
G1 X101.591 Y104.362 E53.92563
G1 X101.369 Y104.235 E53.93199
G1 X101.175 Y104.092 E53.93799
G1 X100.988 Y103.915 E53.94439
G1 X100.827 Y103.721 E53.95067
G1 X100.697 Y103.520 E53.95662
G1 X100.585 Y103.290 E53.96299
G1 X100.408 Y102.768 E53.97670
G1 X100.112 Y102.064 E53.99571
G1 X99.824 Y101.587 E54.00957
G1 X99.497 Y101.156 E54.02303
G1 X99.125 Y100.762 E54.03652
G1 X98.712 Y100.412 E54.04999
G1 X98.265 Y100.109 E54.06342
G1 X97.787 Y99.855 E54.07689
G1 X97.285 Y99.654 E54.09035
G1 X96.763 Y99.509 E54.10383
G1 X96.227 Y99.421 E54.11735
G1 X95.688 Y99.393 E54.13078
G1 X95.148 Y99.421 E54.14423
G1 X94.613 Y99.509 E54.15772
G1 X94.091 Y99.654 E54.17120
G1 X93.589 Y99.854 E54.18465
G1 X93.110 Y100.108 E54.19814
G1 X92.663 Y100.411 E54.21158
G1 X92.251 Y100.761 E54.22503
G1 X91.879 Y101.153 E54.23847
G1 X91.550 Y101.584 E54.25197
G1 X91.271 Y102.047 E54.26542
G1 X91.043 Y102.539 E54.27891
G1 X90.871 Y103.053 E54.29240
G1 X90.755 Y103.580 E54.30582
G1 X90.704 Y104.046 E54.31749
G1 X90.645 Y103.556 E54.32977
G1 X90.603 Y102.845 E54.34749
G1 X90.604 Y102.123 E54.36546
G1 X90.648 Y101.417 E54.38306
G1 X90.738 Y100.684 E54.40143
G1 X90.866 Y99.991 E54.41897
G1 X91.044 Y99.275 E54.43733
G1 X91.250 Y98.615 E54.45453
G1 X91.514 Y97.923 E54.47296
G1 X91.805 Y97.276 E54.49061
G1 X92.144 Y96.633 E54.50870
G1 X92.505 Y96.039 E54.52600
G1 X92.933 Y95.420 E54.54472
G1 X93.357 Y94.879 E54.56183
G1 X93.848 Y94.328 E54.58019
G1 X94.356 Y93.820 E54.59807
G1 X94.894 Y93.345 E54.61592
G1 X95.447 Y92.913 E54.63338
G1 X96.053 Y92.496 E54.65169
G1 X96.677 Y92.120 E54.66982
G1 X97.293 Y91.797 E54.68712
G1 X97.745 Y91.595 E54.69944
G1 X97.376 Y91.876 E54.71098
G1 X96.982 Y92.248 E54.72447
G1 X96.632 Y92.661 E54.73794
G1 X96.328 Y93.108 E54.75139
G1 X96.074 Y93.587 E54.76488
G1 X95.874 Y94.091 E54.77837
G1 X95.729 Y94.611 E54.79180
G0 F3600 X96.119 Y94.697
G1 F1800 X96.039 Y95.188 E54.80418
G1 X96.011 Y95.686 E54.81659
G1 X96.039 Y96.183 E54.82898
G1 X96.119 Y96.674 E54.84136
G1 X96.251 Y97.154 E54.85375
G1 X96.436 Y97.616 E54.86613
G1 X96.668 Y98.056 E54.87851
G1 X96.948 Y98.470 E54.89094
G1 X97.271 Y98.849 E54.90333
G1 X97.632 Y99.191 E54.91571
G1 X98.029 Y99.493 E54.92812
G1 X98.456 Y99.749 E54.94051
G1 X98.917 Y99.963 E54.95315
G1 X99.594 Y100.165 E54.97073
G1 X99.865 Y100.225 E54.97764
G1 X100.360 Y100.279 E54.99003
G1 X100.859 Y100.279 E55.00245
G1 X101.353 Y100.225 E55.01481
G1 X102.127 Y100.057 E55.03452
G1 X102.430 Y100.030 E55.04209
G1 X102.727 Y100.039 E55.04948
G1 X103.021 Y100.085 E55.05689
G1 X103.313 Y100.166 E55.06443
G1 X103.582 Y100.278 E55.07168
G1 X103.843 Y100.426 E55.07914
G1 X104.074 Y100.596 E55.08628
G1 X104.492 Y101.038 E55.10142
G1 X104.654 Y101.289 E55.10885
G1 X104.784 Y101.557 E55.11626
G1 X104.966 Y102.090 E55.13028
G1 X105.244 Y102.755 E55.14821
G1 X105.506 Y103.189 E55.16083
G1 X105.807 Y103.585 E55.17320
G1 X106.150 Y103.948 E55.18563
G1 X106.530 Y104.270 E55.19802
G1 X106.941 Y104.549 E55.21038
G1 X107.381 Y104.782 E55.22277
G1 X107.843 Y104.967 E55.23516
G1 X108.323 Y105.101 E55.24756
G1 X108.816 Y105.181 E55.25998
G1 X109.312 Y105.208 E55.27234
G1 X109.809 Y105.181 E55.28473
G1 X110.301 Y105.101 E55.29713
G1 X110.781 Y104.968 E55.30953
G1 X111.243 Y104.784 E55.32190
G1 X111.684 Y104.550 E55.33432
G1 X112.095 Y104.271 E55.34668
G1 X112.475 Y103.949 E55.35908
G1 X112.817 Y103.588 E55.37145
G1 X113.119 Y103.192 E55.38384
G1 X113.376 Y102.766 E55.39622
G1 X113.585 Y102.313 E55.40863
G1 X113.744 Y101.841 E55.42103
G1 X113.851 Y101.355 E55.43341
G1 X113.905 Y100.861 E55.44578
G1 X113.905 Y100.363 E55.45817
G1 X113.852 Y99.868 E55.47055
G1 X113.747 Y99.388 E55.48278
G1 X113.526 Y98.681 E55.50121
G1 X113.265 Y97.996 E55.51945
G1 X112.960 Y97.330 E55.53768
G1 X112.616 Y96.683 E55.55591
G1 X112.230 Y96.059 E55.57417
G1 X111.806 Y95.461 E55.59241
G1 X111.345 Y94.891 E55.61065
G1 X110.850 Y94.350 E55.62890
G1 X110.322 Y93.842 E55.64713
G1 X109.764 Y93.368 E55.66535
G1 X109.176 Y92.929 E55.68361
G1 X108.562 Y92.529 E55.70184
G1 X107.923 Y92.168 E55.72010
G1 X107.263 Y91.848 E55.73835
G1 X106.586 Y91.570 E55.75656
G1 X105.891 Y91.335 E55.77482
G1 X105.183 Y91.144 E55.79307
G1 X104.465 Y90.998 E55.81130
G1 X103.739 Y90.897 E55.82954
G1 X103.008 Y90.842 E55.84778
G1 X102.275 Y90.833 E55.86602
G1 X101.544 Y90.871 E55.88423
G1 X100.816 Y90.953 E55.90246
G1 X100.094 Y91.083 E55.92072
G1 X99.375 Y91.257 E55.93912
G1 X98.909 Y91.414 E55.95136
G1 X98.458 Y91.623 E55.96373
G1 X98.030 Y91.879 E55.97614
G1 X97.634 Y92.181 E55.98853
G1 X97.272 Y92.523 E56.00092
G1 X96.950 Y92.902 E56.01329
G1 X96.670 Y93.315 E56.02571
G1 X96.436 Y93.755 E56.03811
G1 X96.252 Y94.218 E56.05051
G1 X96.119 Y94.697 E56.06288
G0 F3600 X94.639 Y93.038
G1 F1800 X95.214 Y92.588 E56.08105
G1 X95.838 Y92.159 E56.09989
G1 X96.471 Y91.777 E56.11828
G1 X97.123 Y91.437 E56.13658
G1 X97.808 Y91.129 E56.15527
G1 X98.512 Y90.864 E56.17399
G1 X99.204 Y90.649 E56.19202
G1 X99.945 Y90.467 E56.21100
G1 X100.656 Y90.338 E56.22898
G1 X101.406 Y90.248 E56.24778
G1 X102.145 Y90.204 E56.26620
G1 X102.885 Y90.205 E56.28461
G1 X103.623 Y90.251 E56.30301
G1 X104.377 Y90.343 E56.32191
G1 X105.100 Y90.476 E56.34021
G1 X105.805 Y90.651 E56.35828
G1 X106.530 Y90.879 E56.37719
G1 X107.232 Y91.146 E56.39588
G1 X107.892 Y91.443 E56.41389
G1 X108.562 Y91.796 E56.43273
G1 X109.176 Y92.168 E56.45060
G1 X109.817 Y92.612 E56.47000
G1 X110.373 Y93.048 E56.48758
G1 X110.946 Y93.558 E56.50667
G1 X111.471 Y94.083 E56.52514
G1 X111.962 Y94.639 E56.54360
G1 X112.412 Y95.214 E56.56177
G1 X112.841 Y95.838 E56.58061
G1 X113.223 Y96.471 E56.59901
G1 X113.563 Y97.123 E56.61730
G1 X113.871 Y97.808 E56.63599
G1 X114.139 Y98.519 E56.65490
G1 X114.350 Y99.200 E56.67264
G1 X114.535 Y99.952 E56.69191
G1 X114.661 Y100.651 E56.70958
G1 X114.752 Y101.406 E56.72850
G1 X114.796 Y102.145 E56.74692
G1 X114.795 Y102.885 E56.76534
G1 X114.750 Y103.616 E56.78356
G1 X114.657 Y104.374 E56.80256
G1 X114.524 Y105.100 E56.82093
G1 X114.350 Y105.800 E56.83888
G1 X114.121 Y106.530 E56.85791
G1 X113.854 Y107.232 E56.87660
G1 X113.560 Y107.887 E56.89447
G1 X113.204 Y108.562 E56.91346
G1 X112.832 Y109.176 E56.93132
G1 X112.388 Y109.817 E56.95072
G1 X111.952 Y110.373 E56.96830
G1 X111.442 Y110.946 E56.98739
G1 X110.917 Y111.471 E57.00587
G1 X110.361 Y111.962 E57.02432
G1 X109.786 Y112.412 E57.04249
G1 X109.162 Y112.841 E57.06133
G1 X108.529 Y113.223 E57.07973
G1 X107.880 Y113.562 E57.09795
G1 X107.192 Y113.871 E57.11672
G1 X106.488 Y114.136 E57.13543
G1 X105.796 Y114.351 E57.15346
G1 X105.055 Y114.533 E57.17245
G1 X104.344 Y114.662 E57.19043
G1 X103.594 Y114.752 E57.20923
G1 X102.855 Y114.796 E57.22765
G1 X102.115 Y114.795 E57.24606
G1 X101.377 Y114.749 E57.26446
G1 X100.623 Y114.657 E57.28336
G1 X99.900 Y114.524 E57.30165
G1 X99.195 Y114.349 E57.31973
G1 X98.470 Y114.121 E57.33864
G1 X97.765 Y113.853 E57.35741
G1 X97.108 Y113.557 E57.37534
G1 X96.438 Y113.204 E57.39418
G1 X95.822 Y112.830 E57.41211
G1 X95.183 Y112.388 E57.43144
G1 X94.625 Y111.950 E57.44910
G1 X94.054 Y111.442 E57.46811
G1 X93.529 Y110.917 E57.48659
G1 X93.038 Y110.361 E57.50504
G1 X92.588 Y109.786 E57.52321
G1 X92.159 Y109.162 E57.54205
G1 X91.777 Y108.529 E57.56045
G1 X91.437 Y107.877 E57.57875
G1 X91.129 Y107.192 E57.59744
G1 X90.861 Y106.481 E57.61634
G1 X90.649 Y105.796 E57.63419
G1 X90.465 Y105.048 E57.65335
G1 X90.338 Y104.344 E57.67115
G1 X90.247 Y103.585 E57.69017
G1 X90.204 Y102.855 E57.70837
G1 X90.205 Y102.115 E57.72678
G1 X90.251 Y101.377 E57.74518
G1 X90.344 Y100.616 E57.76426
G1 X90.476 Y99.899 E57.78240
G1 X90.650 Y99.200 E57.80032
G1 X90.879 Y98.470 E57.81936
G1 X91.148 Y97.762 E57.83821
G1 X91.443 Y97.108 E57.85606
G1 X91.796 Y96.438 E57.87490
G1 X92.168 Y95.824 E57.89277
G1 X92.612 Y95.183 E57.91217
G1 X93.048 Y94.627 E57.92975
G1 X93.558 Y94.054 E57.94884
G1 X94.083 Y93.529 E57.96731
G1 X94.639 Y93.038 E57.98577
G0 F3600 X95.191 Y99.819
G1 F1800 X94.699 Y99.899 E57.99817
G1 X94.219 Y100.032 E58.01057
G1 X93.757 Y100.216 E58.02294
G1 X93.316 Y100.450 E58.03536
G1 X92.905 Y100.729 E58.04772
G1 X92.525 Y101.051 E58.06012
G1 X92.183 Y101.412 E58.07249
G1 X91.881 Y101.808 E58.08488
G1 X91.624 Y102.234 E58.09726
G1 X91.415 Y102.687 E58.10967
G1 X91.256 Y103.159 E58.12207
G1 X91.149 Y103.645 E58.13445
G1 X91.095 Y104.139 E58.14682
G1 X91.095 Y104.637 E58.15921
G1 X91.148 Y105.132 E58.17159
G1 X91.253 Y105.613 E58.18385
G1 X91.474 Y106.318 E58.20223
G1 X91.735 Y107.002 E58.22045
G1 X92.039 Y107.668 E58.23866
G1 X92.383 Y108.314 E58.25687
G1 X92.768 Y108.937 E58.27510
G1 X93.191 Y109.536 E58.29334
G1 X93.650 Y110.105 E58.31153
G1 X94.145 Y110.646 E58.32978
G1 X94.673 Y111.154 E58.34801
G1 X95.230 Y111.628 E58.36621
G1 X95.818 Y112.066 E58.38446
G1 X96.431 Y112.466 E58.40267
G1 X97.068 Y112.827 E58.42089
G1 X97.726 Y113.147 E58.43909
G1 X98.403 Y113.426 E58.45731
G1 X99.097 Y113.661 E58.47555
G1 X99.804 Y113.853 E58.49377
G1 X100.521 Y114.000 E58.51199
G1 X101.246 Y114.101 E58.53020
G1 X101.976 Y114.157 E58.54842
G1 X102.707 Y114.167 E58.56661
G1 X103.439 Y114.131 E58.58485
G1 X104.167 Y114.049 E58.60307
G1 X104.887 Y113.922 E58.62127
G1 X105.616 Y113.746 E58.63993
G1 X106.292 Y113.493 E58.65789
G1 X106.943 Y113.135 E58.67637
G1 X107.357 Y112.820 E58.68932
G1 X107.852 Y112.318 E58.70686
G1 X108.034 Y112.107 E58.71379
G1 X108.314 Y111.695 E58.72619
G1 X108.548 Y111.256 E58.73857
G1 X108.733 Y110.793 E58.75097
G1 X108.868 Y110.314 E58.76336
G1 X108.949 Y109.823 E58.77574
G1 X108.977 Y109.325 E58.78815
G1 X108.950 Y108.828 E58.80054
G1 X108.871 Y108.337 E58.81291
G1 X108.736 Y107.847 E58.82556
G1 X108.453 Y107.199 E58.84315
G1 X108.323 Y106.953 E58.85008
G1 X108.045 Y106.541 E58.86244
G1 X107.722 Y106.160 E58.87487
G1 X107.362 Y105.817 E58.88724
G1 X106.966 Y105.515 E58.89964
G1 X106.539 Y105.257 E58.91205
G1 X106.089 Y105.048 E58.92440
G1 X105.618 Y104.887 E58.93678
G1 X105.131 Y104.779 E58.94919
G1 X104.635 Y104.725 E58.96161
G1 X104.138 Y104.724 E58.97398
G1 X103.643 Y104.777 E58.98636
G1 X102.863 Y104.944 E59.00621
G1 X102.568 Y104.970 E59.01358
G1 X102.266 Y104.960 E59.02110
G1 X101.975 Y104.915 E59.02843
G1 X101.688 Y104.834 E59.03585
G1 X101.415 Y104.721 E59.04320
G1 X101.154 Y104.573 E59.05066
G1 X100.914 Y104.395 E59.05810
G1 X100.699 Y104.192 E59.06546
G1 X100.507 Y103.961 E59.07293
G1 X100.343 Y103.707 E59.08045
G1 X100.217 Y103.447 E59.08764
G1 X100.034 Y102.910 E59.10176
G1 X99.756 Y102.245 E59.11969
G1 X99.494 Y101.811 E59.13231
G1 X99.193 Y101.415 E59.14469
G1 X98.850 Y101.052 E59.15711
G1 X98.470 Y100.730 E59.16951
G1 X98.059 Y100.451 E59.18187
G1 X97.619 Y100.218 E59.19426
G1 X97.157 Y100.033 E59.20664
G1 X96.677 Y99.899 E59.21904
G1 X96.184 Y99.819 E59.23147
G1 X95.688 Y99.792 E59.24383
G1 X95.191 Y99.819 E59.25621
G0 F3600 X95.234 Y100.216
;TYPE:WALL-OUTER
G1 F1680 X94.785 Y100.289 E59.26753
G1 X94.346 Y100.411 E59.27887
G1 X93.924 Y100.579 E59.29017
G1 X93.522 Y100.792 E59.30149
G1 X93.146 Y101.047 E59.31279
G1 X92.800 Y101.341 E59.32409
G1 X92.487 Y101.671 E59.33541
G1 X92.211 Y102.033 E59.34674
G1 X91.977 Y102.422 E59.35803
G1 X91.786 Y102.834 E59.36933
G1 X91.641 Y103.266 E59.38067
G1 X91.543 Y103.710 E59.39199
G1 X91.494 Y104.161 E59.40327
G1 X91.494 Y104.616 E59.41459
G1 X91.542 Y105.068 E59.42591
G1 X91.639 Y105.510 E59.43716
G1 X91.851 Y106.187 E59.45482
G1 X92.103 Y106.848 E59.47242
G1 X92.396 Y107.491 E59.49000
G1 X92.729 Y108.115 E59.50760
G1 X93.101 Y108.717 E59.52521
G1 X93.509 Y109.295 E59.54281
G1 X93.953 Y109.845 E59.56040
G1 X94.430 Y110.367 E59.57800
G1 X94.940 Y110.858 E59.59561
G1 X95.479 Y111.316 E59.61321
G1 X96.046 Y111.738 E59.63080
G1 X96.638 Y112.125 E59.64840
G1 X97.253 Y112.473 E59.66598
G1 X97.889 Y112.783 E59.68359
G1 X98.543 Y113.052 E59.70118
G1 X99.213 Y113.279 E59.71879
G1 X99.896 Y113.465 E59.73640
G1 X100.588 Y113.606 E59.75397
G1 X101.289 Y113.704 E59.77158
G1 X101.994 Y113.758 E59.78918
G1 X102.700 Y113.768 E59.80675
G1 X103.407 Y113.733 E59.82436
G1 X104.110 Y113.654 E59.84196
G1 X104.806 Y113.531 E59.85955
G1 X105.498 Y113.364 E59.87726
G1 X106.125 Y113.129 E59.89392
G1 X106.725 Y112.799 E59.91096
G1 X107.093 Y112.520 E59.92245
G1 X107.558 Y112.048 E59.93894
G1 X107.716 Y111.864 E59.94498
G1 X107.972 Y111.488 E59.95629
G1 X108.186 Y111.087 E59.96760
G1 X108.355 Y110.665 E59.97892
G1 X108.478 Y110.227 E59.99024
G1 X108.552 Y109.779 E60.00153
G1 X108.577 Y109.324 E60.01287
G1 X108.553 Y108.871 E60.02416
G1 X108.481 Y108.422 E60.03548
G1 X108.359 Y107.980 E60.04689
G1 X108.093 Y107.372 E60.06340
G1 X107.980 Y107.158 E60.06942
G1 X107.726 Y106.782 E60.08071
G1 X107.432 Y106.434 E60.09205
G1 X107.102 Y106.121 E60.10336
G1 X106.741 Y105.845 E60.11467
G1 X106.352 Y105.610 E60.12598
G1 X105.940 Y105.419 E60.13728
G1 X105.510 Y105.272 E60.14859
G1 X105.065 Y105.173 E60.15993
G1 X104.613 Y105.124 E60.17124
G1 X104.159 Y105.123 E60.18254
G1 X103.706 Y105.171 E60.19388
G1 X102.917 Y105.341 E60.21396
G1 X102.582 Y105.370 E60.22233
G1 X102.235 Y105.358 E60.23096
G1 X101.885 Y105.305 E60.23977
G1 X101.562 Y105.214 E60.24812
G1 X101.236 Y105.078 E60.25691
G1 X100.936 Y104.908 E60.26549
G1 X100.658 Y104.702 E60.27410
G1 X100.407 Y104.464 E60.28271
G1 X100.185 Y104.197 E60.29135
G1 X99.997 Y103.907 E60.29995
G1 X99.845 Y103.592 E60.30865
G1 X99.661 Y103.051 E60.32287
G1 X99.399 Y102.427 E60.33971
G1 X99.163 Y102.035 E60.35110
G1 X98.888 Y101.673 E60.36241
G1 X98.575 Y101.342 E60.37374
G1 X98.229 Y101.048 E60.38504
G1 X97.853 Y100.793 E60.39635
G1 X97.451 Y100.580 E60.40767
G1 X97.029 Y100.411 E60.41898
G1 X96.591 Y100.289 E60.43029
G1 X96.141 Y100.216 E60.44163
G1 X95.688 Y100.192 E60.45292
G1 X95.234 Y100.216 E60.46423
G0 F3600 X95.217 Y99.916
G0 X97.037 Y98.420
G0 X97.266 Y98.228
G1 F1680 X97.561 Y98.574 E60.47555
G1 X97.891 Y98.887 E60.48687
G1 X98.253 Y99.162 E60.49818
G1 X98.643 Y99.396 E60.50949
G1 X99.058 Y99.589 E60.52088
G1 X99.694 Y99.779 E60.53740
G1 X99.930 Y99.831 E60.54341
G1 X100.382 Y99.880 E60.55473
G1 X100.837 Y99.880 E60.56605
G1 X101.289 Y99.831 E60.57736
G1 X102.070 Y99.661 E60.59725
G1 X102.416 Y99.630 E60.60589
G1 X102.760 Y99.641 E60.61446
G1 X103.105 Y99.694 E60.62314
G1 X103.443 Y99.789 E60.63188
G1 X103.761 Y99.921 E60.64044
G1 X104.062 Y100.091 E60.64905
G1 X104.339 Y100.295 E60.65761
G1 X104.703 Y100.668 E60.67057
G1 X104.814 Y100.802 E60.67490
G1 X105.002 Y101.092 E60.68350
G1 X105.155 Y101.408 E60.69224
G1 X105.339 Y101.949 E60.70646
G1 X105.601 Y102.573 E60.72330
G1 X105.837 Y102.965 E60.73468
G1 X106.112 Y103.327 E60.74600
G1 X106.425 Y103.658 E60.75733
G1 X106.771 Y103.952 E60.76863
G1 X107.147 Y104.207 E60.77993
G1 X107.549 Y104.420 E60.79125
G1 X107.971 Y104.589 E60.80257
G1 X108.409 Y104.711 E60.81388
G1 X108.859 Y104.784 E60.82522
G1 X109.312 Y104.808 E60.83651
G1 X109.766 Y104.784 E60.84782
G1 X110.215 Y104.711 E60.85914
G1 X110.654 Y104.589 E60.87048
G1 X111.076 Y104.421 E60.88178
G1 X111.478 Y104.208 E60.89310
G1 X111.854 Y103.953 E60.90441
G1 X112.200 Y103.659 E60.91570
G1 X112.513 Y103.329 E60.92702
G1 X112.789 Y102.967 E60.93835
G1 X113.023 Y102.578 E60.94964
G1 X113.214 Y102.166 E60.96094
G1 X113.359 Y101.734 E60.97228
G1 X113.457 Y101.290 E60.98360
G1 X113.506 Y100.839 E60.99488
G1 X113.506 Y100.384 E61.00621
G1 X113.458 Y99.932 E61.01752
G1 X113.361 Y99.490 E61.02878
G1 X113.149 Y98.812 E61.04645
G1 X112.897 Y98.150 E61.06408
G1 X112.602 Y97.507 E61.08168
G1 X112.270 Y96.882 E61.09929
G1 X111.897 Y96.279 E61.11693
G1 X111.488 Y95.702 E61.13453
G1 X111.043 Y95.151 E61.15216
G1 X110.564 Y94.629 E61.16978
G1 X110.055 Y94.138 E61.18738
G1 X109.515 Y93.680 E61.20500
G1 X108.947 Y93.257 E61.22262
G1 X108.354 Y92.870 E61.24024
G1 X107.737 Y92.522 E61.25787
G1 X107.100 Y92.212 E61.27550
G1 X106.446 Y91.944 E61.29308
G1 X105.775 Y91.716 E61.31072
G1 X105.092 Y91.532 E61.32832
G1 X104.397 Y91.392 E61.34596
G1 X103.696 Y91.294 E61.36357
G1 X102.991 Y91.241 E61.38116
G1 X102.283 Y91.232 E61.39878
G1 X101.577 Y91.269 E61.41637
G1 X100.873 Y91.348 E61.43400
G1 X100.176 Y91.473 E61.45162
G1 X99.486 Y91.641 E61.46929
G1 X99.057 Y91.785 E61.48055
G1 X98.645 Y91.976 E61.49185
G1 X98.254 Y92.210 E61.50319
G1 X97.893 Y92.485 E61.51448
G1 X97.562 Y92.798 E61.52582
G1 X97.268 Y93.144 E61.53711
G1 X97.012 Y93.521 E61.54845
G1 X96.799 Y93.922 E61.55975
G1 X96.631 Y94.345 E61.57108
G1 X96.509 Y94.783 E61.58239
G1 X96.436 Y95.231 E61.59368
G1 X96.411 Y95.686 E61.60502
G1 X96.436 Y96.140 E61.61634
G1 X96.509 Y96.589 E61.62766
G1 X96.630 Y97.027 E61.63896
G1 X96.799 Y97.449 E61.65027
G1 X97.011 Y97.850 E61.66156
G1 X97.266 Y98.228 E61.67291
G0 F3600 X97.037 Y98.420
G0 X92.988 Y94.543
G0 X92.758 Y94.352
G1 F1680 X93.260 Y93.788 E61.69169
G1 X93.811 Y93.237 E61.71108
G1 X94.377 Y92.737 E61.72988
G1 X94.991 Y92.257 E61.74927
G1 X95.623 Y91.823 E61.76834
G1 X96.281 Y91.426 E61.78747
G1 X96.949 Y91.077 E61.80622
G1 X97.660 Y90.758 E61.82561
G1 X98.367 Y90.491 E61.84442
G1 X99.111 Y90.260 E61.86380
G1 X99.844 Y90.080 E61.88258
G1 X100.600 Y89.943 E61.90170
G1 X101.368 Y89.851 E61.92095
G1 X102.139 Y89.805 E61.94016
G1 X102.894 Y89.806 E61.95895
G1 X103.663 Y89.854 E61.97812
G1 X104.430 Y89.948 E61.99735
G1 X105.187 Y90.087 E62.01650
G1 X105.924 Y90.270 E62.03540
G1 X106.656 Y90.499 E62.05448
G1 X107.380 Y90.775 E62.07376
G1 X108.069 Y91.085 E62.09256
G1 X108.758 Y91.448 E62.11194
G1 X109.404 Y91.840 E62.13074
G1 X110.035 Y92.277 E62.14984
G1 X110.648 Y92.758 E62.16923
G1 X111.212 Y93.260 E62.18802
G1 X111.763 Y93.811 E62.20741
G1 X112.263 Y94.377 E62.22620
G1 X112.743 Y94.991 E62.24559
G1 X113.177 Y95.623 E62.26467
G1 X113.574 Y96.281 E62.28379
G1 X113.923 Y96.949 E62.30254
G1 X114.242 Y97.660 E62.32193
G1 X114.509 Y98.367 E62.34074
G1 X114.740 Y99.111 E62.36012
G1 X114.920 Y99.844 E62.37890
G1 X115.057 Y100.600 E62.39802
G1 X115.149 Y101.361 E62.41709
G1 X115.195 Y102.139 E62.43649
G1 X115.194 Y102.894 E62.45527
G1 X115.147 Y103.659 E62.47434
G1 X115.053 Y104.424 E62.49352
G1 X114.913 Y105.187 E62.51283
G1 X114.731 Y105.920 E62.53162
G1 X114.502 Y106.652 E62.55070
G1 X114.225 Y107.380 E62.57008
G1 X113.915 Y108.069 E62.58888
G1 X113.552 Y108.757 E62.60824
G1 X113.160 Y109.404 E62.62706
G1 X112.723 Y110.035 E62.64616
G1 X112.242 Y110.648 E62.66555
G1 X111.740 Y111.212 E62.68434
G1 X111.189 Y111.763 E62.70373
G1 X110.623 Y112.263 E62.72252
G1 X110.010 Y112.742 E62.74188
G1 X109.377 Y113.177 E62.76099
G1 X108.722 Y113.572 E62.78002
G1 X108.051 Y113.923 E62.79886
G1 X107.340 Y114.242 E62.81825
G1 X106.633 Y114.509 E62.83706
G1 X105.890 Y114.740 E62.85642
G1 X105.156 Y114.920 E62.87523
G1 X104.400 Y115.057 E62.89434
G1 X103.632 Y115.149 E62.91359
G1 X102.861 Y115.195 E62.93281
G1 X102.106 Y115.194 E62.95159
G1 X101.337 Y115.146 E62.97077
G1 X100.570 Y115.052 E62.98999
G1 X99.813 Y114.913 E63.00915
G1 X99.076 Y114.730 E63.02804
G1 X98.344 Y114.501 E63.04713
G1 X97.620 Y114.225 E63.06641
G1 X96.930 Y113.915 E63.08523
G1 X96.242 Y113.552 E63.10458
G1 X95.596 Y113.160 E63.12339
G1 X94.964 Y112.722 E63.14252
G1 X94.352 Y112.242 E63.16187
G1 X93.786 Y111.738 E63.18073
G1 X93.237 Y111.189 E63.20005
G1 X92.737 Y110.623 E63.21884
G1 X92.257 Y110.009 E63.23823
G1 X91.823 Y109.377 E63.25731
G1 X91.426 Y108.719 E63.27643
G1 X91.077 Y108.051 E63.29519
G1 X90.758 Y107.340 E63.31458
G1 X90.490 Y106.631 E63.33344
G1 X90.260 Y105.889 E63.35277
G1 X90.080 Y105.156 E63.37155
G1 X89.943 Y104.400 E63.39067
G1 X89.850 Y103.627 E63.41004
G1 X89.805 Y102.861 E63.42913
G1 X89.806 Y102.106 E63.44792
G1 X89.853 Y101.341 E63.46699
G1 X89.948 Y100.567 E63.48639
G1 X90.087 Y99.813 E63.50547
G1 X90.269 Y99.080 E63.52426
G1 X90.498 Y98.348 E63.54335
G1 X90.775 Y97.620 E63.56273
G1 X91.085 Y96.931 E63.58153
G1 X91.448 Y96.242 E63.60091
G1 X91.840 Y95.596 E63.61971
G1 X92.277 Y94.965 E63.63881
G1 X92.758 Y94.352 E63.65820
G0 F3600 X93.478 Y94.890
;TYPE:SKIN
G1 F1980 X95.730 Y97.142 E63.73744
G0 F3600 X95.571 Y96.418
G1 F1980 X93.744 Y94.591 E63.80174
G0 F3600 X94.016 Y94.299
G1 F1980 X95.517 Y95.800 E63.85455
G0 F3600 X95.534 Y95.252
G1 F1980 X94.299 Y94.017 E63.89801
G0 F3600 X94.591 Y93.745
G1 F1980 X95.603 Y94.757 E63.93363
G0 F3600 X95.711 Y94.301
G1 F1980 X94.890 Y93.480 E63.96252
G0 F3600 X95.204 Y93.229
G1 F1980 X95.851 Y93.876 E63.98528
G0 F3600 X96.017 Y93.478
G1 F1980 X95.688 Y92.868 E64.00270
G1 X96.324 Y92.939 E64.01523
G1 X96.370 Y92.421 E64.02373
G1 X96.680 Y92.449 E64.03148
G0 F3600 X93.228 Y95.204
G1 F1980 X96.133 Y98.109 E64.13370
G0 F3600 X96.216 Y99.320
G1 F1980 X92.751 Y95.856 E64.25561
G0 F3600 X92.526 Y96.194
G1 F1980 X95.626 Y99.295 E64.36472
G0 F3600 X95.095 Y99.327
G1 F1980 X92.312 Y96.545 E64.46263
G0 F3600 X92.111 Y96.908
G1 F1980 X94.610 Y99.407 E64.55057
G0 F3600 X94.166 Y99.528
G1 F1980 X91.916 Y97.278 E64.62975
G0 F3600 X91.738 Y97.664
G1 F1980 X93.753 Y99.679 E64.70066
G0 F3600 X93.366 Y99.856
G1 F1980 X91.568 Y98.058 E64.76393
G0 F3600 X91.412 Y98.466
G1 F1980 X93.003 Y100.057 E64.81991
G0 F3600 X92.667 Y100.285
G1 F1980 X91.269 Y98.887 E64.86911
G0 F3600 X91.135 Y99.318
G1 F1980 X92.355 Y100.538 E64.91204
G0 F3600 X92.064 Y100.811
G1 F1980 X91.023 Y99.769 E64.94869
G0 F3600 X92.982 Y95.522
G1 F1980 X96.902 Y99.442 E65.08663
G0 F3600 X99.267 Y100.678
G1 F1980 X102.992 Y104.404 E65.21773
G0 F3600 X103.457 Y104.304
G1 F1980 X99.881 Y100.728 E65.34357
G0 F3600 X95.688 Y99.791
G0 X93.316 Y100.450
G0 X91.791 Y101.102
G1 F1980 X90.922 Y100.233 E65.37415
G0 F3600 X90.834 Y100.710
G1 F1980 X91.547 Y101.423 E65.39924
G0 F3600 X91.324 Y101.764
G1 F1980 X90.750 Y101.472 E65.41860
G1 X91.034 Y102.321 E65.43250
G1 X90.703 Y102.271 E65.44083
G0 F3600 X94.220 Y100.032
G0 X96.676 Y99.899
G0 X98.850 Y101.052
G0 X100.315 Y102.291
G1 F1980 X102.491 Y104.467 E65.51740
G0 F3600 X101.799 Y104.339
G1 F1980 X100.658 Y103.198 E65.55755
G0 F3600 X100.494 Y100.777
G1 F1980 X103.956 Y104.239 E65.67938
G0 F3600 X104.506 Y104.224
G1 F1980 X101.042 Y100.761 E65.80126
G0 F3600 X101.540 Y100.694
G1 F1980 X105.121 Y104.275 E65.92727
G0 F3600 X105.731 Y104.321
G1 F1980 X102.004 Y100.594 E66.05842
G0 F3600 X102.506 Y100.532
G1 F1980 X104.684 Y102.710 E66.13506
G0 F3600 X104.339 Y101.801
G1 F1980 X103.199 Y100.660 E66.17520
G1 F3000 E62.67520
G0 F3600 X108.094 Y105.556
G1 F3000 E66.17520
G1 F1980 X112.016 Y109.477 E66.31319
G0 F3600 X111.770 Y109.796
G1 F1980 X108.840 Y106.866 E66.41630
G0 F3600 X109.252 Y107.842
G1 F1980 X111.519 Y110.109 E66.49607
G0 F3600 X111.253 Y110.407
G1 F1980 X109.412 Y108.567 E66.56084
G0 F3600 X109.467 Y109.186
G1 F1980 X110.981 Y110.699 E66.61410
G0 F3600 X110.698 Y110.981
G1 F1980 X109.453 Y109.735 E66.65793
G0 F3600 X109.385 Y110.232
G1 F1980 X110.406 Y111.254 E66.69387
G0 F3600 X110.107 Y111.519
G1 F1980 X109.279 Y110.691 E66.72301
G0 F3600 X109.140 Y111.116
G1 F1980 X109.794 Y111.770 E66.74602
G0 F3600 X109.477 Y112.017
G1 F1980 X108.876 Y111.698 E66.76368
G1 X108.972 Y112.359 E66.77646
G1 X108.434 Y112.384 E66.78516
G1 X108.451 Y112.684 E66.79264
G0 F3600 X112.246 Y109.144
G1 F1980 X108.782 Y105.679 E66.91455
G0 F3600 X109.371 Y105.703
G1 F1980 X112.472 Y108.805 E67.02369
G0 F3600 X112.685 Y108.453
G1 F1980 X109.903 Y105.672 E67.12157
G0 F3600 X110.387 Y105.592
G1 F1980 X112.887 Y108.091 E67.20953
G0 F3600 X113.081 Y107.722
G1 F1980 X110.831 Y105.471 E67.28872
G0 F3600 X111.244 Y105.320
G1 F1980 X113.259 Y107.335 E67.35963
G0 F3600 X113.429 Y106.941
G1 F1980 X111.631 Y105.143 E67.42290
G0 F3600 X111.995 Y104.942
G1 F1980 X113.586 Y106.533 E67.47889
G0 F3600 X113.730 Y106.113
G1 F1980 X112.330 Y104.714 E67.52814
G0 F3600 X112.642 Y104.461
G1 F1980 X113.863 Y105.682 E67.57110
G0 F3600 X113.975 Y105.230
G1 F1980 X112.934 Y104.188 E67.60775
G0 F3600 X113.207 Y103.897
G1 F1980 X114.076 Y104.766 E67.63833
G0 F3600 X114.164 Y104.290
G1 F1980 X113.451 Y103.577 E67.66342
G0 F3600 X113.673 Y103.235
G1 F1980 X114.248 Y103.528 E67.68286
G1 X113.963 Y102.678 E67.69678
G1 X114.296 Y102.729 E67.70516
G1 F3000 E64.20516
G0 F3600 X110.639 Y103.734
;TYPE:SUPPORT
G1 F3000 E67.70516
G1 F1980 X110.639 Y95.926 E67.89945
G0 F3600 X110.485 Y96.050
G0 X107.864 Y93.742
G0 X107.973 Y93.577
G1 F1980 X107.973 Y103.727 E68.15201
G0 F3600 X108.047 Y103.544
G0 X105.460 Y100.018
G0 X105.307 Y100.143
G1 F1980 X105.307 Y92.419 E68.34420
G0 F3600 X105.255 Y92.610
G0 X102.638 Y92.235
G0 X102.641 Y92.037
G1 F1980 X102.641 Y98.836 E68.51338
G0 F3600 X102.648 Y98.638
G0 X100.021 Y98.828
G0 X99.975 Y99.021
G1 F1980 X99.975 Y92.344 E68.67952
G0 F3600 X100.021 Y92.538
G0 X97.500 Y94.944
G0 X97.309 Y94.891
G1 F1980 X97.309 Y96.475 E68.71894
G1 F3000 E65.21894
G0 F3600 X97.309 Y101.410
G1 F3000 E68.71894
G1 F1980 X97.309 Y111.586 E68.97214
G0 F3600 X97.407 Y111.414
G0 X100.026 Y112.465
G0 X99.975 Y112.656
G1 F1980 X99.975 Y105.157 E69.15874
G0 F3600 X99.838 Y105.300
G0 X94.695 Y101.352
G0 X94.643 Y101.159
G1 F1980 X94.643 Y109.413 E69.36412
G0 F3600 X94.789 Y109.280
G0 X102.656 Y106.365
G0 X102.641 Y106.166
G1 F1980 X102.641 Y112.966 E69.53332
G0 F3600 X102.644 Y112.768
G0 X105.237 Y112.395
G0 X105.307 Y112.582
G1 F1980 X105.307 Y106.049 E69.69588
;LAYER:3
M117 Nb = 4 / 46
G0 F3600 X105.663 Y105.008 Z0.710
G0 X105.726 Y104.503
;TYPE:WALL-INNER
G1 F2220 X105.196 Y104.385 E69.70939
G1 X104.657 Y104.326 E69.72289
G1 X104.117 Y104.325 E69.73632
G1 X103.580 Y104.382 E69.74976
G1 X102.799 Y104.550 E69.76964
G1 X102.555 Y104.571 E69.77573
G1 X102.315 Y104.563 E69.78171
G1 X102.053 Y104.523 E69.78830
G1 X101.824 Y104.458 E69.79422
G1 X101.591 Y104.362 E69.80049
G1 X101.369 Y104.235 E69.80686
G1 X101.175 Y104.092 E69.81286
G1 X100.988 Y103.915 E69.81926
G1 X100.827 Y103.721 E69.82554
G1 X100.697 Y103.520 E69.83149
G1 X100.585 Y103.290 E69.83786
G1 X100.330 Y102.539 E69.85759
G1 X100.103 Y102.049 E69.87103
G1 X99.824 Y101.587 E69.88446
G1 X99.497 Y101.156 E69.89792
G1 X99.125 Y100.762 E69.91140
G1 X98.712 Y100.412 E69.92487
G1 X98.265 Y100.109 E69.93831
G1 X97.787 Y99.855 E69.95178
G1 X97.285 Y99.654 E69.96524
G1 X96.763 Y99.509 E69.97872
G1 X96.227 Y99.421 E69.99223
G1 X95.688 Y99.393 E70.00566
G1 X95.148 Y99.421 E70.01912
G1 X94.613 Y99.509 E70.03261
G1 X94.091 Y99.654 E70.04609
G1 X93.589 Y99.854 E70.05953
G1 X93.110 Y100.108 E70.07303
G1 X92.663 Y100.411 E70.08646
G1 X92.251 Y100.761 E70.09991
G1 X91.879 Y101.153 E70.11336
G1 X91.550 Y101.584 E70.12685
G1 X91.271 Y102.047 E70.14030
G1 X91.043 Y102.539 E70.15380
G1 X90.871 Y103.053 E70.16728
G1 X90.755 Y103.580 E70.18071
G1 X90.704 Y104.046 E70.19238
G1 X90.645 Y103.556 E70.20466
G1 X90.603 Y102.845 E70.22238
G1 X90.604 Y102.123 E70.24034
G1 X90.648 Y101.417 E70.25794
G1 X90.738 Y100.684 E70.27632
G1 X90.866 Y99.991 E70.29386
G1 X91.044 Y99.275 E70.31221
G1 X91.250 Y98.615 E70.32942
G1 X91.514 Y97.923 E70.34785
G1 X91.805 Y97.276 E70.36550
G1 X92.144 Y96.633 E70.38359
G1 X92.505 Y96.039 E70.40088
G1 X92.933 Y95.420 E70.41961
G1 X93.357 Y94.879 E70.43671
G1 X93.848 Y94.328 E70.45508
G1 X94.356 Y93.820 E70.47295
G1 X94.894 Y93.345 E70.49081
G1 X95.447 Y92.913 E70.50827
G1 X96.053 Y92.496 E70.52658
G1 X96.677 Y92.120 E70.54470
G1 X97.293 Y91.797 E70.56201
G1 X97.745 Y91.595 E70.57433
G1 X97.376 Y91.876 E70.58587
G1 X96.982 Y92.248 E70.59935
G1 X96.632 Y92.661 E70.61282
G1 X96.328 Y93.108 E70.62628
G1 X96.074 Y93.587 E70.63977
G1 X95.874 Y94.091 E70.65326
G1 X95.729 Y94.611 E70.66669
G1 X95.641 Y95.144 E70.68013
G1 X95.611 Y95.686 E70.69364
G1 X95.641 Y96.226 E70.70710
G1 X95.729 Y96.760 E70.72056
G1 X95.873 Y97.282 E70.73404
G1 X96.074 Y97.784 E70.74749
G1 X96.326 Y98.262 E70.76094
G1 X96.630 Y98.711 E70.77443
G1 X96.981 Y99.124 E70.78792
G1 X97.373 Y99.496 E70.80136
G1 X97.805 Y99.824 E70.81486
G1 X98.268 Y100.102 E70.82830
G1 X98.758 Y100.329 E70.84174
G1 X99.271 Y100.503 E70.85522
G1 X99.800 Y100.619 E70.86869
G1 X100.339 Y100.678 E70.88218
G1 X100.880 Y100.678 E70.89564
G1 X101.417 Y100.619 E70.90909
G1 X102.189 Y100.452 E70.92874
G1 X102.438 Y100.430 E70.93496
G1 X102.694 Y100.437 E70.94133
G1 X102.935 Y100.475 E70.94740
G1 X103.177 Y100.543 E70.95366
G1 X103.414 Y100.641 E70.96004
G1 X103.622 Y100.759 E70.96599
G1 X103.831 Y100.912 E70.97244
G1 X104.007 Y101.079 E70.97847
G1 X104.172 Y101.278 E70.98491
G1 X104.305 Y101.483 E70.99099
G1 X104.414 Y101.707 E70.99718
G1 X104.670 Y102.461 E71.01700
G1 X104.897 Y102.951 E71.03044
G1 X105.176 Y103.413 E71.04386
G1 X105.503 Y103.844 E71.05733
G1 X105.875 Y104.238 E71.07081
G1 X106.288 Y104.588 E71.08428
G1 X106.735 Y104.891 E71.09772
G1 X107.213 Y105.145 E71.11119
G1 X107.715 Y105.346 E71.12464
G1 X108.237 Y105.491 E71.13812
G1 X108.773 Y105.579 E71.15164
G1 X109.312 Y105.607 E71.16507
G1 X109.852 Y105.579 E71.17852
G1 X110.387 Y105.491 E71.19201
G1 X110.909 Y105.346 E71.20549
G1 X111.411 Y105.146 E71.21894
G1 X111.890 Y104.892 E71.23243
G1 X112.337 Y104.589 E71.24587
G1 X112.749 Y104.239 E71.25932
G1 X113.121 Y103.847 E71.27277
G1 X113.450 Y103.416 E71.28626
G1 X113.729 Y102.953 E71.29971
G1 X113.957 Y102.461 E71.31320
G1 X114.129 Y101.947 E71.32669
G1 X114.245 Y101.420 E71.34012
G1 X114.296 Y100.954 E71.35178
G1 X114.355 Y101.444 E71.36406
G1 X114.397 Y102.152 E71.38171
G1 X114.396 Y102.873 E71.39965
G1 X114.353 Y103.580 E71.41727
G1 X114.264 Y104.305 E71.43545
G1 X114.134 Y105.009 E71.45326
G1 X113.959 Y105.715 E71.47136
G1 X113.750 Y106.385 E71.48883
G1 X113.486 Y107.077 E71.50726
G1 X113.197 Y107.720 E71.52480
G1 X112.860 Y108.360 E71.54279
G1 X112.495 Y108.961 E71.56029
G1 X112.067 Y109.580 E71.57902
G1 X111.643 Y110.121 E71.59612
G1 X111.154 Y110.670 E71.61441
G1 X110.648 Y111.176 E71.63222
G1 X110.108 Y111.654 E71.65016
G1 X109.553 Y112.087 E71.66768
G1 X108.947 Y112.504 E71.68598
G1 X108.323 Y112.880 E71.70411
G1 X107.707 Y113.203 E71.72142
G1 X107.232 Y113.416 E71.73437
G1 X107.606 Y113.132 E71.74606
G1 X107.999 Y112.762 E71.75949
G1 X108.352 Y112.349 E71.77301
G1 X108.656 Y111.901 E71.78648
G1 X108.910 Y111.424 E71.79993
G1 X109.111 Y110.922 E71.81338
G1 X109.258 Y110.401 E71.82685
G1 X109.346 Y109.867 E71.84032
G1 X109.376 Y109.325 E71.85382
G1 X109.348 Y108.786 E71.86725
G1 X109.262 Y108.251 E71.88074
G1 X109.118 Y107.730 E71.89419
G1 X108.918 Y107.226 E71.90768
G1 X108.666 Y106.748 E71.92113
G1 X108.363 Y106.300 E71.93458
G1 X108.013 Y105.885 E71.94809
G1 X107.621 Y105.513 E71.96154
G1 X107.191 Y105.185 E71.97500
G1 X106.727 Y104.905 E71.98848
G1 X106.238 Y104.678 E72.00190
G1 X105.726 Y104.503 E72.01536
G0 F3600 X105.618 Y104.887
G1 F2220 X105.131 Y104.779 E72.02777
G1 X104.635 Y104.725 E72.04019
G1 X104.138 Y104.724 E72.05255
G1 X103.643 Y104.777 E72.06494
G1 X102.863 Y104.944 E72.08479
G1 X102.568 Y104.970 E72.09216
G1 X102.266 Y104.960 E72.09968
G1 X101.975 Y104.915 E72.10700
G1 X101.688 Y104.834 E72.11442
G1 X101.415 Y104.721 E72.12178
G1 X101.154 Y104.573 E72.12924
G1 X100.914 Y104.395 E72.13668
G1 X100.699 Y104.192 E72.14403
G1 X100.507 Y103.961 E72.15151
G1 X100.343 Y103.707 E72.15903
G1 X100.218 Y103.447 E72.16621
G1 X99.959 Y102.687 E72.18619
G1 X99.750 Y102.236 E72.19856
G1 X99.494 Y101.811 E72.21090
G1 X99.193 Y101.415 E72.22328
G1 X98.850 Y101.052 E72.23571
G1 X98.470 Y100.730 E72.24810
G1 X98.059 Y100.451 E72.26046
G1 X97.619 Y100.218 E72.27285
G1 X97.157 Y100.033 E72.28523
G1 X96.677 Y99.899 E72.29763
G1 X96.184 Y99.819 E72.31006
G1 X95.688 Y99.792 E72.32242
G1 X95.191 Y99.819 E72.33481
G1 X94.699 Y99.899 E72.34721
G1 X94.219 Y100.032 E72.35960
G1 X93.757 Y100.216 E72.37198
G1 X93.316 Y100.450 E72.38440
G1 X92.905 Y100.729 E72.39676
G1 X92.525 Y101.051 E72.40915
G1 X92.183 Y101.412 E72.42153
G1 X91.881 Y101.808 E72.43392
G1 X91.624 Y102.234 E72.44630
G1 X91.415 Y102.687 E72.45871
G1 X91.256 Y103.159 E72.47110
G1 X91.149 Y103.645 E72.48349
G1 X91.095 Y104.139 E72.49585
G1 X91.095 Y104.637 E72.50824
G1 X91.148 Y105.132 E72.52063
G1 X91.253 Y105.613 E72.53288
G1 X91.474 Y106.318 E72.55127
G1 X91.735 Y107.002 E72.56948
G1 X92.039 Y107.668 E72.58770
G1 X92.383 Y108.314 E72.60591
G1 X92.768 Y108.937 E72.62413
G1 X93.191 Y109.536 E72.64238
G1 X93.650 Y110.105 E72.66057
G1 X94.145 Y110.646 E72.67882
G1 X94.673 Y111.154 E72.69705
G1 X95.230 Y111.628 E72.71525
G1 X95.818 Y112.066 E72.73349
G1 X96.431 Y112.466 E72.75170
G1 X97.068 Y112.827 E72.76992
G1 X97.726 Y113.147 E72.78813
G1 X98.403 Y113.426 E72.80635
G1 X99.097 Y113.661 E72.82458
G1 X99.804 Y113.853 E72.84281
G1 X100.521 Y114.000 E72.86102
G1 X101.246 Y114.101 E72.87924
G1 X101.976 Y114.157 E72.89746
G1 X102.707 Y114.167 E72.91565
G1 X103.439 Y114.131 E72.93388
G1 X104.167 Y114.049 E72.95211
G1 X104.887 Y113.922 E72.97030
G1 X105.606 Y113.748 E72.98871
G1 X106.072 Y113.592 E73.00094
G1 X106.524 Y113.384 E73.01332
G1 X106.951 Y113.128 E73.02571
G1 X107.348 Y112.827 E73.03810
G1 X107.710 Y112.486 E73.05048
G1 X108.034 Y112.106 E73.06290
G1 X108.314 Y111.695 E73.07528
G1 X108.548 Y111.256 E73.08766
G1 X108.733 Y110.793 E73.10006
G1 X108.868 Y110.314 E73.11245
G1 X108.949 Y109.823 E73.12483
G1 X108.977 Y109.325 E73.13724
G1 X108.950 Y108.828 E73.14963
G1 X108.871 Y108.337 E73.16200
G1 X108.739 Y107.857 E73.17439
G1 X108.555 Y107.393 E73.18681
G1 X108.323 Y106.953 E73.19918
G1 X108.045 Y106.541 E73.21155
G1 X107.722 Y106.160 E73.22398
G1 X107.362 Y105.817 E73.23635
G1 X106.966 Y105.515 E73.24875
G1 X106.539 Y105.257 E73.26116
G1 X106.089 Y105.048 E73.27351
G1 X105.618 Y104.887 E73.28589
G0 F3600 X106.150 Y103.948
G1 F2220 X106.530 Y104.270 E73.29828
G1 X106.941 Y104.549 E73.31064
G1 X107.381 Y104.782 E73.32303
G1 X107.843 Y104.967 E73.33542
G1 X108.323 Y105.101 E73.34782
G1 X108.816 Y105.181 E73.36024
G1 X109.312 Y105.208 E73.37260
G1 X109.809 Y105.181 E73.38499
G1 X110.301 Y105.101 E73.39739
G1 X110.781 Y104.968 E73.40979
G1 X111.243 Y104.784 E73.42216
G1 X111.684 Y104.550 E73.43458
G1 X112.095 Y104.271 E73.44694
G1 X112.475 Y103.949 E73.45934
G1 X112.817 Y103.588 E73.47171
G1 X113.119 Y103.192 E73.48410
G1 X113.376 Y102.766 E73.49648
G1 X113.585 Y102.313 E73.50890
G1 X113.744 Y101.841 E73.52129
G1 X113.851 Y101.355 E73.53367
G1 X113.905 Y100.861 E73.54604
G1 X113.905 Y100.363 E73.55843
G1 X113.852 Y99.868 E73.57082
G1 X113.747 Y99.388 E73.58304
G1 X113.526 Y98.681 E73.60147
G1 X113.265 Y97.996 E73.61971
G1 X112.960 Y97.330 E73.63794
G1 X112.616 Y96.683 E73.65617
G1 X112.230 Y96.059 E73.67443
G1 X111.806 Y95.461 E73.69267
G1 X111.345 Y94.891 E73.71091
G1 X110.850 Y94.350 E73.72916
G1 X110.322 Y93.842 E73.74739
G1 X109.764 Y93.368 E73.76561
G1 X109.176 Y92.929 E73.78387
G1 X108.562 Y92.529 E73.80210
G1 X107.923 Y92.168 E73.82036
G1 X107.263 Y91.848 E73.83862
G1 X106.586 Y91.570 E73.85683
G1 X105.891 Y91.335 E73.87508
G1 X105.183 Y91.144 E73.89333
G1 X104.465 Y90.998 E73.91156
G1 X103.739 Y90.897 E73.92980
G1 X103.008 Y90.842 E73.94804
G1 X102.275 Y90.833 E73.96628
G1 X101.544 Y90.871 E73.98449
G1 X100.816 Y90.953 E74.00272
G1 X100.094 Y91.083 E74.02098
G1 X99.375 Y91.257 E74.03938
G1 X98.909 Y91.414 E74.05162
G1 X98.458 Y91.623 E74.06399
G1 X98.030 Y91.879 E74.07640
G1 X97.634 Y92.181 E74.08879
G1 X97.272 Y92.523 E74.10118
G1 X96.950 Y92.902 E74.11356
G1 X96.670 Y93.315 E74.12597
G1 X96.436 Y93.755 E74.13837
G1 X96.252 Y94.218 E74.15077
G1 X96.119 Y94.697 E74.16314
G1 X96.039 Y95.188 E74.17552
G1 X96.011 Y95.686 E74.18793
G1 X96.039 Y96.183 E74.20031
G1 X96.119 Y96.674 E74.21269
G1 X96.251 Y97.154 E74.22508
G1 X96.436 Y97.616 E74.23746
G1 X96.668 Y98.056 E74.24984
G1 X96.948 Y98.470 E74.26228
G1 X97.271 Y98.849 E74.27467
G1 X97.632 Y99.191 E74.28704
G1 X98.029 Y99.493 E74.29945
G1 X98.456 Y99.749 E74.31184
G1 X98.907 Y99.958 E74.32421
G1 X99.378 Y100.118 E74.33659
G1 X99.865 Y100.225 E74.34899
G1 X100.360 Y100.279 E74.36138
G1 X100.859 Y100.279 E74.37380
G1 X101.353 Y100.225 E74.38617
G1 X102.127 Y100.057 E74.40587
G1 X102.430 Y100.030 E74.41344
G1 X102.727 Y100.039 E74.42084
G1 X103.021 Y100.085 E74.42824
G1 X103.313 Y100.166 E74.43578
G1 X103.582 Y100.278 E74.44303
G1 X103.843 Y100.426 E74.45050
G1 X104.082 Y100.602 E74.45788
G1 X104.304 Y100.811 E74.46547
G1 X104.492 Y101.038 E74.47280
G1 X104.654 Y101.289 E74.48024
G1 X104.784 Y101.556 E74.48763
G1 X105.041 Y102.313 E74.50752
G1 X105.250 Y102.764 E74.51989
G1 X105.506 Y103.189 E74.53223
G1 X105.807 Y103.585 E74.54461
G1 X106.150 Y103.948 E74.55704
G0 F3600 X108.324 Y105.101
G0 X113.854 Y107.232
G1 F2220 X113.560 Y107.887 E74.57490
G1 X113.204 Y108.562 E74.59389
G1 X112.832 Y109.176 E74.61175
G1 X112.388 Y109.817 E74.63116
G1 X111.952 Y110.373 E74.64874
G1 X111.442 Y110.946 E74.66782
G1 X110.917 Y111.471 E74.68630
G1 X110.361 Y111.962 E74.70476
G1 X109.786 Y112.412 E74.72292
G1 X109.162 Y112.841 E74.74177
G1 X108.529 Y113.223 E74.76016
G1 X107.880 Y113.562 E74.77838
G1 X107.192 Y113.871 E74.79715
G1 X106.488 Y114.136 E74.81587
G1 X105.796 Y114.351 E74.83390
G1 X105.055 Y114.533 E74.85288
G1 X104.344 Y114.662 E74.87086
G1 X103.594 Y114.752 E74.88966
G1 X102.855 Y114.796 E74.90808
G1 X102.115 Y114.795 E74.92649
G1 X101.377 Y114.749 E74.94489
G1 X100.623 Y114.657 E74.96379
G1 X99.900 Y114.524 E74.98209
G1 X99.195 Y114.349 E75.00016
G1 X98.470 Y114.121 E75.01907
G1 X97.765 Y113.853 E75.03784
G1 X97.108 Y113.557 E75.05577
G1 X96.438 Y113.204 E75.07461
G1 X95.822 Y112.830 E75.09254
G1 X95.183 Y112.388 E75.11188
G1 X94.625 Y111.950 E75.12953
G1 X94.054 Y111.442 E75.14855
G1 X93.529 Y110.917 E75.16702
G1 X93.038 Y110.361 E75.18548
G1 X92.588 Y109.786 E75.20365
G1 X92.159 Y109.162 E75.22249
G1 X91.777 Y108.529 E75.24088
G1 X91.437 Y107.877 E75.25918
G1 X91.129 Y107.192 E75.27787
G1 X90.861 Y106.481 E75.29678
G1 X90.649 Y105.796 E75.31462
G1 X90.465 Y105.048 E75.33379
G1 X90.338 Y104.344 E75.35159
G1 X90.247 Y103.585 E75.37061
G1 X90.204 Y102.855 E75.38880
G1 X90.205 Y102.115 E75.40722
G1 X90.251 Y101.377 E75.42562
G1 X90.344 Y100.616 E75.44469
G1 X90.476 Y99.899 E75.46283
G1 X90.650 Y99.200 E75.48076
G1 X90.879 Y98.470 E75.49979
G1 X91.148 Y97.762 E75.51864
G1 X91.443 Y97.108 E75.53649
G1 X91.796 Y96.438 E75.55534
G1 X92.168 Y95.824 E75.57320
G1 X92.612 Y95.183 E75.59260
G1 X93.048 Y94.627 E75.61018
G1 X93.558 Y94.054 E75.62927
G1 X94.083 Y93.529 E75.64774
G1 X94.639 Y93.038 E75.66620
G1 X95.214 Y92.588 E75.68437
G1 X95.838 Y92.159 E75.70321
G1 X96.471 Y91.777 E75.72161
G1 X97.123 Y91.437 E75.73991
G1 X97.808 Y91.129 E75.75859
G1 X98.512 Y90.864 E75.77731
G1 X99.204 Y90.649 E75.79534
G1 X99.945 Y90.467 E75.81433
G1 X100.656 Y90.338 E75.83231
G1 X101.406 Y90.248 E75.85111
G1 X102.145 Y90.204 E75.86953
G1 X102.885 Y90.205 E75.88794
G1 X103.623 Y90.251 E75.90634
G1 X104.377 Y90.343 E75.92524
G1 X105.100 Y90.476 E75.94353
G1 X105.805 Y90.651 E75.96161
G1 X106.530 Y90.879 E75.98052
G1 X107.232 Y91.146 E75.99921
G1 X107.892 Y91.443 E76.01721
G1 X108.562 Y91.796 E76.03606
G1 X109.176 Y92.168 E76.05392
G1 X109.817 Y92.612 E76.07332
G1 X110.373 Y93.048 E76.09090
G1 X110.946 Y93.558 E76.10999
G1 X111.471 Y94.083 E76.12847
G1 X111.962 Y94.639 E76.14692
G1 X112.412 Y95.214 E76.16509
G1 X112.841 Y95.838 E76.18393
G1 X113.223 Y96.471 E76.20233
G1 X113.563 Y97.123 E76.22063
G1 X113.871 Y97.808 E76.23932
G1 X114.139 Y98.519 E76.25822
G1 X114.350 Y99.200 E76.27596
G1 X114.535 Y99.952 E76.29523
G1 X114.661 Y100.651 E76.31291
G1 X114.752 Y101.406 E76.33183
G1 X114.796 Y102.145 E76.35025
G1 X114.795 Y102.885 E76.36866
G1 X114.750 Y103.616 E76.38689
G1 X114.657 Y104.374 E76.40589
G1 X114.524 Y105.100 E76.42425
G1 X114.350 Y105.800 E76.44220
G1 X114.121 Y106.530 E76.46124
G1 X113.854 Y107.232 E76.47993
G0 F3600 X114.225 Y107.380
;TYPE:WALL-OUTER
G1 F2040 X113.915 Y108.069 E76.49873
G1 X113.552 Y108.757 E76.51808
G1 X113.160 Y109.404 E76.53691
G1 X112.723 Y110.035 E76.55601
G1 X112.242 Y110.648 E76.57539
G1 X111.740 Y111.212 E76.59418
G1 X111.189 Y111.763 E76.61357
G1 X110.623 Y112.263 E76.63236
G1 X110.010 Y112.742 E76.65172
G1 X109.377 Y113.177 E76.67083
G1 X108.722 Y113.572 E76.68986
G1 X108.051 Y113.923 E76.70871
G1 X107.340 Y114.242 E76.72810
G1 X106.633 Y114.509 E76.74690
G1 X105.890 Y114.740 E76.76626
G1 X105.156 Y114.920 E76.78507
G1 X104.400 Y115.057 E76.80419
G1 X103.632 Y115.149 E76.82343
G1 X102.861 Y115.195 E76.84265
G1 X102.106 Y115.194 E76.86144
G1 X101.337 Y115.146 E76.88061
G1 X100.570 Y115.052 E76.89984
G1 X99.813 Y114.913 E76.91899
G1 X99.076 Y114.730 E76.93788
G1 X98.344 Y114.501 E76.95697
G1 X97.620 Y114.225 E76.97625
G1 X96.930 Y113.915 E76.99507
G1 X96.242 Y113.552 E77.01443
G1 X95.596 Y113.160 E77.03323
G1 X94.964 Y112.722 E77.05236
G1 X94.352 Y112.242 E77.07172
G1 X93.786 Y111.738 E77.09057
G1 X93.237 Y111.189 E77.10989
G1 X92.737 Y110.623 E77.12869
G1 X92.257 Y110.009 E77.14808
G1 X91.823 Y109.377 E77.16715
G1 X91.426 Y108.719 E77.18628
G1 X91.077 Y108.051 E77.20503
G1 X90.758 Y107.340 E77.22442
G1 X90.490 Y106.631 E77.24328
G1 X90.260 Y105.889 E77.26261
G1 X90.080 Y105.156 E77.28139
G1 X89.943 Y104.400 E77.30051
G1 X89.850 Y103.627 E77.31988
G1 X89.805 Y102.861 E77.33898
G1 X89.806 Y102.106 E77.35776
G1 X89.853 Y101.341 E77.37683
