;Gcode generated by Cura by Dagoma 2.2.1
;Printer: DiscoEasy200
;Object Name : Box.stl
;Date: 18-11-2022
;Time: 23:23:36
;Print duration: 1 h 21 min
;Layer height: 0.15 mm
;Filling: 33.0 %
;Print speed: 50.0 mm/s
;Support: Everywhere
;Adhesion improvement: Nothing
;Filament:
;- Material: Other PLA type Generic
;- Temperature: 215.0 °C
;- Flow: 100.0 %
;- Retraction amount: 3.5 mm
;- Retraction speed: 50.0 mm/s
;- Length: 3.99 m
;- Weight: 12 g
;- Cost: 0.56 EUR
D131 E1 ;Disable filrunout 2, just in case the user has a bicolor printer
G90 ;absolute positioning
M106 S255 ;fan on for the sensor
G28 X Y
G1 X50
M109 R90 ;wait for cool down
G28
;Sensor activation
;No Sensor
M104 S215 ;start the heater
M107 ;start with the fan off
G1 X100 Y20 Z0.5 F3000
M109 S215
M82 ;set extruder to absolute mode
G92 E0 ;zero the extruded length
G1 F200 E10 ;extrude 10mm of feed stock
G92 E0 ;zero the extruded length again
G1 E-3.5 F5000 ;filament retract length
G1 F240 Z3
G1 F3600

;Layer count: 202
;LAYER:0
M117 Nb = 1 / 202
M107
G1 F3000 E-3.50000
G0 F3600 X92.367 Y98.253 Z0.260
;TYPE:WALL-INNER
G1 F3000 E0.00000
G1 F1020 X92.665 Y98.000 E0.01690
G1 X93.909 Y109.536 E0.51859
G1 X93.567 Y109.355 E0.53532
G1 X93.036 Y108.998 E0.56299
G1 X92.531 Y108.578 E0.59139
G1 X92.069 Y108.109 E0.61985
G1 X91.649 Y107.585 E0.64889
G1 X91.277 Y107.019 E0.67817
G1 X90.960 Y106.413 E0.70774
G1 X90.699 Y105.780 E0.73735
G1 X90.500 Y105.122 E0.76707
G1 X90.358 Y104.433 E0.79749
G1 X90.284 Y103.751 E0.82715
G1 X90.273 Y103.049 E0.85751
G1 X90.328 Y102.362 E0.88731
G1 X90.444 Y101.693 E0.91667
G1 X90.627 Y101.029 E0.94645
G1 X90.866 Y100.400 E0.97554
G1 X91.163 Y99.802 E1.00441
G1 X91.520 Y99.235 E1.03338
G1 X91.916 Y98.725 E1.06130
G1 X92.367 Y98.253 E1.08953
G0 F3600 X95.354 Y96.922
G0 X97.502 Y97.011
G0 X100.035 Y98.534
G0 X100.789 Y98.758
G1 F1020 X101.203 Y99.274 E1.11813
G1 X101.575 Y99.840 E1.14742
G1 X101.891 Y100.443 E1.17685
G1 X102.151 Y101.075 E1.20640
G1 X102.352 Y101.737 E1.23631
G1 X102.494 Y102.428 E1.26682
G1 X102.567 Y103.106 E1.29630
G1 X102.578 Y103.805 E1.32653
G1 X102.523 Y104.497 E1.35654
G1 X102.408 Y105.163 E1.38577
G1 X102.228 Y105.821 E1.41526
G1 X101.981 Y106.470 E1.44529
G1 X101.689 Y107.057 E1.47364
G1 X101.569 Y107.248 E1.48339
G1 X101.734 Y106.925 E1.49907
G1 X102.040 Y106.161 E1.53466
G1 X102.257 Y105.366 E1.57029
G1 X102.398 Y104.489 E1.60870
G1 X102.439 Y103.662 E1.64450
G1 X102.394 Y102.804 E1.68165
G1 X102.259 Y101.956 E1.71877
G1 X102.037 Y101.126 E1.75592
G1 X101.721 Y100.314 E1.79360
G1 X101.332 Y99.572 E1.82982
G1 X100.863 Y98.879 E1.86600
G1 X100.536 Y98.501 E1.88761
G1 X100.789 Y98.758 E1.90321
G0 F3600 X101.079 Y98.482
G1 F1020 X101.529 Y99.041 E1.93424
G1 X101.925 Y99.644 E1.96543
G1 X102.250 Y100.264 E1.99570
G1 X102.531 Y100.948 E2.02767
G1 X102.741 Y101.640 E2.05894
G1 X102.888 Y102.356 E2.09054
G1 X102.967 Y103.090 E2.12246
G1 X102.979 Y103.820 E2.15403
G1 X102.921 Y104.542 E2.18535
G1 X102.798 Y105.252 E2.21650
G1 X102.605 Y105.956 E2.24807
G1 X102.350 Y106.625 E2.27902
G1 X102.040 Y107.249 E2.30915
G1 X101.664 Y107.851 E2.33984
G1 X101.241 Y108.395 E2.36964
G1 X100.764 Y108.894 E2.39948
G1 X100.239 Y109.339 E2.42924
G1 X99.694 Y109.712 E2.45780
G1 X99.103 Y110.027 E2.48675
G1 X98.495 Y110.273 E2.51511
G1 X97.858 Y110.451 E2.54371
G1 X97.207 Y110.560 E2.57225
G1 X96.555 Y110.595 E2.60048
G1 X95.900 Y110.561 E2.62884
G1 X95.246 Y110.453 E2.65750
G1 X94.605 Y110.275 E2.68627
G1 X93.963 Y110.018 E2.71617
G1 X93.361 Y109.699 E2.74562
G1 X92.797 Y109.319 E2.77503
G1 X92.261 Y108.874 E2.80515
G1 X91.768 Y108.372 E2.83557
G1 X91.319 Y107.813 E2.86658
G1 X90.931 Y107.223 E2.89711
G1 X90.600 Y106.590 E2.92799
G1 X90.321 Y105.912 E2.95969
G1 X90.111 Y105.220 E2.99096
G1 X89.962 Y104.494 E3.02301
G1 X89.885 Y103.779 E3.05410
G1 X89.872 Y103.039 E3.08610
G1 X89.930 Y102.317 E3.11742
G1 X90.054 Y101.601 E3.14884
G1 X90.246 Y100.907 E3.17998
G1 X90.499 Y100.237 E3.21094
G1 X90.814 Y99.605 E3.24147
G1 X91.187 Y99.012 E3.27177
G1 X91.613 Y98.464 E3.30178
G1 X92.096 Y97.959 E3.33199
G1 X92.607 Y97.525 E3.36098
G1 X93.158 Y97.148 E3.38985
G1 X93.744 Y96.834 E3.41859
G1 X94.361 Y96.586 E3.44734
G1 X94.995 Y96.409 E3.47581
G1 X95.645 Y96.300 E3.50430
G1 X96.299 Y96.264 E3.53262
G1 X96.953 Y96.299 E3.56094
G1 X97.607 Y96.407 E3.58960
G1 X98.250 Y96.586 E3.61846
G1 X98.883 Y96.838 E3.64792
G1 X99.495 Y97.164 E3.67790
G1 X100.056 Y97.540 E3.70710
G1 X100.595 Y97.989 E3.73744
G1 X101.079 Y98.482 E3.76731
G0 F3600 X100.545 Y99.122
G1 F1020 X100.035 Y98.533 E3.80100
G1 X99.461 Y98.012 E3.83451
G1 X98.841 Y97.582 E3.86714
G1 X98.180 Y97.244 E3.89924
G1 X97.503 Y97.010 E3.93021
G1 X97.130 Y96.925 E3.94675
G1 X96.760 Y96.870 E3.96292
G1 X96.058 Y96.843 E3.99330
G1 X95.354 Y96.921 E4.02393
G1 X94.966 Y97.010 E4.04114
G1 X94.306 Y97.243 E4.07140
G1 X93.669 Y97.578 E4.10252
G1 X93.066 Y97.985 E4.13398
G1 X94.306 Y109.482 E4.63397
G1 X95.307 Y109.838 E4.67991
G1 X96.006 Y109.978 E4.71073
G1 X96.384 Y110.014 E4.72715
G1 X96.747 Y110.017 E4.74284
G1 X97.464 Y109.945 E4.77400
G1 X97.822 Y109.866 E4.78985
G1 X98.174 Y109.761 E4.80574
G1 X98.822 Y109.485 E4.83619
G1 X99.159 Y109.296 E4.85290
G1 X99.753 Y108.875 E4.88438
G1 X100.298 Y108.362 E4.91674
G1 X100.779 Y107.772 E4.94965
G1 X101.180 Y107.132 E4.98231
G1 X101.369 Y106.760 E5.00035
G1 X101.660 Y106.033 E5.03421
G1 X101.867 Y105.276 E5.06814
G1 X101.999 Y104.453 E5.10418
G1 X102.039 Y103.662 E5.13843
G1 X101.996 Y102.846 E5.17376
G1 X101.868 Y102.039 E5.20909
G1 X101.656 Y101.251 E5.24437
G1 X101.356 Y100.480 E5.28014
G1 X100.988 Y99.778 E5.31441
G1 X100.545 Y99.122 E5.34864
G0 F3600 X100.227 Y99.366
;TYPE:WALL-OUTER
G1 F1020 X99.748 Y98.813 E5.38027
G1 X99.212 Y98.326 E5.41158
G1 X98.635 Y97.926 E5.44194
G1 X98.023 Y97.613 E5.47166
G1 X97.393 Y97.395 E5.50049
G1 X96.723 Y97.269 E5.52997
G1 X96.073 Y97.244 E5.55809
G1 X95.421 Y97.316 E5.58645
G1 X95.077 Y97.395 E5.60171
G1 X94.467 Y97.610 E5.62968
G1 X93.874 Y97.922 E5.65865
G1 X93.489 Y98.182 E5.67874
G1 X94.677 Y109.189 E6.15743
G1 X95.414 Y109.451 E6.19125
G1 X96.064 Y109.582 E6.21992
G1 X96.405 Y109.614 E6.23473
G1 X96.736 Y109.617 E6.24904
G1 X97.072 Y109.596 E6.26359
G1 X97.393 Y109.551 E6.27761
G1 X98.038 Y109.384 E6.30642
G1 X98.645 Y109.126 E6.33494
G1 X98.945 Y108.957 E6.34982
G1 X99.499 Y108.565 E6.37917
G1 X100.005 Y108.089 E6.40921
G1 X100.453 Y107.539 E6.43988
G1 X100.831 Y106.935 E6.47069
G1 X101.004 Y106.595 E6.48718
G1 X101.280 Y105.906 E6.51927
G1 X101.477 Y105.186 E6.55155
G1 X101.600 Y104.416 E6.58526
G1 X101.638 Y103.663 E6.61786
G1 X101.597 Y102.888 E6.65142
G1 X101.476 Y102.122 E6.68495
G1 X101.275 Y101.376 E6.71836
G1 X100.991 Y100.646 E6.75223
G1 X100.644 Y99.983 E6.78458
G1 X100.227 Y99.366 E6.81678
G0 F3600 X100.454 Y99.171
G0 X101.157 Y98.416
G0 X101.385 Y98.223
G1 F1020 X101.852 Y98.803 E6.84898
G1 X102.266 Y99.434 E6.88161
G1 X102.617 Y100.105 E6.91435
G1 X102.909 Y100.815 E6.94755
G1 X103.128 Y101.536 E6.98013
G1 X103.284 Y102.297 E7.01372
G1 X103.366 Y103.062 E7.04698
G1 X103.379 Y103.834 E7.08037
G1 X103.319 Y104.590 E7.11316
G1 X103.188 Y105.343 E7.14621
G1 X102.986 Y106.078 E7.17916
G1 X102.718 Y106.783 E7.21178
G1 X102.387 Y107.448 E7.24389
G1 X101.992 Y108.080 E7.27612
G1 X101.542 Y108.660 E7.30786
G1 X101.038 Y109.186 E7.33936
G1 X100.487 Y109.653 E7.37059
G1 X99.894 Y110.059 E7.40166
G1 X99.275 Y110.390 E7.43201
G1 X98.627 Y110.651 E7.46222
G1 X97.939 Y110.844 E7.49311
G1 X97.259 Y110.957 E7.52292
G1 X96.555 Y110.995 E7.55340
G1 X95.850 Y110.958 E7.58393
G1 X95.166 Y110.846 E7.61390
G1 X94.475 Y110.653 E7.64492
G1 X93.797 Y110.382 E7.67649
G1 X93.152 Y110.040 E7.70806
G1 X92.558 Y109.641 E7.73899
G1 X91.988 Y109.167 E7.77105
G1 X91.467 Y108.637 E7.80318
G1 X91.001 Y108.057 E7.83535
G1 X90.586 Y107.425 E7.86804
G1 X90.235 Y106.754 E7.90079
G1 X89.943 Y106.045 E7.93394
G1 X89.723 Y105.319 E7.96674
G1 X89.568 Y104.564 E8.00007
G1 X89.485 Y103.795 E8.03351
G1 X89.472 Y103.023 E8.06690
G1 X89.532 Y102.267 E8.09969
G1 X89.663 Y101.517 E8.13261
G1 X89.866 Y100.782 E8.16558
G1 X90.133 Y100.076 E8.19821
G1 X90.467 Y99.404 E8.23066
G1 X90.854 Y98.789 E8.26208
G1 X91.311 Y98.200 E8.29431
G1 X91.822 Y97.666 E8.32627
G1 X92.359 Y97.211 E8.35670
G1 X92.958 Y96.801 E8.38809
G1 X93.568 Y96.474 E8.41801
G1 X94.233 Y96.207 E8.44900
G1 X94.914 Y96.016 E8.47958
G1 X95.593 Y95.903 E8.50934
G1 X96.298 Y95.864 E8.53987
G1 X97.003 Y95.902 E8.57040
G1 X97.687 Y96.014 E8.60037
G1 X98.377 Y96.207 E8.63135
G1 X99.056 Y96.477 E8.66294
G1 X99.701 Y96.821 E8.69455
G1 X100.295 Y97.218 E8.72544
G1 X100.865 Y97.693 E8.75752
G1 X101.385 Y98.223 E8.78963
G0 F3600 X101.157 Y98.416
G0 X96.759 Y96.870
G0 X94.306 Y97.244
G0 X93.096 Y97.999
G0 X92.694 Y99.200
;TYPE:SKIN
G1 F1020 X92.272 Y98.495 E8.82382
G1 X92.626 Y98.566 E8.83943
G0 F3600 X91.872 Y98.943
G1 F1020 X92.763 Y99.834 E8.89391
G0 F3600 X92.831 Y100.468
G1 F1020 X91.624 Y99.261 E8.96772
G0 F3600 X91.403 Y99.605
G1 F1020 X92.899 Y101.102 E9.05923
G0 F3600 X92.968 Y101.736
G1 F1020 X91.194 Y99.962 E9.16770
G0 F3600 X91.006 Y100.340
G1 F1020 X93.036 Y102.369 E9.29180
G0 F3600 X93.104 Y103.004
G1 F1020 X90.842 Y100.742 E9.43012
G0 F3600 X90.694 Y101.159
G1 F1020 X93.173 Y103.638 E9.58171
G0 F3600 X93.241 Y104.272
G1 F1020 X90.571 Y101.602 E9.74497
G0 F3600 X90.478 Y102.075
G1 F1020 X93.309 Y104.906 E9.91808
G0 F3600 X93.377 Y105.539
G1 F1020 X90.410 Y102.572 E10.09951
G0 F3600 X90.373 Y103.101
G1 F1020 X93.446 Y106.174 E10.28742
G0 F3600 X93.514 Y106.808
G1 F1020 X90.382 Y103.675 E10.47896
G0 F3600 X90.443 Y104.303
G1 F1020 X93.582 Y107.442 E10.67091
G0 F3600 X93.651 Y108.076
G1 F1020 X90.577 Y105.002 E10.85887
G0 F3600 X90.820 Y105.811
G1 F1020 X93.719 Y108.709 E11.03611
G0 F3600 X93.714 Y109.271
G1 F1020 X91.310 Y106.866 E11.18314
G0 F3600 X90.705 Y107.973
;TYPE:SUPPORT
G1 F1020 X81.868 Y107.973 E11.56524
G0 F3600 X82.666 Y107.973
G0 X82.550 Y104.995
G0 X82.244 Y104.809
G0 X81.615 Y105.307
G1 F1020 X89.515 Y105.307 E11.90682
G0 F3600 X89.311 Y104.069
G1 F1020 X89.311 Y116.266 E12.43420
G0 F3600 X88.616 Y115.971
G1 F1020 X121.364 Y115.971 E13.85016
G0 F3600 X121.303 Y116.222
G1 F1020 X121.303 Y88.340 E15.05573
G0 F3600 X120.738 Y88.903
G0 X122.199 Y90.025
G0 X122.556 Y89.311
G1 F1020 X91.859 Y89.311 E16.38301
G0 F3600 X91.977 Y89.263
G1 F1020 X91.977 Y97.272 E16.72930
G0 F3600 X91.932 Y97.309
G1 F1020 X82.761 Y97.309 E17.12584
G0 F3600 X83.443 Y97.754
G0 X84.643 Y95.353
G0 X83.979 Y94.890
G1 F1020 X83.979 Y111.671 E17.85142
G0 F3600 X83.344 Y110.639
G1 F1020 X93.896 Y110.639 E18.30767
G0 F3600 X94.643 Y110.910
G1 F1020 X94.643 Y118.001 E18.61427
G0 F3600 X94.800 Y117.219
G0 X96.966 Y117.593
G0 X97.510 Y118.074
G0 X96.946 Y118.637
G1 F1020 X111.331 Y118.637 E19.23625
G0 F3600 X110.639 Y118.714
G1 F1020 X110.639 Y85.098 E20.68975
G0 F3600 X110.716 Y85.893
G0 X108.050 Y86.159
G0 X107.973 Y85.364
G1 F1020 X107.973 Y119.009 E22.14450
G0 F3600 X107.886 Y118.215
G0 X105.228 Y118.498
G0 X105.307 Y119.292
G1 F1020 X105.307 Y85.611 E23.60080
G0 F3600 X105.387 Y86.405
G0 X102.720 Y86.672
G0 X102.641 Y85.877
G1 F1020 X102.641 Y99.715 E24.19913
G0 F3600 X102.777 Y99.975
G1 F1020 X126.964 Y99.975 E25.24493
G0 F3600 X126.166 Y99.975
G0 X125.882 Y99.767
G0 X125.988 Y98.153
G0 X126.635 Y97.673
G1 F1020 X126.635 Y109.490 E25.75588
G0 F3600 X125.684 Y110.639
G1 F1020 X99.196 Y110.639 E26.90117
G0 F3600 X99.975 Y110.245
G1 F1020 X99.975 Y119.779 E27.31340
G0 F3600 X99.975 Y118.981
G0 X97.703 Y118.270
G0 X97.309 Y118.963
G1 F1020 X97.309 Y111.155 E27.65101
G0 F3600 X97.440 Y111.942
G0 X94.928 Y111.921
G0 X91.896 Y110.520
G0 X91.466 Y110.032
G0 X91.977 Y109.420
G1 F1020 X91.977 Y117.467 E27.99894
G0 F3600 X92.133 Y116.686
G0 X87.209 Y113.975
G0 X86.645 Y114.538
G1 F1020 X86.645 Y92.224 E28.96376
G0 F3600 X86.893 Y91.977
G1 F1020 X125.741 Y91.977 E30.64348
G0 F3600 X125.177 Y92.541
G0 X123.405 Y90.968
G0 X123.969 Y90.406
G1 F1020 X123.969 Y112.756 E31.60985
G0 F3600 X123.618 Y113.305
G1 F1020 X85.068 Y113.305 E33.27668
G0 F3600 X85.866 Y113.005
G0 X85.950 Y112.595
G0 X84.117 Y109.257
G0 X82.350 Y102.995
G0 X82.044 Y102.809
G0 X81.313 Y103.205
G1 F1020 X81.313 Y99.826 E33.42278
G0 F3600 X81.268 Y99.975
G1 F1020 X89.957 Y99.975 E33.79848
G0 F3600 X89.245 Y99.619
G0 X88.588 Y101.279
G0 X88.517 Y102.446
G0 X89.311 Y102.509
G1 F1020 X89.311 Y90.295 E34.32659
G0 F3600 X89.667 Y91.010
G0 X93.615 Y89.713
G0 X95.205 Y87.592
G0 X94.643 Y87.027
G1 F1020 X94.643 Y95.882 E34.70947
G0 F3600 X94.429 Y95.113
G0 X96.299 Y94.762
G0 X97.439 Y94.962
G0 X97.309 Y95.748
G1 F1020 X97.309 Y86.410 E35.11322
G0 F3600 X97.380 Y87.205
G0 X95.433 Y87.365
G0 X95.027 Y86.645
G1 F1020 X119.210 Y86.645 E36.15885
G0 F3600 X118.637 Y86.153
G1 F1020 X118.637 Y117.846 E37.52920
G0 F3600 X118.550 Y117.052
G0 X115.883 Y117.349
G0 X115.971 Y118.142
G1 F1020 X115.971 Y84.783 E38.97158
G0 F3600 X115.971 Y85.581
G0 X113.383 Y85.626
G0 X113.305 Y84.831
G1 F1020 X113.305 Y118.432 E40.42443
G0 F3600 X113.226 Y117.638
G0 X102.554 Y118.786
G0 X102.641 Y119.580
G1 F1020 X102.641 Y107.392 E40.95142
G0 F3600 X102.298 Y107.973
G1 F1020 X127.564 Y107.973 E42.04387
G0 F3600 X126.766 Y107.973
G0 X126.766 Y105.307
G0 X127.564 Y105.307
G1 F1020 X103.401 Y105.307 E43.08864
G0 F3600 X104.186 Y105.444
G0 X104.471 Y102.703
G0 X103.674 Y102.641
G1 F1020 X127.364 Y102.641 E44.11295
G0 F3600 X126.366 Y102.641
G0 X125.766 Y97.309
G0 X126.564 Y97.309
G1 F1020 X100.720 Y97.309 E45.23040
G0 F3600 X99.975 Y96.761
G1 F1020 X99.975 Y86.144 E45.68946
G0 F3600 X100.054 Y86.939
G0 X84.789 Y95.207
G0 X84.227 Y94.643
G1 F1020 X126.364 Y94.643 E47.51138
G0 F3600 X125.566 Y94.643
G0 X94.671 Y94.942
G0 X91.694 Y96.334
G0 X89.509 Y98.865
G0 X88.441 Y102.129
G0 X88.506 Y102.578
G0 X89.300 Y102.641
G1 F1020 X81.268 Y102.641 E47.85867
;LAYER:1
M117 Nb = 2 / 202
M106 S81
G1 F3000 E44.35867
G0 F3600 X90.270 Y103.057 Z0.410
;TYPE:WALL-INNER
G1 F3000 E47.85867
G1 F1380 X90.323 Y102.367 E47.87589
G1 X90.441 Y101.692 E47.89294
G1 X90.625 Y101.028 E47.91009
G1 X90.865 Y100.396 E47.92691
G1 X91.160 Y99.802 E47.94341
G1 X91.511 Y99.241 E47.95988
G1 X91.910 Y98.727 E47.97607
G1 X92.363 Y98.253 E47.99238
G1 X92.668 Y97.994 E48.00234
G1 X93.913 Y109.541 E48.29133
G1 X93.572 Y109.361 E48.30092
G1 X93.036 Y109.002 E48.31697
G1 X92.532 Y108.583 E48.33328
G1 X92.064 Y108.108 E48.34987
G1 X91.653 Y107.597 E48.36619
G1 X91.278 Y107.025 E48.38321
G1 X90.957 Y106.413 E48.40041
G1 X90.699 Y105.787 E48.41725
G1 X90.496 Y105.121 E48.43458
G1 X90.357 Y104.439 E48.45190
G1 X90.281 Y103.754 E48.46905
G1 X90.270 Y103.057 E48.48639
G0 F3600 X93.098 Y97.987
G0 X95.349 Y96.924
G0 X97.508 Y97.014
G0 X99.763 Y98.271
G0 X100.784 Y98.747
G1 F1380 X101.203 Y99.269 E48.50305
G1 X101.574 Y99.834 E48.51987
G1 X101.895 Y100.445 E48.53704
G1 X102.153 Y101.073 E48.55393
G1 X102.355 Y101.736 E48.57118
G1 X102.495 Y102.422 E48.58860
G1 X102.570 Y103.103 E48.60565
G1 X102.581 Y103.799 E48.62297
G1 X102.528 Y104.488 E48.64016
G1 X102.410 Y105.168 E48.65734
G1 X102.232 Y105.818 E48.67411
G1 X101.988 Y106.458 E48.69115
G1 X101.690 Y107.060 E48.70786
G1 X101.538 Y107.302 E48.71497
G1 X101.879 Y106.582 E48.73480
G1 X102.040 Y106.147 E48.74634
G1 X102.256 Y105.359 E48.76667
G1 X102.392 Y104.518 E48.78787
G1 X102.435 Y103.676 E48.80885
G1 X102.392 Y102.819 E48.83020
G1 X102.259 Y101.969 E48.85161
G1 X102.041 Y101.153 E48.87262
G1 X101.878 Y100.698 E48.88465
G1 X101.539 Y99.948 E48.90513
G1 X101.099 Y99.212 E48.92646
G1 X100.595 Y98.556 E48.94705
G1 X100.784 Y98.747 E48.95374
G0 F3600 X101.083 Y98.483
G1 F1380 X101.528 Y99.036 E48.97140
G1 X101.919 Y99.631 E48.98911
G1 X102.254 Y100.268 E49.00702
G1 X102.530 Y100.940 E49.02510
G1 X102.742 Y101.637 E49.04323
G1 X102.891 Y102.362 E49.06164
G1 X102.968 Y103.074 E49.07946
G1 X102.981 Y103.815 E49.09790
G1 X102.924 Y104.540 E49.11600
G1 X102.801 Y105.248 E49.13388
G1 X102.610 Y105.946 E49.15189
G1 X102.353 Y106.620 E49.16984
G1 X102.040 Y107.253 E49.18741
G1 X101.669 Y107.848 E49.20485
G1 X101.241 Y108.399 E49.22222
G1 X100.771 Y108.891 E49.23915
G1 X100.249 Y109.334 E49.25618
G1 X99.698 Y109.711 E49.27279
G1 X99.105 Y110.027 E49.28951
G1 X98.503 Y110.272 E49.30569
G1 X97.868 Y110.451 E49.32210
G1 X97.218 Y110.561 E49.33851
G1 X96.553 Y110.598 E49.35508
G1 X95.912 Y110.564 E49.37105
G1 X95.250 Y110.456 E49.38774
G1 X94.631 Y110.284 E49.40373
G1 X93.968 Y110.021 E49.42147
G1 X93.364 Y109.701 E49.43848
G1 X92.793 Y109.319 E49.45558
G1 X92.264 Y108.879 E49.47270
G1 X91.764 Y108.373 E49.49040
G1 X91.325 Y107.825 E49.50787
G1 X90.931 Y107.224 E49.52575
G1 X90.598 Y106.590 E49.54357
G1 X90.322 Y105.920 E49.56160
G1 X90.110 Y105.223 E49.57973
G1 X89.961 Y104.498 E49.59815
G1 X89.883 Y103.783 E49.61604
G1 X89.870 Y103.043 E49.63446
G1 X89.927 Y102.321 E49.65248
G1 X90.052 Y101.602 E49.67064
G1 X90.240 Y100.919 E49.68827
G1 X90.496 Y100.243 E49.70625
G1 X90.814 Y99.603 E49.72404
G1 X91.184 Y99.011 E49.74141
G1 X91.611 Y98.462 E49.75871
G1 X92.083 Y97.968 E49.77571
G1 X92.602 Y97.526 E49.79268
G1 X93.161 Y97.144 E49.80952
G1 X93.739 Y96.835 E49.82583
G1 X94.349 Y96.588 E49.84221
G1 X94.984 Y96.409 E49.85862
G1 X95.635 Y96.299 E49.87505
G1 X96.302 Y96.261 E49.89168
G1 X96.940 Y96.296 E49.90758
G1 X97.603 Y96.404 E49.92429
G1 X98.225 Y96.577 E49.94035
G1 X98.890 Y96.840 E49.95815
G1 X99.487 Y97.157 E49.97497
G1 X100.047 Y97.531 E49.99172
G1 X100.593 Y97.985 E50.00939
G1 X101.083 Y98.483 E50.02678
G0 F3600 X100.291 Y98.814
G1 F1380 X99.763 Y98.271 E50.04562
G1 X99.176 Y97.802 E50.06432
G1 X98.831 Y97.579 E50.07454
G1 X98.179 Y97.245 E50.09277
G1 X97.508 Y97.014 E50.11043
G1 X97.131 Y96.927 E50.12005
G1 X96.760 Y96.872 E50.12939
G1 X96.064 Y96.845 E50.14672
G1 X95.348 Y96.924 E50.16464
G1 X94.648 Y97.111 E50.18267
G1 X93.963 Y97.413 E50.20130
G1 X93.066 Y97.971 E50.22758
G1 X94.308 Y109.480 E50.51562
G1 X95.301 Y109.835 E50.54186
G1 X96.001 Y109.977 E50.55964
G1 X96.385 Y110.012 E50.56923
G1 X96.758 Y110.015 E50.57851
G1 X97.463 Y109.944 E50.59614
G1 X98.152 Y109.767 E50.61384
G1 X98.499 Y109.634 E50.62309
G1 X99.137 Y109.307 E50.64093
G1 X99.751 Y108.874 E50.65962
G1 X100.290 Y108.366 E50.67805
G1 X100.553 Y108.063 E50.68804
G1 X100.782 Y107.763 E50.69743
G1 X101.180 Y107.128 E50.71608
G1 X101.511 Y106.427 E50.73537
G1 X101.660 Y106.025 E50.74603
G1 X101.865 Y105.274 E50.76540
G1 X101.995 Y104.475 E50.78555
G1 X102.036 Y103.675 E50.80548
G1 X101.995 Y102.860 E50.82578
G1 X101.868 Y102.052 E50.84614
G1 X101.659 Y101.272 E50.86623
G1 X101.508 Y100.848 E50.87743
G1 X101.185 Y100.134 E50.89693
G1 X100.769 Y99.437 E50.91713
G1 X100.291 Y98.814 E50.93667
G0 F3600 X99.989 Y99.076
;TYPE:WALL-OUTER
G1 F1320 X99.494 Y98.567 E50.95433
G1 X98.942 Y98.126 E50.97191
G1 X98.632 Y97.925 E50.98111
G1 X98.022 Y97.613 E50.99815
G1 X97.398 Y97.398 E51.01458
G1 X97.056 Y97.319 E51.02331
G1 X96.723 Y97.270 E51.03169
G1 X96.078 Y97.245 E51.04775
G1 X95.422 Y97.317 E51.06417
G1 X94.774 Y97.491 E51.08086
G1 X94.156 Y97.763 E51.09766
G1 X93.490 Y98.177 E51.11718
G1 X94.678 Y109.188 E51.39275
G1 X95.409 Y109.449 E51.41207
G1 X96.059 Y109.581 E51.42857
G1 X96.405 Y109.613 E51.43722
G1 X96.740 Y109.616 E51.44555
G1 X97.393 Y109.550 E51.46188
G1 X98.031 Y109.386 E51.47827
G1 X98.336 Y109.269 E51.48640
G1 X98.930 Y108.965 E51.50301
G1 X99.498 Y108.565 E51.52029
G1 X100.002 Y108.090 E51.53753
G1 X100.454 Y107.535 E51.55534
G1 X100.829 Y106.937 E51.57290
G1 X101.143 Y106.272 E51.59120
G1 X101.280 Y105.903 E51.60099
G1 X101.475 Y105.189 E51.61941
G1 X101.597 Y104.433 E51.63846
G1 X101.636 Y103.675 E51.65735
G1 X101.597 Y102.902 E51.67661
G1 X101.477 Y102.135 E51.69593
G1 X101.278 Y101.391 E51.71509
G1 X101.138 Y100.997 E51.72549
G1 X100.831 Y100.319 E51.74401
G1 X100.438 Y99.661 E51.76308
G1 X99.989 Y99.076 E51.78143
G0 F3600 X100.227 Y98.894
G0 X101.159 Y98.417
G0 X101.383 Y98.219
G1 F1320 X101.854 Y98.805 E51.80014
G1 X102.259 Y99.421 E51.81848
G1 X102.616 Y100.101 E51.83760
G1 X102.908 Y100.811 E51.85670
G1 X103.128 Y101.532 E51.87545
G1 X103.284 Y102.292 E51.89476
G1 X103.367 Y103.059 E51.91396
G1 X103.380 Y103.834 E51.93324
G1 X103.321 Y104.585 E51.95199
G1 X103.190 Y105.339 E51.97103
G1 X102.988 Y106.074 E51.99000
G1 X102.718 Y106.782 E52.00885
G1 X102.390 Y107.446 E52.02728
G1 X101.995 Y108.078 E52.04582
G1 X101.546 Y108.658 E52.06408
G1 X101.046 Y109.180 E52.08206
G1 X100.486 Y109.656 E52.10035
G1 X99.910 Y110.050 E52.11771
G1 X99.273 Y110.390 E52.13568
G1 X98.636 Y110.649 E52.15279
G1 X97.949 Y110.843 E52.17055
G1 X97.272 Y110.957 E52.18764
G1 X96.559 Y110.997 E52.20541
G1 X96.521 Y110.998 E52.20635
G1 X95.864 Y110.960 E52.22273
G1 X95.172 Y110.848 E52.24017
G1 X95.123 Y110.838 E52.24142
G1 X94.501 Y110.662 E52.25750
G1 X93.800 Y110.384 E52.27626
G1 X93.160 Y110.045 E52.29429
G1 X92.556 Y109.640 E52.31238
G1 X91.996 Y109.175 E52.33049
G1 X91.469 Y108.641 E52.34916
G1 X90.996 Y108.052 E52.36796
G1 X90.591 Y107.434 E52.38634
G1 X90.236 Y106.758 E52.40534
G1 X89.944 Y106.049 E52.42442
G1 X89.723 Y105.323 E52.44330
G1 X89.568 Y104.568 E52.46248
G1 X89.484 Y103.800 E52.48171
G1 X89.471 Y103.025 E52.50099
G1 X89.530 Y102.274 E52.51974
G1 X89.661 Y101.521 E52.53876
G1 X89.866 Y100.778 E52.55794
G1 X90.134 Y100.073 E52.57670
G1 X90.458 Y99.420 E52.59484
G1 X90.862 Y98.775 E52.61378
G1 X91.307 Y98.202 E52.63183
G1 X91.807 Y97.680 E52.64982
G1 X92.366 Y97.204 E52.66809
G1 X92.951 Y96.804 E52.68572
G1 X93.574 Y96.471 E52.70330
G1 X94.216 Y96.211 E52.72053
G1 X94.903 Y96.017 E52.73830
G1 X95.581 Y95.903 E52.75540
G1 X96.294 Y95.862 E52.77317
G1 X96.331 Y95.861 E52.77409
G1 X96.989 Y95.900 E52.79050
G1 X97.680 Y96.012 E52.80791
G1 X98.353 Y96.198 E52.82529
G1 X99.053 Y96.475 E52.84402
G1 X99.693 Y96.815 E52.86205
G1 X100.297 Y97.219 E52.88013
G1 X100.855 Y97.683 E52.89819
G1 X101.383 Y98.219 E52.91691
G0 F3600 X101.159 Y98.417
G0 X96.759 Y96.871
G0 X94.289 Y97.254
G0 X93.098 Y97.987
G0 X92.720 Y99.414
;TYPE:SKIN
G1 F1440 X90.583 Y101.551 E52.99211
G0 F3600 X90.444 Y102.254
G1 F1440 X92.775 Y99.924 E53.07412
G0 F3600 X92.664 Y98.905
G1 F1440 X90.848 Y100.722 E53.13804
G0 F3600 X92.829 Y100.433
G1 F1440 X90.383 Y102.879 E53.22412
G0 F3600 X90.376 Y103.451
G1 F1440 X92.884 Y100.943 E53.31237
G0 F3600 X92.939 Y101.452
G1 F1440 X90.407 Y103.984 E53.40147
G0 F3600 X90.469 Y104.487
G1 F1440 X92.994 Y101.961 E53.49034
G0 F3600 X93.049 Y102.471
G1 F1440 X90.564 Y104.955 E53.57777
G0 F3600 X90.685 Y105.399
G1 F1440 X93.104 Y102.980 E53.66290
G0 F3600 X93.159 Y103.490
G1 F1440 X90.823 Y105.825 E53.74508
G0 F3600 X90.988 Y106.225
G1 F1440 X93.214 Y103.999 E53.82341
G0 F3600 X93.269 Y104.508
G1 F1440 X91.171 Y106.606 E53.89724
G0 F3600 X91.366 Y106.975
G1 F1440 X93.323 Y105.018 E53.96611
G0 F3600 X93.379 Y105.527
G1 F1440 X91.590 Y107.316 E54.02906
G0 F3600 X91.823 Y107.647
G1 F1440 X93.434 Y106.036 E54.08575
G0 F3600 X93.488 Y106.546
G1 F1440 X92.074 Y107.960 E54.13551
G0 F3600 X92.347 Y108.251
G1 F1440 X93.543 Y107.055 E54.17759
G0 F3600 X93.599 Y107.564
G1 F1440 X92.629 Y108.533 E54.21171
G0 F3600 X92.937 Y108.789
G1 F1440 X93.654 Y108.073 E54.23692
G0 F3600 X93.708 Y108.583
G1 F1440 X93.429 Y109.143 E54.25265
G1 X93.763 Y109.092 E54.26106
G0 F3600 X91.400 Y99.605
G1 F1440 X92.610 Y98.396 E54.30362
G1 F3000 E50.80362
G0 F3600 X91.977 Y96.502
;TYPE:SUPPORT
G1 F3000 E54.30362
G1 F1440 X91.977 Y89.901 E54.46787
G0 F3600 X92.040 Y90.091
G0 X89.398 Y91.144
G0 X89.311 Y90.965
G1 F1440 X89.311 Y99.988 E54.69239
G0 F3600 X89.126 Y99.917
G0 X84.118 Y96.078
G0 X83.979 Y95.937
G1 F1440 X83.979 Y110.425 E55.05289
G0 F3600 X84.119 Y110.285
G0 X86.785 Y113.551
G0 X86.645 Y113.691
G1 F1440 X86.645 Y93.071 E55.56597
G0 F3600 X86.785 Y93.212
G0 X94.590 Y95.067
G0 X94.643 Y95.259
G1 F1440 X94.643 Y87.873 E55.74975
G0 F3600 X94.782 Y88.014
G0 X97.327 Y87.210
G0 X97.309 Y87.011
G1 F1440 X97.309 Y95.142 E55.95207
G0 F3600 X97.341 Y94.947
G0 X99.514 Y95.476
G0 X100.067 Y95.882
G0 X99.975 Y96.056
G1 F1440 X99.975 Y86.751 E56.18361
G0 F3600 X99.993 Y86.945
G0 X102.659 Y86.678
G0 X102.641 Y86.490
G1 F1440 X102.641 Y98.545 E56.48357
G0 F3600 X102.807 Y98.437
G0 X105.245 Y101.520
G0 X105.307 Y101.709
G1 F1440 X105.307 Y86.229 E56.86875
G0 F3600 X105.325 Y86.411
G0 X107.991 Y86.165
G0 X107.973 Y85.966
G1 F1440 X107.973 Y118.401 E57.67583
G0 F3600 X107.952 Y118.208
G0 X110.618 Y117.913
G0 X110.639 Y118.112
G1 F1440 X110.639 Y85.700 E58.48232
G0 F3600 X110.657 Y85.898
G0 X113.323 Y85.632
G0 X113.305 Y85.433
G1 F1440 X113.305 Y117.822 E59.28825
G0 F3600 X113.287 Y117.632
G0 X115.950 Y117.341
G0 X115.971 Y117.532
G1 F1440 X115.971 Y85.382 E60.08823
G0 F3600 X115.971 Y85.581
G0 X118.496 Y87.060
G0 X118.637 Y86.921
G1 F1440 X118.637 Y117.242 E60.84270
G0 F3600 X118.616 Y117.045
G0 X105.288 Y118.492
G0 X105.307 Y118.691
G1 F1440 X105.307 Y102.858 E61.23667
G0 F3600 X105.247 Y103.047
G0 X103.348 Y107.985
G0 X102.799 Y108.671
G0 X102.641 Y108.550
G1 F1440 X102.641 Y118.981 E61.49622
G0 F3600 X102.619 Y118.779
G0 X99.975 Y118.981
G0 X99.975 Y119.180
G1 F1440 X99.975 Y110.922 E61.70170
G0 F3600 X100.068 Y111.098
G0 X98.197 Y111.914
G0 X97.319 Y111.956
G0 X97.309 Y111.756
G1 F1440 X97.309 Y118.153 E61.86088
G0 F3600 X97.449 Y118.013
G0 X96.825 Y117.463
G0 X94.682 Y117.196
G0 X94.643 Y117.390
G1 F1440 X94.643 Y111.533 E62.00662
G0 F3600 X94.588 Y111.723
G0 X92.597 Y110.990
G0 X91.851 Y110.352
G0 X91.977 Y110.200
G1 F1440 X91.977 Y116.856 E62.17224
G0 F3600 X92.016 Y116.662
G0 X89.400 Y115.420
G0 X89.311 Y115.597
G1 F1440 X89.311 Y106.613 E62.39578
G0 F3600 X89.126 Y106.688
G0 X90.650 Y109.373
G0 X93.340 Y111.383
G0 X96.606 Y112.095
G0 X99.746 Y111.382
G0 X121.164 Y115.034
G0 X121.303 Y115.175
G1 F1440 X121.303 Y89.056 E63.04569
G0 F3600 X121.214 Y89.233
G0 X123.829 Y91.393
G0 X123.969 Y91.253
G1 F1440 X123.969 Y111.709 E63.55470
G0 F3600 X123.828 Y111.569
G0 X126.495 Y108.303
G0 X126.635 Y108.443
G1 F1440 X126.635 Y103.189 E63.68543
;LAYER:2
M117 Nb = 3 / 202
M106 S165
G1 F3000 E60.18543
G0 F3600 X102.581 Y103.798 Z0.560
;TYPE:WALL-INNER
G1 F3000 E63.68543
G1 F1800 X102.527 Y104.488 E63.70265
G1 X102.410 Y105.164 E63.71972
G1 X102.232 Y105.817 E63.73656
G1 X101.990 Y106.454 E63.75352
G1 X101.692 Y107.056 E63.77023
G1 X101.455 Y107.434 E63.78133
G1 X101.726 Y106.937 E63.79542
G1 X102.037 Y106.160 E63.81625
G1 X102.255 Y105.365 E63.83676
G1 X102.391 Y104.524 E63.85796
G1 X102.432 Y103.740 E63.87749
G1 X102.438 Y103.656 E63.87959
G1 X102.395 Y102.870 E63.89917
G1 X102.388 Y102.777 E63.90149
G1 X102.260 Y101.981 E63.92156
G1 X102.041 Y101.155 E63.94282
G1 X101.719 Y100.318 E63.96513
G1 X101.336 Y99.586 E63.98569
G1 X100.869 Y98.891 E64.00652
G1 X100.477 Y98.436 E64.02147
G1 X100.782 Y98.746 E64.03229
G1 X101.202 Y99.266 E64.04892
G1 X101.571 Y99.828 E64.06565
G1 X101.892 Y100.438 E64.08280
G1 X102.153 Y101.073 E64.09989
G1 X102.354 Y101.732 E64.11703
G1 X102.494 Y102.417 E64.13443
G1 X102.569 Y103.100 E64.15152
G1 X102.581 Y103.798 E64.16889
G0 F3600 X100.771 Y107.779
G0 X98.831 Y109.479
G0 X96.385 Y110.012
G0 X94.336 Y109.458
G0 X93.568 Y109.358
G1 F1800 X93.040 Y109.004 E64.18471
G1 X92.535 Y108.585 E64.20104
G1 X92.071 Y108.116 E64.21746
G1 X91.650 Y107.592 E64.23418
G1 X91.281 Y107.031 E64.25089
G1 X90.960 Y106.420 E64.26806
G1 X90.699 Y105.786 E64.28512
G1 X90.498 Y105.128 E64.30224
G1 X90.358 Y104.444 E64.31962
G1 X90.282 Y103.758 E64.33679
G1 X90.270 Y103.058 E64.35421
G1 X90.324 Y102.372 E64.37133
G1 X90.440 Y101.703 E64.38823
G1 X90.625 Y101.026 E64.40569
G1 X90.860 Y100.407 E64.42217
G1 X91.158 Y99.806 E64.43886
G1 X91.508 Y99.246 E64.45529
G1 X91.914 Y98.723 E64.47176
G1 X92.356 Y98.260 E64.48769
G1 X92.668 Y97.995 E64.49788
G1 X93.913 Y109.540 E64.78681
G1 X93.568 Y109.358 E64.79652
G0 F3600 X93.370 Y109.706
G1 F1800 X92.797 Y109.321 E64.81370
G1 X92.267 Y108.882 E64.83082
G1 X91.772 Y108.380 E64.84836
G1 X91.331 Y107.832 E64.86587
G1 X90.930 Y107.223 E64.88401
G1 X90.602 Y106.598 E64.90157
G1 X90.321 Y105.918 E64.91988
G1 X90.110 Y105.223 E64.93796
G1 X89.962 Y104.503 E64.95625
G1 X89.884 Y103.787 E64.97417
G1 X89.870 Y103.047 E64.99258
G1 X89.927 Y102.323 E65.01065
G1 X90.052 Y101.608 E65.02872
G1 X90.242 Y100.913 E65.04664
G1 X90.493 Y100.250 E65.06428
G1 X90.812 Y99.607 E65.08214
G1 X91.181 Y99.017 E65.09946
G1 X91.606 Y98.469 E65.11672
G1 X92.085 Y97.967 E65.13398
G1 X92.595 Y97.532 E65.15066
G1 X93.159 Y97.147 E65.16765
G1 X93.737 Y96.836 E65.18398
G1 X94.347 Y96.588 E65.20037
G1 X94.975 Y96.411 E65.21660
G1 X95.615 Y96.301 E65.23276
G1 X96.289 Y96.262 E65.24956
G1 X96.343 Y96.261 E65.25091
G1 X96.926 Y96.294 E65.26543
G1 X97.570 Y96.398 E65.28167
G1 X98.210 Y96.573 E65.29818
G1 X98.888 Y96.839 E65.31630
G1 X99.484 Y97.155 E65.33308
G1 X100.052 Y97.534 E65.35008
G1 X100.586 Y97.978 E65.36736
G1 X101.080 Y98.480 E65.38488
G1 X101.526 Y99.033 E65.40256
G1 X101.919 Y99.631 E65.42036
G1 X102.250 Y100.261 E65.43807
G1 X102.530 Y100.940 E65.45635
G1 X102.741 Y101.633 E65.47437
G1 X102.889 Y102.353 E65.49266
G1 X102.967 Y103.072 E65.51066
G1 X102.981 Y103.812 E65.52908
G1 X102.924 Y104.535 E65.54712
G1 X102.800 Y105.248 E65.56513
G1 X102.611 Y105.944 E65.58307
G1 X102.355 Y106.616 E65.60097
G1 X102.041 Y107.250 E65.61857
G1 X101.670 Y107.844 E65.63600
G1 X101.247 Y108.391 E65.65320
G1 X100.769 Y108.892 E65.67043
G1 X100.256 Y109.328 E65.68719
G1 X99.694 Y109.713 E65.70414
G1 X99.115 Y110.023 E65.72048
G1 X98.508 Y110.270 E65.73679
G1 X97.875 Y110.450 E65.75316
G1 X97.237 Y110.559 E65.76927
G1 X96.567 Y110.597 E65.78596
G1 X96.509 Y110.598 E65.78741
G1 X95.926 Y110.566 E65.80194
G1 X95.283 Y110.462 E65.81814
G1 X94.637 Y110.286 E65.83480
G1 X93.973 Y110.024 E65.85257
G1 X93.370 Y109.706 E65.86953
G0 F3600 X94.308 Y109.480
G1 F1800 X95.296 Y109.832 E65.89563
G1 X95.995 Y109.975 E65.91338
G1 X96.384 Y110.012 E65.92310
G1 X96.758 Y110.015 E65.93241
G1 X97.463 Y109.944 E65.95004
G1 X98.163 Y109.764 E65.96803
G1 X98.831 Y109.479 E65.98610
G1 X99.431 Y109.114 E66.00357
G1 X99.758 Y108.868 E66.01375
G1 X100.297 Y108.360 E66.03218
G1 X100.771 Y107.778 E66.05086
G1 X100.996 Y107.443 E66.06090
G1 X101.364 Y106.767 E66.08005
G1 X101.658 Y106.033 E66.09973
G1 X101.864 Y105.280 E66.11915
G1 X101.994 Y104.482 E66.13927
G1 X102.032 Y103.732 E66.15796
G1 X102.038 Y103.653 E66.15993
G1 X101.997 Y102.896 E66.17879
G1 X101.992 Y102.824 E66.18059
G1 X101.870 Y102.064 E66.19974
G1 X101.661 Y101.278 E66.21998
G1 X101.355 Y100.482 E66.24120
G1 X100.993 Y99.791 E66.26061
G1 X100.551 Y99.134 E66.28031
G1 X100.042 Y98.543 E66.29972
G1 X99.460 Y98.014 E66.31929
G1 X98.840 Y97.584 E66.33806
G1 X98.179 Y97.245 E66.35655
G1 X97.514 Y97.017 E66.37404
G1 X97.131 Y96.927 E66.38383
G1 X96.760 Y96.872 E66.39316
G1 X96.069 Y96.845 E66.41037
G1 X95.364 Y96.921 E66.42802
G1 X94.956 Y97.016 E66.43844
G1 X94.318 Y97.240 E66.45526
G1 X93.681 Y97.574 E66.47316
G1 X93.068 Y97.984 E66.49151
G1 X94.308 Y109.480 E66.77922
G0 F3600 X94.678 Y109.189
;TYPE:WALL-OUTER
G1 F1680 X95.403 Y109.447 E66.79837
G1 X96.054 Y109.580 E66.81490
G1 X96.405 Y109.613 E66.82368
G1 X96.740 Y109.616 E66.83201
G1 X97.393 Y109.550 E66.84834
G1 X98.034 Y109.385 E66.86481
G1 X98.648 Y109.123 E66.88142
G1 X99.207 Y108.784 E66.89769
G1 X99.501 Y108.562 E66.90686
G1 X100.004 Y108.088 E66.92406
G1 X100.450 Y107.541 E66.94162
G1 X100.654 Y107.236 E66.95075
G1 X101.002 Y106.597 E66.96885
G1 X101.279 Y105.905 E66.98740
G1 X101.474 Y105.195 E67.00572
G1 X101.596 Y104.439 E67.02478
G1 X101.635 Y103.698 E67.04324
G1 X101.638 Y103.649 E67.04446
G1 X101.599 Y102.921 E67.06260
G1 X101.479 Y102.148 E67.08207
G1 X101.281 Y101.402 E67.10127
G1 X100.991 Y100.647 E67.12140
G1 X100.649 Y99.995 E67.13972
G1 X100.234 Y99.376 E67.15826
G1 X99.756 Y98.822 E67.17647
G1 X99.211 Y98.327 E67.19479
G1 X98.635 Y97.927 E67.21224
G1 X98.022 Y97.613 E67.22937
G1 X97.403 Y97.401 E67.24565
G1 X97.056 Y97.319 E67.25453
G1 X96.723 Y97.270 E67.26290
G1 X96.083 Y97.245 E67.27884
G1 X95.431 Y97.315 E67.29516
G1 X95.067 Y97.400 E67.30446
G1 X94.477 Y97.607 E67.32001
G1 X93.885 Y97.918 E67.33665
G1 X93.490 Y98.181 E67.34846
G1 X94.678 Y109.189 E67.62396
G0 F3600 X94.515 Y110.666
G1 F1680 X93.804 Y110.386 E67.64298
G1 X93.162 Y110.047 E67.66104
G1 X92.560 Y109.643 E67.67908
G1 X91.999 Y109.178 E67.69721
G1 X91.472 Y108.644 E67.71588
G1 X90.999 Y108.056 E67.73466
G1 X90.592 Y107.437 E67.75309
G1 X90.238 Y106.762 E67.77206
G1 X89.945 Y106.053 E67.79115
G1 X89.724 Y105.327 E67.81003
G1 X89.569 Y104.573 E67.82918
G1 X89.485 Y103.804 E67.84843
G1 X89.471 Y103.028 E67.86774
G1 X89.530 Y102.279 E67.88644
G1 X89.661 Y101.523 E67.90553
G1 X89.861 Y100.792 E67.92439
G1 X90.132 Y100.077 E67.94341
G1 X90.456 Y99.424 E67.96155
G1 X90.860 Y98.779 E67.98049
G1 X91.305 Y98.205 E67.99856
G1 X91.804 Y97.683 E68.01653
G1 X92.363 Y97.207 E68.03480
G1 X92.949 Y96.806 E68.05247
G1 X93.564 Y96.475 E68.06985
G1 X94.216 Y96.210 E68.08736
G1 X94.883 Y96.022 E68.10460
G1 X95.568 Y95.905 E68.12190
G1 X96.281 Y95.863 E68.13967
G1 X96.344 Y95.861 E68.14124
G1 X96.973 Y95.898 E68.15691
G1 X97.655 Y96.008 E68.17410
G1 X98.338 Y96.194 E68.19172
G1 X99.049 Y96.473 E68.21072
G1 X99.689 Y96.812 E68.22874
G1 X100.293 Y97.216 E68.24682
G1 X100.854 Y97.682 E68.26497
G1 X101.380 Y98.216 E68.28362
G1 X101.854 Y98.804 E68.30242
G1 X102.259 Y99.421 E68.32078
G1 X102.613 Y100.094 E68.33970
G1 X102.907 Y100.807 E68.35889
G1 X103.127 Y101.528 E68.37765
G1 X103.282 Y102.284 E68.39685
G1 X103.366 Y103.055 E68.41615
G1 X103.380 Y103.831 E68.43546
G1 X103.321 Y104.580 E68.45416
G1 X103.190 Y105.337 E68.47327
G1 X102.992 Y106.066 E68.49207
G1 X102.720 Y106.778 E68.51104
G1 X102.392 Y107.442 E68.52946
G1 X101.997 Y108.074 E68.54801
G1 X101.548 Y108.654 E68.56626
G1 X101.049 Y109.177 E68.58425
G1 X100.489 Y109.653 E68.60253
G1 X99.905 Y110.053 E68.62015
G1 X99.288 Y110.384 E68.63757
G1 X98.636 Y110.649 E68.65508
G1 X97.968 Y110.838 E68.67236
G1 X97.283 Y110.955 E68.68965
G1 X96.574 Y110.996 E68.70732
G1 X96.508 Y110.998 E68.70896
G1 X95.880 Y110.962 E68.72461
G1 X95.198 Y110.852 E68.74180
G1 X94.515 Y110.666 E68.75942
G0 F3600 X94.602 Y110.379
G0 X93.787 Y109.305
;TYPE:SKIN
G1 F1980 X91.264 Y106.783 E68.84818
G0 F3600 X90.791 Y105.744
G1 F1980 X93.719 Y108.673 E68.95123
G0 F3600 X93.650 Y108.040
G1 F1980 X90.564 Y104.953 E69.05985
G0 F3600 X90.438 Y104.263
G1 F1980 X93.582 Y107.408 E69.17050
G0 F3600 X93.514 Y106.775
G1 F1980 X90.380 Y103.641 E69.28078
G0 F3600 X90.370 Y103.067
G1 F1980 X93.446 Y106.143 E69.38903
G0 F3600 X93.377 Y105.510
G1 F1980 X90.409 Y102.542 E69.49347
G0 F3600 X90.480 Y102.048
G1 F1980 X93.309 Y104.878 E69.59304
G0 F3600 X93.241 Y104.245
G1 F1980 X90.576 Y101.580 E69.68682
G0 F3600 X90.697 Y101.137
G1 F1980 X93.173 Y103.613 E69.77395
G0 F3600 X93.105 Y102.980
G1 F1980 X90.846 Y100.721 E69.85344
G0 F3600 X91.011 Y100.322
G1 F1980 X93.036 Y102.348 E69.92472
G0 F3600 X92.968 Y101.715
G1 F1980 X91.199 Y99.946 E69.98697
G0 F3600 X91.409 Y99.591
G1 F1980 X92.900 Y101.083 E70.03945
G0 F3600 X92.832 Y100.450
G1 F1980 X91.630 Y99.248 E70.08175
G0 F3600 X91.877 Y98.931
G1 F1980 X92.763 Y99.818 E70.11295
G0 F3600 X92.696 Y99.185
G1 F1980 X92.277 Y98.485 E70.13253
G1 X92.627 Y98.553 E70.14141
G1 F3000 E66.64141
G0 F3600 X91.977 Y96.503
;TYPE:SUPPORT
G1 F3000 E70.14141
G1 F1980 X91.977 Y89.901 E70.30568
G0 F3600 X92.040 Y90.091
G0 X89.398 Y91.144
G0 X89.311 Y90.965
G1 F1980 X89.311 Y99.988 E70.53020
G0 F3600 X89.126 Y99.917
G0 X84.118 Y96.078
G0 X83.979 Y95.937
G1 F1980 X83.979 Y110.425 E70.89070
G0 F3600 X84.119 Y110.285
G0 X86.785 Y113.551
G0 X86.645 Y113.691
G1 F1980 X86.645 Y93.071 E71.40378
G0 F3600 X86.785 Y93.212
G0 X94.589 Y95.067
G0 X94.643 Y95.259
G1 F1980 X94.643 Y87.873 E71.58757
G0 F3600 X94.782 Y88.014
G0 X97.327 Y87.210
G0 X97.309 Y87.011
G1 F1980 X97.309 Y95.142 E71.78989
G0 F3600 X97.342 Y94.947
G0 X99.517 Y95.478
G0 X100.067 Y95.883
G0 X99.975 Y96.056
G1 F1980 X99.975 Y86.751 E72.02142
G0 F3600 X99.993 Y86.945
G0 X102.659 Y86.678
G0 X102.641 Y86.490
G1 F1980 X102.641 Y98.546 E72.32141
G0 F3600 X102.807 Y98.437
G0 X105.245 Y101.521
G0 X105.307 Y101.710
G1 F1980 X105.307 Y86.229 E72.70662
G0 F3600 X105.325 Y86.411
G0 X107.991 Y86.165
G0 X107.973 Y85.966
G1 F1980 X107.973 Y118.401 E73.51369
G0 F3600 X107.952 Y118.208
G0 X110.618 Y117.913
G0 X110.639 Y118.112
G1 F1980 X110.639 Y85.700 E74.32019
G0 F3600 X110.657 Y85.898
G0 X113.323 Y85.632
G0 X113.305 Y85.433
G1 F1980 X113.305 Y117.822 E75.12611
G0 F3600 X113.287 Y117.632
G0 X115.950 Y117.341
G0 X115.971 Y117.532
G1 F1980 X115.971 Y85.382 E75.92609
G0 F3600 X115.971 Y85.581
G0 X118.496 Y87.060
G0 X118.637 Y86.921
G1 F1980 X118.637 Y117.242 E76.68056
G0 F3600 X118.616 Y117.045
G0 X105.288 Y118.492
G0 X105.307 Y118.691
G1 F1980 X105.307 Y102.847 E77.07481
G0 F3600 X105.242 Y103.034
G0 X103.350 Y107.981
G0 X102.797 Y108.673
G0 X102.641 Y108.550
G1 F1980 X102.641 Y118.981 E77.33436
G0 F3600 X102.619 Y118.779
G0 X99.975 Y118.981
G0 X99.975 Y119.180
G1 F1980 X99.975 Y110.921 E77.53986
G0 F3600 X100.069 Y111.097
G0 X98.210 Y111.912
G0 X97.319 Y111.954
G0 X97.309 Y111.755
G1 F1980 X97.309 Y118.153 E77.69906
G0 F3600 X97.449 Y118.013
G0 X96.825 Y117.463
G0 X94.682 Y117.196
G0 X94.643 Y117.390
G1 F1980 X94.643 Y111.530 E77.84488
G0 F3600 X94.591 Y111.721
G0 X92.602 Y110.993
G0 X91.851 Y110.353
G0 X91.977 Y110.201
G1 F1980 X91.977 Y116.856 E78.01047
G0 F3600 X92.016 Y116.662
G0 X89.400 Y115.420
G0 X89.311 Y115.597
G1 F1980 X89.311 Y106.611 E78.23407
G0 F3600 X89.127 Y106.686
G0 X90.652 Y109.377
G0 X93.342 Y111.383
G0 X96.626 Y112.093
G0 X99.755 Y111.379
G0 X121.164 Y115.034
G0 X121.303 Y115.175
G1 F1980 X121.303 Y89.056 E78.88398
G0 F3600 X121.214 Y89.233
G0 X123.829 Y91.393
G0 X123.969 Y91.253
G1 F1980 X123.969 Y111.709 E79.39298
G0 F3600 X123.828 Y111.569
G0 X126.495 Y108.303
G0 X126.635 Y108.443
G1 F1980 X126.635 Y103.189 E79.52372
;LAYER:3
M117 Nb = 4 / 202
G1 F3000 E76.02372
G0 F3600 X102.581 Y103.796 Z0.710
;TYPE:WALL-INNER
G1 F3000 E79.52372
G1 F2220 X102.529 Y104.483 E79.54086
G1 X102.411 Y105.160 E79.55796
G1 X102.232 Y105.817 E79.57490
G1 X101.993 Y106.447 E79.59167
G1 X101.691 Y107.057 E79.60861
G1 X101.450 Y107.444 E79.61995
G1 X101.726 Y106.937 E79.63431
G1 X102.037 Y106.160 E79.65514
G1 X102.252 Y105.372 E79.67546
G1 X102.390 Y104.533 E79.69662
G1 X102.432 Y103.754 E79.71603
G1 X102.438 Y103.647 E79.71870
G1 X102.390 Y102.786 E79.74016
G1 X102.263 Y101.994 E79.76011
G1 X102.044 Y101.169 E79.78135
G1 X101.719 Y100.319 E79.80400
G1 X101.339 Y99.591 E79.82443
G1 X100.891 Y98.925 E79.84440
G1 X100.590 Y98.550 E79.85637
G1 X100.779 Y98.743 E79.86309
G1 X101.196 Y99.259 E79.87960
G1 X101.577 Y99.838 E79.89684
G1 X101.886 Y100.426 E79.91337
G1 X102.153 Y101.074 E79.93081
G1 X102.352 Y101.724 E79.94773
G1 X102.493 Y102.412 E79.96520
G1 X102.569 Y103.097 E79.98235
G1 X102.581 Y103.796 E79.99975
G0 F3600 X100.771 Y107.779
G0 X98.522 Y109.623
G0 X95.989 Y109.974
G0 X94.335 Y109.457
G0 X93.575 Y109.363
G1 F2220 X93.044 Y109.007 E80.01565
G1 X92.537 Y108.587 E80.03204
G1 X92.074 Y108.119 E80.04842
G1 X91.651 Y107.592 E80.06523
G1 X91.284 Y107.037 E80.08179
G1 X90.962 Y106.424 E80.09902
G1 X90.699 Y105.786 E80.11619
G1 X90.500 Y105.136 E80.13310
G1 X90.359 Y104.449 E80.15055
G1 X90.282 Y103.754 E80.16795
G1 X90.270 Y103.054 E80.18537
G1 X90.322 Y102.377 E80.20227
G1 X90.439 Y101.707 E80.21919
G1 X90.621 Y101.040 E80.23640
G1 X90.861 Y100.405 E80.25329
G1 X91.155 Y99.812 E80.26976
G1 X91.511 Y99.242 E80.28648
G1 X91.907 Y98.730 E80.30259
G1 X92.350 Y98.266 E80.31855
G1 X92.667 Y97.995 E80.32893
G1 X93.913 Y109.541 E80.61789
G1 X93.575 Y109.363 E80.62740
G0 F3600 X93.374 Y109.708
G1 F2220 X92.801 Y109.324 E80.64456
G1 X92.269 Y108.884 E80.66174
G1 X91.775 Y108.383 E80.67924
G1 X91.331 Y107.832 E80.69685
G1 X90.933 Y107.229 E80.71483
G1 X90.604 Y106.602 E80.73245
G1 X90.325 Y105.926 E80.75065
G1 X90.111 Y105.229 E80.76879
G1 X89.963 Y104.507 E80.78713
G1 X89.884 Y103.789 E80.80510
G1 X89.870 Y103.050 E80.82349
G1 X89.926 Y102.330 E80.84146
G1 X90.050 Y101.615 E80.85952
G1 X90.242 Y100.913 E80.87763
G1 X90.489 Y100.257 E80.89507
G1 X90.810 Y99.610 E80.91304
G1 X91.179 Y99.020 E80.93036
G1 X91.603 Y98.472 E80.94760
G1 X92.078 Y97.974 E80.96472
G1 X92.597 Y97.531 E80.98170
G1 X93.155 Y97.149 E80.99853
G1 X93.731 Y96.839 E81.01480
G1 X94.334 Y96.594 E81.03100
G1 X94.971 Y96.412 E81.04748
G1 X95.602 Y96.303 E81.06342
G1 X96.277 Y96.262 E81.08024
G1 X96.349 Y96.261 E81.08204
G1 X96.904 Y96.293 E81.09587
G1 X97.562 Y96.397 E81.11245
G1 X98.193 Y96.567 E81.12871
G1 X98.879 Y96.835 E81.14703
G1 X99.483 Y97.154 E81.16403
G1 X100.049 Y97.532 E81.18096
G1 X100.583 Y97.975 E81.19823
G1 X101.077 Y98.477 E81.21575
G1 X101.525 Y99.033 E81.23352
G1 X101.916 Y99.626 E81.25119
G1 X102.248 Y100.257 E81.26894
G1 X102.527 Y100.934 E81.28716
G1 X102.741 Y101.631 E81.30530
G1 X102.889 Y102.353 E81.32364
G1 X102.967 Y103.068 E81.34153
G1 X102.981 Y103.809 E81.35998
G1 X102.925 Y104.531 E81.37800
G1 X102.801 Y105.244 E81.39600
G1 X102.611 Y105.943 E81.41403
G1 X102.359 Y106.609 E81.43175
G1 X102.045 Y107.243 E81.44935
G1 X101.671 Y107.843 E81.46694
G1 X101.250 Y108.388 E81.48408
G1 X100.771 Y108.890 E81.50134
G1 X100.254 Y109.330 E81.51824
G1 X99.704 Y109.707 E81.53483
G1 X99.125 Y110.018 E81.55118
G1 X98.514 Y110.267 E81.56760
G1 X97.882 Y110.448 E81.58396
G1 X97.250 Y110.557 E81.59992
G1 X96.577 Y110.597 E81.61669
G1 X96.504 Y110.598 E81.61851
G1 X95.949 Y110.567 E81.63234
G1 X95.275 Y110.461 E81.64932
G1 X94.660 Y110.293 E81.66518
G1 X93.972 Y110.023 E81.68357
G1 X93.374 Y109.708 E81.70039
G0 F3600 X94.308 Y109.480
G1 F2220 X95.291 Y109.831 E81.72636
G1 X95.989 Y109.974 E81.74409
G1 X96.384 Y110.012 E81.75396
G1 X96.758 Y110.015 E81.76327
G1 X97.454 Y109.945 E81.78068
G1 X97.838 Y109.859 E81.79047
G1 X98.164 Y109.762 E81.79893
G1 X98.840 Y109.474 E81.81721
G1 X99.426 Y109.118 E81.83428
G1 X99.758 Y108.868 E81.84462
G1 X100.297 Y108.360 E81.86305
G1 X100.771 Y107.778 E81.88172
G1 X100.996 Y107.443 E81.89176
G1 X101.364 Y106.767 E81.91092
G1 X101.658 Y106.033 E81.93059
G1 X101.862 Y105.287 E81.94984
G1 X101.992 Y104.489 E81.96995
G1 X102.033 Y103.734 E81.98877
G1 X102.038 Y103.647 E81.99094
G1 X101.992 Y102.829 E82.01132
G1 X101.872 Y102.077 E82.03027
G1 X101.664 Y101.291 E82.05050
G1 X101.355 Y100.483 E82.07203
G1 X100.996 Y99.796 E82.09131
G1 X100.566 Y99.156 E82.11050
G1 X100.284 Y98.807 E82.12167
G1 X99.771 Y98.280 E82.13997
G1 X99.178 Y97.804 E82.15889
G1 X98.538 Y97.416 E82.17751
G1 X97.869 Y97.127 E82.19564
G1 X97.130 Y96.927 E82.21469
G1 X96.760 Y96.872 E82.22400
G1 X96.076 Y96.845 E82.24103
G1 X95.370 Y96.920 E82.25870
G1 X94.951 Y97.017 E82.26940
G1 X94.331 Y97.235 E82.28575
G1 X93.972 Y97.408 E82.29567
G1 X93.635 Y97.603 E82.30536
G1 X93.068 Y97.987 E82.32240
G1 X94.308 Y109.480 E82.61003
G0 F3600 X94.678 Y109.188
;TYPE:WALL-OUTER
G1 F2040 X95.398 Y109.446 E82.62907
G1 X96.048 Y109.579 E82.64557
G1 X96.405 Y109.613 E82.65450
G1 X96.740 Y109.616 E82.66283
G1 X97.390 Y109.551 E82.67909
G1 X97.737 Y109.473 E82.68794
G1 X98.034 Y109.384 E82.69565
G1 X98.651 Y109.122 E82.71233
G1 X99.202 Y108.787 E82.72838
G1 X99.500 Y108.562 E82.73767
G1 X100.004 Y108.088 E82.75489
G1 X100.450 Y107.541 E82.77245
G1 X100.654 Y107.236 E82.78158
G1 X101.002 Y106.597 E82.79968
G1 X101.279 Y105.905 E82.81823
G1 X101.472 Y105.201 E82.83639
G1 X101.595 Y104.446 E82.85543
G1 X101.638 Y103.647 E82.87534
G1 X101.595 Y102.872 E82.89465
G1 X101.481 Y102.160 E82.91259
G1 X101.284 Y101.414 E82.93179
G1 X100.991 Y100.647 E82.95222
G1 X100.652 Y100.000 E82.97040
G1 X100.240 Y99.387 E82.98878
G1 X99.987 Y99.073 E82.99881
G1 X99.502 Y98.575 E83.01611
G1 X98.949 Y98.132 E83.03374
G1 X98.354 Y97.772 E83.05104
G1 X97.731 Y97.502 E83.06794
G1 X97.056 Y97.319 E83.08534
G1 X96.723 Y97.270 E83.09371
G1 X96.089 Y97.245 E83.10950
G1 X95.436 Y97.314 E83.12584
G1 X95.062 Y97.401 E83.13540
G1 X94.485 Y97.604 E83.15062
G1 X94.159 Y97.761 E83.15962
G1 X93.846 Y97.941 E83.16860
G1 X93.490 Y98.182 E83.17930
G1 X94.678 Y109.188 E83.45475
G0 F3600 X93.807 Y110.387
G1 F2040 X93.166 Y110.050 E83.47277
G1 X92.563 Y109.645 E83.49085
G1 X92.002 Y109.181 E83.50896
G1 X91.475 Y108.647 E83.52763
G1 X91.004 Y108.061 E83.54634
G1 X90.590 Y107.433 E83.56505
G1 X90.240 Y106.766 E83.58380
G1 X89.945 Y106.052 E83.60302
G1 X89.723 Y105.324 E83.62196
G1 X89.570 Y104.577 E83.64093
G1 X89.485 Y103.808 E83.66018
G1 X89.471 Y103.032 E83.67949
G1 X89.529 Y102.282 E83.69821
G1 X89.660 Y101.527 E83.71728
G1 X89.862 Y100.790 E83.73629
G1 X90.128 Y100.085 E83.75504
G1 X90.457 Y99.423 E83.77344
G1 X90.852 Y98.790 E83.79200
G1 X91.302 Y98.208 E83.81031
G1 X91.806 Y97.680 E83.82847
G1 X92.353 Y97.213 E83.84637
G1 X92.943 Y96.809 E83.86416
G1 X93.558 Y96.478 E83.88154
G1 X94.205 Y96.215 E83.89892
G1 X94.875 Y96.023 E83.91626
G1 X95.557 Y95.907 E83.93347
G1 X96.266 Y95.863 E83.95115
G1 X96.353 Y95.862 E83.95331
G1 X96.949 Y95.896 E83.96817
G1 X97.645 Y96.006 E83.98570
G1 X98.322 Y96.189 E84.00315
G1 X99.043 Y96.470 E84.02241
G1 X99.687 Y96.810 E84.04053
G1 X100.290 Y97.214 E84.05859
G1 X100.851 Y97.679 E84.07672
G1 X101.377 Y98.213 E84.09537
G1 X101.851 Y98.801 E84.11416
G1 X102.257 Y99.418 E84.13254
G1 X102.612 Y100.093 E84.15152
G1 X102.907 Y100.808 E84.17076
G1 X103.127 Y101.528 E84.18950
G1 X103.282 Y102.283 E84.20868
G1 X103.366 Y103.051 E84.22790
G1 X103.380 Y103.827 E84.24721
G1 X103.322 Y104.577 E84.26593
G1 X103.191 Y105.333 E84.28502
G1 X102.992 Y106.064 E84.30387
G1 X102.722 Y106.774 E84.32277
G1 X102.394 Y107.438 E84.34120
G1 X102.000 Y108.070 E84.35973
G1 X101.551 Y108.652 E84.37802
G1 X101.052 Y109.174 E84.39599
G1 X100.497 Y109.647 E84.41414
G1 X99.904 Y110.053 E84.43202
G1 X99.295 Y110.381 E84.44923
G1 X98.646 Y110.645 E84.46667
G1 X97.978 Y110.837 E84.48396
G1 X97.295 Y110.953 E84.50120
G1 X96.587 Y110.996 E84.51885
G1 X96.501 Y110.997 E84.52099
G1 X95.904 Y110.964 E84.53587
G1 X95.202 Y110.853 E84.55355
G1 X94.529 Y110.670 E84.57090
G1 X93.807 Y110.387 E84.59020
G0 F3600 X93.598 Y109.257
;TYPE:SKIN
G1 F2460 X93.512 Y109.061 E84.59599
G1 X93.708 Y108.583 E84.60885
G0 F3600 X93.653 Y108.074
G1 F2460 X92.938 Y108.789 E84.63401
G0 F3600 X92.629 Y108.533
G1 F2460 X93.598 Y107.565 E84.66809
G0 F3600 X93.543 Y107.055
G1 F2460 X92.346 Y108.252 E84.71021
G0 F3600 X92.075 Y107.959
G1 F2460 X93.488 Y106.546 E84.75994
G0 F3600 X93.433 Y106.037
G1 F2460 X91.824 Y107.646 E84.81656
G0 F3600 X91.590 Y107.316
G1 F2460 X93.379 Y105.527 E84.87951
G0 F3600 X93.323 Y105.018
G1 F2460 X91.365 Y106.976 E84.94841
G0 F3600 X91.171 Y106.606
G1 F2460 X93.268 Y104.508 E85.02222
G0 F3600 X93.213 Y103.999
G1 F2460 X90.989 Y106.224 E85.10050
G0 F3600 X90.824 Y105.824
G1 F2460 X93.159 Y103.490 E85.18265
G0 F3600 X93.104 Y102.980
G1 F2460 X90.685 Y105.399 E85.26777
G0 F3600 X90.565 Y104.955
G1 F2460 X93.048 Y102.471 E85.35517
G0 F3600 X92.993 Y101.962
G1 F2460 X90.469 Y104.487 E85.44400
G0 F3600 X90.408 Y103.983
G1 F2460 X92.939 Y101.452 E85.53307
G0 F3600 X92.884 Y100.943
G1 F2460 X90.377 Y103.450 E85.62129
G0 F3600 X90.383 Y102.879
G1 F2460 X92.828 Y100.434 E85.70732
G0 F3600 X92.773 Y99.925
G1 F2460 X90.445 Y102.254 E85.78926
G0 F3600 X90.585 Y101.549
G1 F2460 X92.719 Y99.415 E85.86436
G0 F3600 X92.664 Y98.906
G1 F2460 X90.847 Y100.723 E85.92830
G0 F3600 X91.403 Y99.603
G1 F2460 X92.609 Y98.397 E85.97074
G1 F3000 E82.47074
G0 F3600 X91.977 Y96.501
;TYPE:SUPPORT
G1 F3000 E85.97074
G1 F2460 X91.977 Y89.901 E86.13496
G0 F3600 X92.040 Y90.091
G0 X89.398 Y91.144
G0 X89.311 Y90.965
G1 F2460 X89.311 Y99.986 E86.35943
G0 F3600 X89.126 Y99.915
G0 X84.118 Y96.078
G0 X83.979 Y95.937
G1 F2460 X83.979 Y110.425 E86.71993
G0 F3600 X84.119 Y110.285
G0 X86.785 Y113.551
G0 X86.645 Y113.691
G1 F2460 X86.645 Y93.071 E87.23301
G0 F3600 X86.785 Y93.212
G0 X94.590 Y95.066
G0 X94.643 Y95.258
G1 F2460 X94.643 Y87.873 E87.41677
G0 F3600 X94.782 Y88.014
G0 X97.327 Y87.210
G0 X97.309 Y87.011
G1 F2460 X97.309 Y95.142 E87.61909
G0 F3600 X97.339 Y94.947
G0 X99.503 Y95.471
G0 X100.068 Y95.883
G0 X99.975 Y96.057
G1 F2460 X99.975 Y86.751 E87.85065
G0 F3600 X99.993 Y86.945
G0 X102.659 Y86.678
G0 X102.641 Y86.490
G1 F2460 X102.641 Y98.547 E88.15066
G0 F3600 X102.807 Y98.438
G0 X105.245 Y101.520
G0 X105.307 Y101.709
G1 F2460 X105.307 Y86.229 E88.53585
G0 F3600 X105.325 Y86.411
G0 X107.991 Y86.165
G0 X107.973 Y85.966
G1 F2460 X107.973 Y118.401 E89.34292
G0 F3600 X107.952 Y118.208
G0 X110.618 Y117.913
G0 X110.639 Y118.112
G1 F2460 X110.639 Y85.700 E90.14942
G0 F3600 X110.657 Y85.898
G0 X113.323 Y85.632
G0 X113.305 Y85.433
G1 F2460 X113.305 Y117.822 E90.95535
G0 F3600 X113.287 Y117.632
G0 X115.950 Y117.341
G0 X115.971 Y117.532
G1 F2460 X115.971 Y85.382 E91.75533
G0 F3600 X115.971 Y85.581
G0 X118.496 Y87.060
G0 X118.637 Y86.921
G1 F2460 X118.637 Y117.242 E92.50979
G0 F3600 X118.616 Y117.045
G0 X105.288 Y118.492
G0 X105.307 Y118.691
G1 F2460 X105.307 Y102.847 E92.90404
G0 F3600 X105.242 Y103.034
G0 X103.354 Y107.973
G0 X102.798 Y108.670
G0 X102.641 Y108.549
G1 F2460 X102.641 Y118.981 E93.16361
G0 F3600 X102.619 Y118.779
G0 X99.975 Y118.981
G0 X99.975 Y119.180
G1 F2460 X99.975 Y110.922 E93.36910
G0 F3600 X100.069 Y111.098
G0 X98.219 Y111.908
G0 X97.321 Y111.952
G0 X97.309 Y111.753
G1 F2460 X97.309 Y118.153 E93.52834
G0 F3600 X97.449 Y118.013
G0 X96.825 Y117.463
G0 X94.682 Y117.196
G0 X94.643 Y117.390
G1 F2460 X94.643 Y111.534 E93.67406
G0 F3600 X94.588 Y111.724
G0 X92.599 Y110.991
G0 X91.852 Y110.353
G0 X91.977 Y110.201
G1 F2460 X91.977 Y116.856 E93.83965
G0 F3600 X92.016 Y116.662
G0 X89.400 Y115.420
G0 X89.311 Y115.597
G1 F2460 X89.311 Y106.616 E94.06312
G0 F3600 X89.127 Y106.690
G0 X90.659 Y109.386
G0 X93.350 Y111.387
G0 X96.627 Y112.094
G0 X99.762 Y111.376
G0 X121.164 Y115.034
G0 X121.303 Y115.175
G1 F2460 X121.303 Y89.056 E94.71304
G0 F3600 X121.214 Y89.233
G0 X123.829 Y91.393
G0 X123.969 Y91.253
G1 F2460 X123.969 Y111.709 E95.22204
G0 F3600 X123.828 Y111.569
G0 X126.495 Y108.303
G0 X126.635 Y108.443
G1 F2460 X126.635 Y103.189 E95.35277
;LAYER:4
M117 Nb = 5 / 202
G1 F3000 E91.85277
G0 F3600 X102.581 Y103.791 Z0.860
;TYPE:WALL-INNER
G1 F3000 E95.35277
G1 F2700 X102.529 Y104.471 E95.36974
G1 X102.410 Y105.160 E95.38714
G1 X102.231 Y105.818 E95.40411
G1 X101.994 Y106.445 E95.42079
G1 X101.695 Y107.050 E95.43758
G1 X101.534 Y107.310 E95.44519
G1 X101.878 Y106.584 E95.46518
G1 X102.148 Y105.791 E95.48602
G1 X102.335 Y104.941 E95.50768
G1 X102.395 Y104.488 E95.51905
G1 X102.430 Y103.773 E95.53686
G1 X102.438 Y103.650 E95.53993
G1 X102.396 Y102.901 E95.55860
G1 X102.389 Y102.784 E95.56151
G1 X102.265 Y102.007 E95.58109
G1 X102.049 Y101.182 E95.60231
G1 X101.720 Y100.319 E95.62529
G1 X101.349 Y99.609 E95.64522
G1 X101.092 Y99.202 E95.65720
G1 X100.596 Y98.556 E95.67747
G1 X100.778 Y98.741 E95.68393
G1 X101.193 Y99.255 E95.70036
G1 X101.575 Y99.834 E95.71762
G1 X101.884 Y100.422 E95.73415
G1 X102.151 Y101.070 E95.75159
G1 X102.352 Y101.725 E95.76864
G1 X102.493 Y102.404 E95.78590
G1 X102.569 Y103.092 E95.80312
G1 X102.581 Y103.791 E95.82051
G0 F3600 X100.518 Y108.106
G0 X98.528 Y109.621
G0 X96.026 Y109.980
G0 X94.335 Y109.458
G0 X93.854 Y108.987
G1 F2700 X93.912 Y109.540 E95.83435
G1 X93.581 Y109.366 E95.84365
G1 X93.046 Y109.008 E95.85967
G1 X92.538 Y108.589 E95.87606
G1 X92.075 Y108.120 E95.89246
G1 X91.654 Y107.597 E95.90916
G1 X91.281 Y107.033 E95.92599
G1 X90.968 Y106.437 E95.94274
G1 X90.701 Y105.790 E95.96016
G1 X90.500 Y105.135 E95.97720
G1 X90.359 Y104.456 E95.99446
G1 X90.282 Y103.762 E96.01183
G1 X90.270 Y103.068 E96.02910
G1 X90.323 Y102.377 E96.04635
G1 X90.437 Y101.713 E96.06311
G1 X90.620 Y101.045 E96.08035
G1 X90.858 Y100.413 E96.09715
G1 X91.155 Y99.812 E96.11383
G1 X91.509 Y99.244 E96.13049
G1 X91.900 Y98.739 E96.14638
G1 X92.356 Y98.260 E96.16283
G1 X92.667 Y97.994 E96.17302
G1 X93.854 Y108.987 E96.44814
G0 F3600 X94.250 Y108.945
G1 F2700 X94.307 Y109.480 E96.46153
G1 X95.275 Y109.825 E96.48710
G1 X96.026 Y109.980 E96.50618
G1 X96.386 Y110.012 E96.51517
G1 X96.758 Y110.015 E96.52443
G1 X97.454 Y109.945 E96.54184
G1 X97.843 Y109.858 E96.55176
G1 X98.164 Y109.762 E96.56009
G1 X98.528 Y109.621 E96.56981
G1 X98.840 Y109.473 E96.57840
G1 X99.431 Y109.115 E96.59559
G1 X100.007 Y108.649 E96.61403
G1 X100.518 Y108.106 E96.63258
G1 X100.992 Y107.449 E96.65274
G1 X101.206 Y107.079 E96.66337
G1 X101.508 Y106.435 E96.68107
G1 X101.763 Y105.684 E96.70081
G1 X101.941 Y104.872 E96.72149
G1 X101.997 Y104.452 E96.73204
G1 X102.032 Y103.749 E96.74955
G1 X102.038 Y103.649 E96.75204
G1 X101.998 Y102.924 E96.77011
G1 X101.992 Y102.827 E96.77253
G1 X101.874 Y102.090 E96.79110
G1 X101.668 Y101.304 E96.81132
G1 X101.355 Y100.483 E96.83318
G1 X101.003 Y99.808 E96.85213
G1 X100.764 Y99.431 E96.86323
G1 X100.291 Y98.814 E96.88258
G1 X99.782 Y98.290 E96.90075
G1 X99.453 Y98.009 E96.91152
G1 X98.840 Y97.584 E96.93008
G1 X98.179 Y97.245 E96.94857
G1 X97.525 Y97.020 E96.96577
G1 X97.121 Y96.925 E96.97610
G1 X96.410 Y96.845 E96.99390
G1 X95.702 Y96.872 E97.01153
G1 X95.333 Y96.927 E97.02082
G1 X94.945 Y97.019 E97.03074
G1 X94.328 Y97.236 E97.04701
G1 X93.691 Y97.568 E97.06489
G1 X93.068 Y97.984 E97.08353
G1 X94.250 Y108.945 E97.35785
G0 F3600 X93.978 Y110.026
G1 F2700 X93.373 Y109.708 E97.37486
G1 X92.809 Y109.330 E97.39175
G1 X92.272 Y108.886 E97.40909
G1 X91.776 Y108.384 E97.42665
G1 X91.330 Y107.832 E97.44431
G1 X90.938 Y107.237 E97.46204
G1 X90.606 Y106.606 E97.47978
G1 X90.327 Y105.930 E97.49797
G1 X90.111 Y105.226 E97.51630
G1 X89.964 Y104.518 E97.53429
G1 X89.884 Y103.794 E97.55242
G1 X89.870 Y103.055 E97.57081
G1 X89.926 Y102.333 E97.58883
G1 X90.048 Y101.623 E97.60675
G1 X90.239 Y100.925 E97.62476
G1 X90.494 Y100.248 E97.64276
G1 X90.806 Y99.618 E97.66025
G1 X91.177 Y99.023 E97.67770
G1 X91.605 Y98.470 E97.69510
G1 X92.074 Y97.976 E97.71205
G1 X92.595 Y97.532 E97.72908
G1 X93.149 Y97.152 E97.74580
G1 X93.721 Y96.843 E97.76198
G1 X94.327 Y96.597 E97.77825
G1 X94.958 Y96.415 E97.79459
G1 X95.594 Y96.304 E97.81066
G1 X96.265 Y96.263 E97.82738
G1 X96.361 Y96.261 E97.82977
G1 X96.891 Y96.292 E97.84298
G1 X97.540 Y96.393 E97.85933
G1 X98.179 Y96.563 E97.87578
G1 X98.875 Y96.834 E97.89436
G1 X99.480 Y97.152 E97.91137
G1 X100.045 Y97.529 E97.92827
G1 X100.581 Y97.973 E97.94559
G1 X101.076 Y98.476 E97.96315
G1 X101.523 Y99.028 E97.98083
G1 X101.914 Y99.622 E97.99852
G1 X102.246 Y100.253 E98.01626
G1 X102.525 Y100.930 E98.03448
G1 X102.741 Y101.634 E98.05281
G1 X102.888 Y102.343 E98.07082
G1 X102.967 Y103.063 E98.08885
G1 X102.981 Y103.804 E98.10729
G1 X102.925 Y104.526 E98.12531
G1 X102.802 Y105.240 E98.14333
G1 X102.612 Y105.938 E98.16133
G1 X102.359 Y106.605 E98.17908
G1 X102.046 Y107.240 E98.19670
G1 X101.670 Y107.845 E98.21443
G1 X101.252 Y108.386 E98.23144
G1 X100.781 Y108.882 E98.24846
G1 X100.257 Y109.328 E98.26558
G1 X99.707 Y109.706 E98.28218
G1 X99.123 Y110.020 E98.29868
G1 X98.531 Y110.262 E98.31460
G1 X97.893 Y110.445 E98.33111
G1 X97.261 Y110.555 E98.34707
G1 X96.589 Y110.597 E98.36383
G1 X96.495 Y110.598 E98.36617
G1 X95.962 Y110.568 E98.37945
G1 X95.313 Y110.467 E98.39579
G1 X94.674 Y110.297 E98.41225
G1 X93.978 Y110.026 E98.43083
G0 F3600 X93.814 Y110.391
;TYPE:WALL-OUTER
G1 F2400 X93.170 Y110.052 E98.44894
G1 X92.567 Y109.648 E98.46700
G1 X92.004 Y109.183 E98.48517
G1 X91.478 Y108.650 E98.50380
G1 X91.010 Y108.070 E98.52235
G1 X90.594 Y107.440 E98.54113
G1 X90.242 Y106.770 E98.55997
G1 X89.947 Y106.056 E98.57919
G1 X89.727 Y105.336 E98.59792
G1 X89.570 Y104.581 E98.61711
G1 X89.485 Y103.813 E98.63634
G1 X89.471 Y103.037 E98.65565
G1 X89.529 Y102.287 E98.67437
G1 X89.659 Y101.531 E98.69346
G1 X89.860 Y100.798 E98.71237
G1 X90.126 Y100.092 E98.73114
G1 X90.455 Y99.426 E98.74962
G1 X90.850 Y98.793 E98.76819
G1 X91.299 Y98.212 E98.78646
G1 X91.802 Y97.683 E98.80462
G1 X92.349 Y97.217 E98.82250
G1 X92.941 Y96.811 E98.84037
G1 X93.556 Y96.480 E98.85774
G1 X94.198 Y96.218 E98.87500
G1 X94.864 Y96.026 E98.89225
G1 X95.545 Y95.908 E98.90944
G1 X96.252 Y95.864 E98.92707
G1 X96.364 Y95.862 E98.92986
G1 X96.933 Y95.895 E98.94404
G1 X97.630 Y96.004 E98.96159
G1 X98.301 Y96.182 E98.97887
G1 X99.039 Y96.469 E98.99857
G1 X99.677 Y96.805 E99.01651
G1 X100.288 Y97.213 E99.03479
G1 X100.848 Y97.676 E99.05287
G1 X101.374 Y98.210 E99.07152
G1 X101.849 Y98.797 E99.09031
G1 X102.255 Y99.414 E99.10869
G1 X102.608 Y100.084 E99.12754
G1 X102.905 Y100.804 E99.14692
G1 X103.125 Y101.524 E99.16565
G1 X103.281 Y102.274 E99.18471
G1 X103.366 Y103.041 E99.20391
G1 X103.380 Y103.822 E99.22335
G1 X103.322 Y104.571 E99.24204
G1 X103.193 Y105.323 E99.26103
G1 X102.994 Y106.056 E99.27993
G1 X102.723 Y106.771 E99.29895
G1 X102.397 Y107.432 E99.31729
G1 X102.008 Y108.058 E99.33563
G1 X101.548 Y108.654 E99.35436
G1 X101.056 Y109.171 E99.37212
G1 X100.500 Y109.645 E99.39030
G1 X99.907 Y110.051 E99.40819
G1 X99.301 Y110.378 E99.42532
G1 X98.655 Y110.642 E99.44268
G1 X97.988 Y110.834 E99.45995
G1 X97.308 Y110.951 E99.47712
G1 X96.601 Y110.996 E99.49475
G1 X96.491 Y110.997 E99.49749
G1 X95.920 Y110.965 E99.51172
G1 X95.223 Y110.856 E99.52927
G1 X94.552 Y110.678 E99.54655
G1 X93.814 Y110.391 E99.56625
G0 F3600 X94.678 Y109.188
G1 F2400 X95.390 Y109.443 E99.58507
G1 X95.745 Y109.530 E99.59416
G1 X96.075 Y109.584 E99.60248
G1 X96.405 Y109.613 E99.61073
G1 X96.740 Y109.616 E99.61906
G1 X97.390 Y109.551 E99.63532
G1 X98.035 Y109.384 E99.65190
G1 X98.371 Y109.254 E99.66086
G1 X98.651 Y109.122 E99.66856
G1 X99.201 Y108.788 E99.68457
G1 X99.735 Y108.356 E99.70167
G1 X100.214 Y107.847 E99.71906
G1 X100.452 Y107.538 E99.72876
G1 X100.653 Y107.238 E99.73775
G1 X100.852 Y106.894 E99.74764
G1 X101.137 Y106.285 E99.76437
G1 X101.378 Y105.577 E99.78298
G1 X101.548 Y104.802 E99.80272
G1 X101.599 Y104.416 E99.81241
G1 X101.634 Y103.725 E99.82962
G1 X101.638 Y103.648 E99.83154
G1 X101.600 Y102.947 E99.84901
G1 X101.595 Y102.871 E99.85091
G1 X101.483 Y102.172 E99.86852
G1 X101.288 Y101.426 E99.88771
G1 X100.991 Y100.647 E99.90845
G1 X100.657 Y100.008 E99.92639
G1 X100.436 Y99.659 E99.93667
G1 X99.989 Y99.076 E99.95495
G1 X99.508 Y98.582 E99.97211
G1 X99.209 Y98.325 E99.98192
G1 X98.635 Y97.927 E99.99930
G1 X98.022 Y97.613 E100.01644
G1 X97.413 Y97.404 E100.03246
G1 X97.053 Y97.319 E100.04166
G1 X96.395 Y97.245 E100.05814
G1 X95.739 Y97.270 E100.07447
G1 X95.057 Y97.403 E100.09176
G1 X94.487 Y97.603 E100.10679
G1 X93.894 Y97.912 E100.12343
G1 X93.490 Y98.181 E100.13551
G1 X94.678 Y109.188 E100.41098
G0 F3600 X93.743 Y109.261
;TYPE:SKIN
G1 F3000 X91.261 Y106.779 E100.49832
G0 F3600 X90.792 Y105.746
G1 F3000 X93.717 Y108.671 E100.60125
G0 F3600 X93.649 Y108.038
G1 F3000 X90.563 Y104.953 E100.70983
G0 F3600 X90.438 Y104.263
G1 F3000 X93.581 Y107.406 E100.82043
G0 F3600 X93.512 Y106.773
G1 F3000 X90.380 Y103.641 E100.93064
G0 F3600 X90.370 Y103.067
G1 F3000 X93.444 Y106.141 E101.03882
G0 F3600 X93.376 Y105.509
G1 F3000 X90.409 Y102.542 E101.14322
G0 F3600 X90.480 Y102.048
G1 F3000 X93.308 Y104.876 E101.24274
G0 F3600 X93.240 Y104.244
G1 F3000 X90.576 Y101.580 E101.33648
G0 F3600 X90.698 Y101.138
G1 F3000 X93.171 Y103.611 E101.42351
G0 F3600 X93.104 Y102.979
G1 F3000 X90.846 Y100.722 E101.50295
G0 F3600 X91.012 Y100.323
G1 F3000 X93.036 Y102.347 E101.57417
G0 F3600 X92.967 Y101.714
G1 F3000 X91.198 Y99.945 E101.63642
G0 F3600 X91.409 Y99.591
G1 F3000 X92.899 Y101.082 E101.68887
G0 F3600 X92.831 Y100.449
G1 F3000 X91.630 Y99.248 E101.73114
G0 F3600 X91.876 Y98.930
G1 F3000 X92.763 Y99.817 E101.76235
G0 F3600 X92.694 Y99.184
G1 F3000 X92.277 Y98.485 E101.78184
G1 X92.626 Y98.552 E101.79068
G1 F3000 E98.29068
G0 F3600 X91.977 Y96.503
;TYPE:SUPPORT
G1 F3000 E101.79068
G1 X91.977 Y89.901 E101.95496
G0 F3600 X92.040 Y90.091
G0 X89.398 Y91.144
G0 X89.311 Y90.965
G1 F3000 X89.311 Y99.988 E102.17948
G0 F3600 X89.125 Y99.917
G0 X84.118 Y96.078
G0 X83.979 Y95.937
G1 F3000 X83.979 Y110.425 E102.53998
G0 F3600 X84.119 Y110.285
G0 X86.785 Y113.551
G0 X86.645 Y113.691
G1 F3000 X86.645 Y93.071 E103.05306
G0 F3600 X86.785 Y93.212
G0 X94.589 Y95.066
G0 X94.643 Y95.258
G1 F3000 X94.643 Y87.873 E103.23682
G0 F3600 X94.782 Y88.014
G0 X97.327 Y87.210
G0 X97.309 Y87.011
G1 F3000 X97.309 Y95.144 E103.43919
G0 F3600 X97.340 Y94.949
G0 X99.496 Y95.468
G0 X100.068 Y95.883
G0 X99.975 Y96.058
G1 F3000 X99.975 Y86.751 E103.67077
G0 F3600 X99.993 Y86.945
G0 X102.659 Y86.678
G0 X102.641 Y86.490
G1 F3000 X102.641 Y98.546 E103.97076
G0 F3600 X102.807 Y98.438
G0 X105.245 Y101.521
G0 X105.307 Y101.710
G1 F3000 X105.307 Y86.229 E104.35597
G0 F3600 X105.325 Y86.411
G0 X107.991 Y86.165
G0 X107.973 Y85.966
G1 F3000 X107.973 Y118.401 E105.16304
G0 F3600 X107.952 Y118.208
G0 X110.618 Y117.913
G0 X110.639 Y118.112
G1 F3000 X110.639 Y85.700 E105.96954
G0 F3600 X110.657 Y85.898
G0 X113.323 Y85.632
G0 X113.305 Y85.433
G1 F3000 X113.305 Y117.822 E106.77547
G0 F3600 X113.287 Y117.632
G0 X115.950 Y117.341
G0 X115.971 Y117.532
G1 F3000 X115.971 Y85.382 E107.57545
G0 F3600 X115.971 Y85.581
G0 X118.496 Y87.060
G0 X118.637 Y86.921
G1 F3000 X118.637 Y117.242 E108.32992
G0 F3600 X118.616 Y117.045
G0 X105.288 Y118.492
G0 X105.307 Y118.691
G1 F3000 X105.307 Y102.847 E108.72416
G0 F3600 X105.242 Y103.034
G0 X103.356 Y107.970
G0 X102.799 Y108.669
G0 X102.641 Y108.548
G1 F3000 X102.641 Y118.981 E108.98376
G0 F3600 X102.619 Y118.779
G0 X99.975 Y118.981
G0 X99.975 Y119.180
G1 F3000 X99.975 Y110.922 E109.18924
G0 F3600 X100.068 Y111.099
G0 X98.225 Y111.906
G0 X97.322 Y111.951
G0 X97.309 Y111.752
G1 F3000 X97.309 Y118.153 E109.34852
G0 F3600 X97.449 Y118.013
G0 X96.825 Y117.463
G0 X94.682 Y117.196
G0 X94.643 Y117.390
G1 F3000 X94.643 Y111.529 E109.49435
G0 F3600 X94.591 Y111.720
G0 X92.607 Y110.996
G0 X91.851 Y110.352
G0 X91.977 Y110.200
G1 F3000 X91.977 Y116.856 E109.65997
G0 F3600 X92.016 Y116.662
G0 X89.400 Y115.420
G0 X89.311 Y115.597
G1 F3000 X89.311 Y106.611 E109.88357
G0 F3600 X89.127 Y106.687
G0 X90.657 Y109.382
G0 X93.351 Y111.388
G0 X96.637 Y112.094
G0 X99.770 Y111.371
G0 X121.164 Y115.034
G0 X121.303 Y115.175
G1 F3000 X121.303 Y89.056 E110.53348
G0 F3600 X121.214 Y89.233
G0 X123.829 Y91.393
G0 X123.969 Y91.253
G1 F3000 X123.969 Y111.709 E111.04248
G0 F3600 X123.828 Y111.569
G0 X126.495 Y108.303
G0 X126.635 Y108.443
G1 F3000 X126.635 Y103.189 E111.17322
;LAYER:5
M117 Nb = 6 / 202
G1 F3000 E107.67322
G0 F3600 X102.581 Y103.790 Z1.010
;TYPE:WALL-INNER
G1 F3000 E111.17322
G1 F2700 X102.529 Y104.478 E111.19038
G1 X102.413 Y105.151 E111.20738
G1 X102.235 Y105.810 E111.22436
G1 X101.996 Y106.441 E111.24115
G1 X101.698 Y107.045 E111.25791
G1 X101.425 Y107.484 E111.27078
G1 X101.718 Y106.952 E111.28589
G1 X101.897 Y106.539 E111.29709
G1 X102.146 Y105.796 E111.31659
G1 X102.335 Y104.941 E111.33837
G1 X102.395 Y104.489 E111.34972
G1 X102.437 Y103.645 E111.37075
G1 X102.397 Y102.913 E111.38899
G1 X102.389 Y102.782 E111.39225
G1 X102.274 Y102.065 E111.41032
G1 X102.050 Y101.191 E111.43277
G1 X101.720 Y100.320 E111.45595
G1 X101.346 Y99.603 E111.47607
G1 X100.881 Y98.909 E111.49686
G1 X100.479 Y98.439 E111.51225
G1 X100.775 Y98.738 E111.52272
G1 X101.190 Y99.251 E111.53914
G1 X101.570 Y99.826 E111.55629
G1 X101.887 Y100.429 E111.57324
G1 X102.149 Y101.060 E111.59024
G1 X102.351 Y101.721 E111.60744
G1 X102.492 Y102.400 E111.62469
G1 X102.568 Y103.089 E111.64194
G1 X102.581 Y103.790 E111.65939
G0 F3600 X100.551 Y108.067
G0 X98.154 Y109.766
G0 X95.666 Y109.921
G0 X94.334 Y109.457
G0 X93.771 Y108.224
G1 F2700 X93.850 Y108.954 E111.67766
G1 X93.911 Y109.539 E111.69229
G1 X93.580 Y109.366 E111.70158
G1 X93.043 Y109.007 E111.71766
G1 X92.545 Y108.596 E111.73372
G1 X92.078 Y108.124 E111.75025
G1 X91.656 Y107.600 E111.76699
G1 X91.286 Y107.040 E111.78369
G1 X90.966 Y106.434 E111.80074
G1 X90.702 Y105.796 E111.81792
G1 X90.501 Y105.139 E111.83502
G1 X90.360 Y104.460 E111.85227
G1 X90.283 Y103.768 E111.86960
G1 X90.270 Y103.069 E111.88699
G1 X90.322 Y102.383 E111.90411
G1 X90.438 Y101.711 E111.92108
G1 X90.616 Y101.053 E111.93804
G1 X90.858 Y100.412 E111.95509
G1 X91.154 Y99.813 E111.97172
G1 X91.499 Y99.259 E111.98796
G1 X91.903 Y98.736 E112.00440
G1 X92.353 Y98.263 E112.02064
G1 X92.667 Y97.995 E112.03092
G1 X93.771 Y108.224 E112.28692
G0 F3600 X94.247 Y108.913
G1 F2700 X94.306 Y109.479 E112.30108
G1 X95.268 Y109.823 E112.32650
G1 X96.026 Y109.980 E112.34576
G1 X96.386 Y110.012 E112.35476
G1 X96.758 Y110.015 E112.36401
G1 X97.463 Y109.944 E112.38164
G1 X98.154 Y109.766 E112.39940
G1 X98.543 Y109.614 E112.40979
G1 X99.118 Y109.318 E112.42588
G1 X99.751 Y108.875 E112.44511
G1 X100.290 Y108.367 E112.46354
G1 X100.551 Y108.067 E112.47343
G1 X100.970 Y107.484 E112.49130
G1 X101.359 Y106.776 E112.51140
G1 X101.524 Y106.396 E112.52171
G1 X101.761 Y105.689 E112.54026
G1 X101.941 Y104.872 E112.56108
G1 X101.997 Y104.452 E112.57162
G1 X102.038 Y103.646 E112.59170
G1 X101.999 Y102.937 E112.60937
G1 X101.992 Y102.827 E112.61211
G1 X101.880 Y102.129 E112.62970
G1 X101.862 Y102.020 E112.63245
G1 X101.671 Y101.314 E112.65065
G1 X101.355 Y100.484 E112.67275
G1 X101.002 Y99.807 E112.69175
G1 X100.562 Y99.150 E112.71142
G1 X100.055 Y98.557 E112.73084
G1 X99.461 Y98.014 E112.75086
G1 X98.840 Y97.584 E112.76966
G1 X98.179 Y97.246 E112.78813
G1 X97.531 Y97.021 E112.80520
G1 X97.132 Y96.927 E112.81540
G1 X96.760 Y96.872 E112.82476
G1 X96.097 Y96.845 E112.84127
G1 X95.693 Y96.873 E112.85134
G1 X95.333 Y96.927 E112.86040
G1 X94.636 Y97.116 E112.87837
G1 X93.971 Y97.409 E112.89645
G1 X93.625 Y97.609 E112.90640
G1 X93.068 Y97.987 E112.92315
G1 X94.247 Y108.913 E113.19659
G0 F3600 X93.974 Y110.024
G1 F2700 X93.380 Y109.712 E113.21329
G1 X92.806 Y109.328 E113.23047
G1 X92.273 Y108.889 E113.24766
G1 X91.785 Y108.395 E113.26493
G1 X91.336 Y107.839 E113.28272
G1 X90.940 Y107.239 E113.30060
G1 X90.603 Y106.599 E113.31860
G1 X90.329 Y105.940 E113.33636
G1 X90.112 Y105.230 E113.35483
G1 X89.965 Y104.522 E113.37283
G1 X89.885 Y103.798 E113.39095
G1 X89.870 Y103.058 E113.40937
G1 X89.925 Y102.337 E113.42736
G1 X90.048 Y101.625 E113.44534
G1 X90.236 Y100.931 E113.46323
G1 X90.492 Y100.252 E113.48129
G1 X90.803 Y99.623 E113.49875
G1 X91.176 Y99.024 E113.51631
G1 X91.602 Y98.473 E113.53364
G1 X92.071 Y97.979 E113.55059
G1 X92.588 Y97.538 E113.56749
G1 X93.150 Y97.151 E113.58447
G1 X93.712 Y96.848 E113.60036
G1 X94.328 Y96.596 E113.61692
G1 X94.942 Y96.418 E113.63283
G1 X95.581 Y96.306 E113.64897
G1 X96.253 Y96.263 E113.66573
G1 X96.370 Y96.261 E113.66864
G1 X96.878 Y96.291 E113.68130
G1 X97.530 Y96.391 E113.69771
G1 X98.176 Y96.562 E113.71434
G1 X98.878 Y96.835 E113.73308
G1 X99.474 Y97.148 E113.74983
G1 X100.042 Y97.527 E113.76683
G1 X100.583 Y97.975 E113.78430
G1 X101.069 Y98.467 E113.80151
G1 X101.520 Y99.024 E113.81934
G1 X101.909 Y99.614 E113.83693
G1 X102.249 Y100.260 E113.85509
G1 X102.523 Y100.920 E113.87288
G1 X102.740 Y101.630 E113.89135
G1 X102.887 Y102.339 E113.90937
G1 X102.966 Y103.059 E113.92739
G1 X102.981 Y103.801 E113.94586
G1 X102.926 Y104.522 E113.96385
G1 X102.803 Y105.238 E113.98193
G1 X102.615 Y105.932 E113.99982
G1 X102.360 Y106.606 E114.01775
G1 X102.051 Y107.233 E114.03514
G1 X101.677 Y107.835 E114.05278
G1 X101.250 Y108.389 E114.07018
G1 X100.782 Y108.880 E114.08706
G1 X100.264 Y109.322 E114.10400
G1 X99.706 Y109.706 E114.12086
G1 X99.133 Y110.014 E114.13704
G1 X98.537 Y110.259 E114.15308
G1 X97.903 Y110.442 E114.16950
G1 X97.269 Y110.554 E114.18552
G1 X96.602 Y110.596 E114.20215
G1 X96.482 Y110.598 E114.20513
G1 X95.975 Y110.569 E114.21777
G1 X95.323 Y110.469 E114.23418
G1 X94.703 Y110.305 E114.25014
G1 X93.974 Y110.024 E114.26958
G0 F3600 X93.809 Y110.388
;TYPE:WALL-OUTER
G1 F2400 X93.172 Y110.053 E114.28749
G1 X92.576 Y109.654 E114.30534
G1 X91.996 Y109.176 E114.32404
G1 X91.485 Y108.659 E114.34213
G1 X91.011 Y108.071 E114.36092
G1 X90.597 Y107.443 E114.37963
G1 X90.242 Y106.770 E114.39857
G1 X89.948 Y106.061 E114.41767
G1 X89.728 Y105.340 E114.43642
G1 X89.571 Y104.585 E114.45561
G1 X89.486 Y103.817 E114.47484
G1 X89.471 Y103.041 E114.49415
G1 X89.528 Y102.291 E114.51287
G1 X89.659 Y101.533 E114.53201
G1 X89.859 Y100.799 E114.55094
G1 X90.125 Y100.094 E114.56969
G1 X90.457 Y99.422 E114.58834
G1 X90.850 Y98.793 E114.60679
G1 X91.300 Y98.211 E114.62510
G1 X91.799 Y97.686 E114.64312
G1 X92.343 Y97.222 E114.66091
G1 X92.937 Y96.813 E114.67886
G1 X93.550 Y96.482 E114.69619
G1 X94.189 Y96.221 E114.71337
G1 X94.854 Y96.028 E114.73060
G1 X95.532 Y95.910 E114.74772
G1 X96.239 Y95.864 E114.76535
G1 X96.375 Y95.862 E114.76874
G1 X96.919 Y95.895 E114.78230
G1 X97.616 Y96.001 E114.79984
G1 X98.287 Y96.178 E114.81711
G1 X99.040 Y96.470 E114.83720
G1 X99.678 Y96.805 E114.85513
G1 X100.285 Y97.211 E114.87330
G1 X100.850 Y97.678 E114.89154
G1 X101.367 Y98.201 E114.90984
G1 X101.846 Y98.793 E114.92879
G1 X102.252 Y99.410 E114.94717
G1 X102.609 Y100.086 E114.96619
G1 X102.904 Y100.799 E114.98539
G1 X103.124 Y101.520 E115.00415
G1 X103.281 Y102.275 E115.02334
G1 X103.365 Y103.041 E115.04251
G1 X103.380 Y103.818 E115.06185
G1 X103.323 Y104.568 E115.08056
G1 X103.193 Y105.324 E115.09965
G1 X102.995 Y106.055 E115.11850
G1 X102.729 Y106.758 E115.13720
G1 X102.393 Y107.439 E115.15610
G1 X102.006 Y108.062 E115.17434
G1 X101.555 Y108.646 E115.19270
G1 X101.059 Y109.168 E115.21062
G1 X100.503 Y109.642 E115.22880
G1 X99.911 Y110.049 E115.24668
G1 X99.311 Y110.372 E115.26363
G1 X98.660 Y110.640 E115.28115
G1 X98.000 Y110.830 E115.29824
G1 X97.318 Y110.950 E115.31547
G1 X96.615 Y110.995 E115.33300
G1 X96.478 Y110.997 E115.33641
G1 X95.934 Y110.966 E115.34997
G1 X95.236 Y110.859 E115.36754
G1 X94.583 Y110.686 E115.38435
G1 X93.809 Y110.388 E115.40498
G0 F3600 X94.678 Y109.188
G1 F2400 X95.383 Y109.441 E115.42362
G1 X96.075 Y109.584 E115.44121
G1 X96.405 Y109.613 E115.44945
G1 X96.740 Y109.616 E115.45778
G1 X97.393 Y109.550 E115.47412
G1 X98.031 Y109.386 E115.49051
G1 X98.379 Y109.250 E115.49980
G1 X98.911 Y108.976 E115.51469
G1 X99.498 Y108.565 E115.53252
G1 X100.002 Y108.090 E115.54976
G1 X100.238 Y107.819 E115.55870
G1 X100.632 Y107.270 E115.57551
G1 X101.001 Y106.600 E115.59455
G1 X101.151 Y106.253 E115.60395
G1 X101.376 Y105.582 E115.62156
G1 X101.548 Y104.803 E115.64141
G1 X101.599 Y104.416 E115.65113
G1 X101.638 Y103.647 E115.67029
G1 X101.601 Y102.960 E115.68740
G1 X101.595 Y102.871 E115.68962
G1 X101.486 Y102.194 E115.70669
G1 X101.472 Y102.105 E115.70893
G1 X101.291 Y101.438 E115.72613
G1 X100.991 Y100.647 E115.74718
G1 X100.658 Y100.011 E115.76504
G1 X100.244 Y99.392 E115.78357
G1 X99.768 Y98.835 E115.80180
G1 X99.211 Y98.327 E115.82056
G1 X98.635 Y97.927 E115.83801
G1 X98.022 Y97.614 E115.85513
G1 X97.419 Y97.405 E115.87101
G1 X97.056 Y97.319 E115.88030
G1 X96.723 Y97.270 E115.88867
G1 X96.103 Y97.245 E115.90411
G1 X95.409 Y97.319 E115.92148
G1 X94.770 Y97.492 E115.93795
G1 X94.158 Y97.761 E115.95459
G1 X93.490 Y98.182 E115.97423
G1 X94.678 Y109.188 E116.24968
G0 F3600 X93.762 Y109.093
;TYPE:SKIN
G1 F3000 X93.428 Y109.144 E116.25543
G1 X93.707 Y108.584 E116.27100
G0 F3600 X93.652 Y108.074
G1 F3000 X92.937 Y108.790 E116.29618
G0 F3600 X92.628 Y108.535
G1 F3000 X93.597 Y107.565 E116.33030
G0 F3600 X93.542 Y107.056
G1 F3000 X92.346 Y108.252 E116.37238
G0 F3600 X92.075 Y107.959
G1 F3000 X93.488 Y106.546 E116.42211
G0 F3600 X93.432 Y106.037
G1 F3000 X91.823 Y107.647 E116.47874
G0 F3600 X91.589 Y107.316
G1 F3000 X93.377 Y105.528 E116.54166
G0 F3600 X93.323 Y105.018
G1 F3000 X91.366 Y106.975 E116.61053
G0 F3600 X91.170 Y106.606
G1 F3000 X93.268 Y104.509 E116.68434
G0 F3600 X93.212 Y104.000
G1 F3000 X90.988 Y106.225 E116.76262
G0 F3600 X90.823 Y105.825
G1 F3000 X93.158 Y103.490 E116.84479
G0 F3600 X93.103 Y102.981
G1 F3000 X90.685 Y105.399 E116.92987
G0 F3600 X90.565 Y104.955
G1 F3000 X93.048 Y102.472 E117.01725
G0 F3600 X92.993 Y101.962
G1 F3000 X90.467 Y104.488 E117.10614
G0 F3600 X90.408 Y103.983
G1 F3000 X92.938 Y101.453 E117.19517
G0 F3600 X92.883 Y100.944
G1 F3000 X90.378 Y103.449 E117.28332
G0 F3600 X90.384 Y102.879
G1 F3000 X92.828 Y100.434 E117.36934
G0 F3600 X92.773 Y99.925
G1 F3000 X90.446 Y102.252 E117.45122
G0 F3600 X90.585 Y101.549
G1 F3000 X92.719 Y99.415 E117.52632
G0 F3600 X92.664 Y98.906
G1 F3000 X90.846 Y100.723 E117.59028
G0 F3600 X91.398 Y99.608
G1 F3000 X92.609 Y98.397 E117.63289
G1 F3000 E114.13289
G0 F3600 X91.977 Y96.503
;TYPE:SUPPORT
G1 F3000 E117.63289
G1 X91.977 Y89.901 E117.79717
G0 F3600 X92.040 Y90.091
G0 X89.398 Y91.144
G0 X89.311 Y90.965
G1 F3000 X89.311 Y99.985 E118.02161
G0 F3600 X89.125 Y99.914
G0 X84.118 Y96.078
G0 X83.979 Y95.937
G1 F3000 X83.979 Y110.425 E118.38211
G0 F3600 X84.119 Y110.285
G0 X86.785 Y113.551
G0 X86.645 Y113.691
G1 F3000 X86.645 Y93.071 E118.89519
G0 F3600 X86.785 Y93.212
G0 X94.589 Y95.066
G0 X94.643 Y95.258
G1 F3000 X94.643 Y87.873 E119.07895
G0 F3600 X94.782 Y88.014
G0 X97.327 Y87.210
G0 X97.309 Y87.011
G1 F3000 X97.309 Y95.144 E119.28132
G0 F3600 X97.339 Y94.949
G0 X99.494 Y95.468
G0 X100.068 Y95.883
G0 X99.975 Y96.058
G1 F3000 X99.975 Y86.751 E119.51290
G0 F3600 X99.993 Y86.945
G0 X102.659 Y86.678
G0 X102.641 Y86.490
G1 F3000 X102.641 Y98.546 E119.81289
G0 F3600 X102.807 Y98.437
G0 X105.245 Y101.521
G0 X105.307 Y101.710
G1 F3000 X105.307 Y86.229 E120.19810
G0 F3600 X105.325 Y86.411
G0 X107.991 Y86.165
G0 X107.973 Y85.966
G1 F3000 X107.973 Y118.401 E121.00517
G0 F3600 X107.952 Y118.208
G0 X110.618 Y117.913
G0 X110.639 Y118.112
G1 F3000 X110.639 Y85.700 E121.81167
G0 F3600 X110.657 Y85.898
G0 X113.323 Y85.632
G0 X113.305 Y85.433
G1 F3000 X113.305 Y117.822 E122.61760
G0 F3600 X113.287 Y117.632
G0 X115.950 Y117.341
G0 X115.971 Y117.532
G1 F3000 X115.971 Y85.382 E123.41758
G0 F3600 X115.971 Y85.581
G0 X118.496 Y87.060
G0 X118.637 Y86.921
G1 F3000 X118.637 Y117.242 E124.17205
G0 F3600 X118.616 Y117.045
G0 X105.288 Y118.492
G0 X105.307 Y118.691
G1 F3000 X105.307 Y102.848 E124.56627
G0 F3600 X105.242 Y103.034
G0 X103.354 Y107.974
G0 X102.798 Y108.670
G0 X102.641 Y108.549
G1 F3000 X102.641 Y118.981 E124.82584
G0 F3600 X102.619 Y118.779
G0 X99.975 Y118.981
G0 X99.975 Y119.180
G1 F3000 X99.975 Y110.922 E125.03132
G0 F3600 X100.069 Y111.098
G0 X98.245 Y111.902
G0 X97.322 Y111.952
G0 X97.309 Y111.753
G1 F3000 X97.309 Y118.153 E125.19057
G0 F3600 X97.449 Y118.013
G0 X96.825 Y117.463
G0 X94.682 Y117.196
G0 X94.643 Y117.390
G1 F3000 X94.643 Y111.535 E125.33626
G0 F3600 X94.588 Y111.725
G0 X92.611 Y110.998
G0 X91.851 Y110.351
G0 X91.977 Y110.199
G1 F3000 X91.977 Y116.856 E125.50191
G0 F3600 X92.016 Y116.662
G0 X89.400 Y115.420
G0 X89.311 Y115.597
G1 F3000 X89.311 Y106.615 E125.72540
G0 F3600 X89.127 Y106.690
G0 X90.660 Y109.387
G0 X93.356 Y111.391
G0 X96.673 Y112.093
G0 X99.774 Y111.369
G0 X121.164 Y115.034
G0 X121.303 Y115.175
G1 F3000 X121.303 Y89.056 E126.37532
G0 F3600 X121.214 Y89.233
G0 X123.829 Y91.393
G0 X123.969 Y91.253
G1 F3000 X123.969 Y111.709 E126.88432
G0 F3600 X123.828 Y111.569
G0 X126.495 Y108.303
G0 X126.635 Y108.443
G1 F3000 X126.635 Y103.189 E127.01505
;LAYER:6
M117 Nb = 7 / 202
G1 F3000 E123.51505
G0 F3600 X102.581 Y103.785 Z1.160
;TYPE:WALL-INNER
G1 F3000 E127.01505
G1 F2700 X102.530 Y104.465 E127.03202
G1 X102.412 Y105.156 E127.04946
G1 X102.237 Y105.801 E127.06609
G1 X101.996 Y106.439 E127.08306
G1 X101.697 Y107.048 E127.09994
G1 X101.526 Y107.323 E127.10800
G1 X101.871 Y106.600 E127.12793
G1 X102.144 Y105.805 E127.14885
G1 X102.335 Y104.941 E127.17087
G1 X102.395 Y104.488 E127.18224
G1 X102.430 Y103.788 E127.19968
G1 X102.437 Y103.647 E127.20319
G1 X102.398 Y102.924 E127.22121
G1 X102.389 Y102.781 E127.22477
G1 X102.276 Y102.077 E127.24251
G1 X102.252 Y101.935 E127.24610
G1 X102.057 Y101.215 E127.26466
G1 X101.862 Y100.660 E127.27929
G1 X101.557 Y99.987 E127.29768
G1 X101.301 Y99.531 E127.31069
G1 X101.091 Y99.201 E127.32043
G1 X100.601 Y98.562 E127.34046
G1 X100.773 Y98.735 E127.34653
G1 X101.190 Y99.251 E127.36304
G1 X101.569 Y99.825 E127.38016
G1 X101.886 Y100.422 E127.39698
G1 X102.146 Y101.055 E127.41400
G1 X102.351 Y101.720 E127.43132
G1 X102.491 Y102.395 E127.44847
G1 X102.568 Y103.086 E127.46577
G1 X102.581 Y103.785 E127.48317
G0 F3600 X100.777 Y107.771
G0 X98.830 Y109.480
G0 X96.386 Y110.012
G0 X94.334 Y109.457
G0 X93.755 Y108.076
G1 F2700 X93.847 Y108.922 E127.50434
G1 X93.911 Y109.539 E127.51978
G1 X93.586 Y109.368 E127.52892
G1 X93.049 Y109.011 E127.54496
G1 X92.545 Y108.594 E127.56124
G1 X92.079 Y108.124 E127.57771
G1 X91.659 Y107.605 E127.59432
G1 X91.286 Y107.040 E127.61117
G1 X90.967 Y106.438 E127.62812
G1 X90.706 Y105.805 E127.64516
G1 X90.501 Y105.140 E127.66247
G1 X90.361 Y104.466 E127.67960
G1 X90.283 Y103.772 E127.69698
G1 X90.270 Y103.074 E127.71435
G1 X90.321 Y102.394 E127.73132
G1 X90.439 Y101.707 E127.74866
G1 X90.616 Y101.053 E127.76552
G1 X90.853 Y100.423 E127.78227
G1 X91.151 Y99.818 E127.79905
G1 X91.500 Y99.258 E127.81547
G1 X91.905 Y98.734 E127.83195
G1 X92.342 Y98.273 E127.84775
G1 X92.667 Y97.995 E127.85840
G1 X93.755 Y108.076 E128.11069
G0 F3600 X94.244 Y108.881
G1 F2700 X94.306 Y109.479 E128.12565
G1 X95.263 Y109.822 E128.15095
G1 X95.668 Y109.922 E128.16133
G1 X96.385 Y110.012 E128.17931
G1 X96.758 Y110.015 E128.18859
G1 X97.463 Y109.944 E128.20622
G1 X98.163 Y109.764 E128.22421
G1 X98.830 Y109.480 E128.24225
G1 X99.412 Y109.127 E128.25918
G1 X99.758 Y108.868 E128.26994
G1 X100.297 Y108.360 E128.28837
G1 X100.777 Y107.771 E128.30728
G1 X101.164 Y107.155 E128.32538
G1 X101.501 Y106.449 E128.34484
G1 X101.760 Y105.697 E128.36463
G1 X101.941 Y104.872 E128.38565
G1 X101.997 Y104.452 E128.39619
G1 X102.031 Y103.771 E128.41316
G1 X102.038 Y103.647 E128.41625
G1 X102.000 Y102.948 E128.43367
G1 X101.992 Y102.826 E128.43671
G1 X101.882 Y102.142 E128.45395
G1 X101.862 Y102.020 E128.45703
G1 X101.675 Y101.334 E128.47472
G1 X101.492 Y100.808 E128.48858
G1 X101.201 Y100.167 E128.50609
G1 X100.763 Y99.430 E128.52742
G1 X100.291 Y98.814 E128.54673
G1 X99.791 Y98.299 E128.56460
G1 X99.453 Y98.009 E128.57568
G1 X98.840 Y97.584 E128.59424
G1 X98.179 Y97.246 E128.61271
G1 X97.536 Y97.023 E128.62965
G1 X97.132 Y96.927 E128.63998
G1 X96.760 Y96.872 E128.64933
G1 X96.103 Y96.845 E128.66570
G1 X95.693 Y96.873 E128.67592
G1 X95.324 Y96.929 E128.68521
G1 X94.638 Y97.114 E128.70289
G1 X93.981 Y97.403 E128.72075
G1 X93.621 Y97.612 E128.73111
G1 X93.068 Y97.986 E128.74772
G1 X94.244 Y108.881 E129.02039
G0 F3600 X93.981 Y110.027
G1 F2700 X93.390 Y109.718 E129.03698
G1 X92.808 Y109.330 E129.05439
G1 X92.270 Y108.884 E129.07178
G1 X91.786 Y108.396 E129.08888
G1 X91.339 Y107.843 E129.10657
G1 X90.945 Y107.247 E129.12435
G1 X90.604 Y106.604 E129.14246
G1 X90.331 Y105.941 E129.16030
G1 X90.112 Y105.232 E129.17877
G1 X89.966 Y104.528 E129.19666
G1 X89.885 Y103.801 E129.21486
G1 X89.870 Y103.063 E129.23323
G1 X89.925 Y102.340 E129.25127
G1 X90.047 Y101.630 E129.26919
G1 X90.236 Y100.931 E129.28721
G1 X90.487 Y100.263 E129.30497
G1 X90.804 Y99.620 E129.32281
G1 X91.172 Y99.030 E129.34011
G1 X91.596 Y98.481 E129.35737
G1 X92.075 Y97.976 E129.37469
G1 X92.587 Y97.537 E129.39147
G1 X93.138 Y97.159 E129.40810
G1 X93.715 Y96.847 E129.42442
G1 X94.313 Y96.601 E129.44051
G1 X94.933 Y96.421 E129.45657
G1 X95.571 Y96.308 E129.47269
G1 X96.238 Y96.263 E129.48933
G1 X96.380 Y96.262 E129.49286
G1 X96.864 Y96.290 E129.50493
G1 X97.511 Y96.387 E129.52121
G1 X98.131 Y96.549 E129.53715
G1 X98.876 Y96.834 E129.55700
G1 X99.471 Y97.147 E129.57373
G1 X100.040 Y97.526 E129.59074
G1 X100.575 Y97.969 E129.60802
G1 X101.070 Y98.469 E129.62553
G1 X101.513 Y99.017 E129.64306
G1 X101.907 Y99.612 E129.66082
G1 X102.253 Y100.265 E129.67921
G1 X102.521 Y100.919 E129.69680
G1 X102.740 Y101.628 E129.71526
G1 X102.886 Y102.333 E129.73317
G1 X102.966 Y103.050 E129.75113
G1 X102.981 Y103.796 E129.76969
G1 X102.926 Y104.519 E129.78773
G1 X102.804 Y105.233 E129.80576
G1 X102.615 Y105.932 E129.82378
G1 X102.366 Y106.590 E129.84128
G1 X102.049 Y107.237 E129.85921
G1 X101.679 Y107.832 E129.87664
G1 X101.256 Y108.380 E129.89387
G1 X100.784 Y108.878 E129.91094
G1 X100.259 Y109.327 E129.92813
G1 X99.714 Y109.701 E129.94458
G1 X99.141 Y110.010 E129.96078
G1 X98.536 Y110.260 E129.97707
G1 X97.920 Y110.439 E129.99303
G1 X97.282 Y110.552 E130.00915
G1 X96.614 Y110.596 E130.02581
G1 X96.472 Y110.598 E130.02934
G1 X95.989 Y110.570 E130.04138
G1 X95.342 Y110.473 E130.05766
G1 X94.714 Y110.309 E130.07381
G1 X93.981 Y110.027 E130.09335
G0 F3600 X93.816 Y110.391
;TYPE:WALL-OUTER
G1 F2400 X93.179 Y110.057 E130.11125
G1 X92.571 Y109.651 E130.12944
G1 X92.006 Y109.184 E130.14768
G1 X91.488 Y108.662 E130.16598
G1 X91.015 Y108.077 E130.18470
G1 X90.599 Y107.448 E130.20346
G1 X90.244 Y106.777 E130.22235
G1 X89.953 Y106.072 E130.24133
G1 X89.728 Y105.342 E130.26034
G1 X89.572 Y104.590 E130.27945
G1 X89.486 Y103.822 E130.29868
G1 X89.471 Y103.046 E130.31799
G1 X89.528 Y102.296 E130.33670
G1 X89.657 Y101.540 E130.35579
G1 X89.857 Y100.805 E130.37474
G1 X90.118 Y100.110 E130.39321
G1 X90.455 Y99.426 E130.41219
G1 X90.845 Y98.800 E130.43054
G1 X91.295 Y98.218 E130.44885
G1 X91.796 Y97.689 E130.46698
G1 X92.339 Y97.224 E130.48476
G1 X92.934 Y96.816 E130.50272
G1 X93.540 Y96.488 E130.51986
G1 X94.182 Y96.224 E130.53713
G1 X94.845 Y96.031 E130.55432
G1 X95.522 Y95.911 E130.57142
G1 X96.224 Y95.864 E130.58893
G1 X96.385 Y95.863 E130.59294
G1 X96.902 Y95.892 E130.60582
G1 X97.588 Y95.995 E130.62308
G1 X98.265 Y96.173 E130.64050
G1 X99.037 Y96.468 E130.66107
G1 X99.674 Y96.803 E130.67897
G1 X100.281 Y97.208 E130.69713
G1 X100.847 Y97.676 E130.71541
G1 X101.364 Y98.198 E130.73369
G1 X101.837 Y98.783 E130.75241
G1 X102.253 Y99.411 E130.77115
G1 X102.612 Y100.090 E130.79026
G1 X102.898 Y100.783 E130.80892
G1 X103.124 Y101.518 E130.82805
G1 X103.280 Y102.268 E130.84711
G1 X103.365 Y103.037 E130.86636
G1 X103.380 Y103.813 E130.88567
G1 X103.323 Y104.563 E130.90439
G1 X103.193 Y105.320 E130.92350
G1 X102.995 Y106.055 E130.94244
G1 X102.733 Y106.749 E130.96090
G1 X102.396 Y107.435 E130.97992
G1 X102.008 Y108.059 E130.99820
G1 X101.557 Y108.643 E131.01656
G1 X101.057 Y109.171 E131.03466
G1 X100.513 Y109.636 E131.05247
G1 X99.918 Y110.044 E131.07042
G1 X99.313 Y110.371 E131.08753
G1 X98.671 Y110.636 E131.10481
G1 X98.008 Y110.829 E131.12199
G1 X97.331 Y110.949 E131.13910
G1 X96.630 Y110.995 E131.15658
G1 X96.468 Y110.997 E131.16061
G1 X95.951 Y110.968 E131.17350
G1 X95.265 Y110.865 E131.19076
G1 X94.588 Y110.687 E131.20818
G1 X93.816 Y110.391 E131.22875
G0 F3600 X94.678 Y109.188
G1 F2400 X95.378 Y109.440 E131.24726
G1 X95.746 Y109.530 E131.25669
G1 X96.113 Y109.587 E131.26593
G1 X96.405 Y109.613 E131.27322
G1 X96.740 Y109.616 E131.28156
G1 X97.393 Y109.550 E131.29789
G1 X98.034 Y109.385 E131.31436
G1 X98.648 Y109.124 E131.33096
G1 X99.188 Y108.796 E131.34668
G1 X99.500 Y108.563 E131.35637
G1 X100.004 Y108.088 E131.37361
G1 X100.452 Y107.538 E131.39126
G1 X100.814 Y106.962 E131.40819
G1 X101.131 Y106.298 E131.42649
G1 X101.375 Y105.589 E131.44515
G1 X101.548 Y104.803 E131.46518
G1 X101.599 Y104.416 E131.47489
G1 X101.638 Y103.647 E131.49405
G1 X101.602 Y102.972 E131.51087
G1 X101.595 Y102.871 E131.51339
G1 X101.488 Y102.206 E131.53015
G1 X101.472 Y102.105 E131.53269
G1 X101.294 Y101.452 E131.54953
G1 X101.121 Y100.957 E131.56258
G1 X100.845 Y100.348 E131.57922
G1 X100.436 Y99.659 E131.59916
G1 X99.989 Y99.076 E131.61744
G1 X99.517 Y98.590 E131.63429
G1 X99.209 Y98.325 E131.64440
G1 X98.635 Y97.927 E131.66178
G1 X98.022 Y97.614 E131.67891
G1 X97.425 Y97.407 E131.69463
G1 X97.057 Y97.319 E131.70405
G1 X96.723 Y97.270 E131.71245
G1 X96.108 Y97.245 E131.72776
G1 X95.406 Y97.320 E131.74533
G1 X94.771 Y97.492 E131.76170
G1 X94.162 Y97.759 E131.77825
G1 X93.833 Y97.950 E131.78771
G1 X93.490 Y98.182 E131.79802
G1 X94.678 Y109.188 E132.07347
G0 F3600 X93.741 Y109.259
;TYPE:SKIN
G1 F3000 X91.262 Y106.780 E132.16070
G0 F3600 X90.792 Y105.746
G1 F3000 X93.717 Y108.670 E132.26361
G0 F3600 X93.649 Y108.038
G1 F3000 X90.564 Y104.953 E132.37217
G0 F3600 X90.438 Y104.264
G1 F3000 X93.580 Y107.405 E132.48272
G0 F3600 X93.512 Y106.773
G1 F3000 X90.379 Y103.640 E132.59297
G0 F3600 X90.369 Y103.066
G1 F3000 X93.444 Y106.140 E132.70116
G0 F3600 X93.376 Y105.508
G1 F3000 X90.409 Y102.541 E132.80557
G0 F3600 X90.480 Y102.048
G1 F3000 X93.308 Y104.876 E132.90508
G0 F3600 X93.239 Y104.243
G1 F3000 X90.575 Y101.579 E132.99883
G0 F3600 X90.696 Y101.136
G1 F3000 X93.171 Y103.611 E133.08592
G0 F3600 X93.104 Y102.979
G1 F3000 X90.846 Y100.721 E133.16538
G0 F3600 X91.013 Y100.324
G1 F3000 X93.035 Y102.346 E133.23653
G0 F3600 X92.967 Y101.714
G1 F3000 X91.199 Y99.946 E133.29875
G0 F3600 X91.409 Y99.591
G1 F3000 X92.898 Y101.081 E133.35116
G0 F3600 X92.831 Y100.449
G1 F3000 X91.631 Y99.249 E133.39339
G0 F3600 X91.877 Y98.931
G1 F3000 X92.763 Y99.817 E133.42457
G0 F3600 X92.694 Y99.184
G1 F3000 X92.277 Y98.484 E133.44408
G1 X92.626 Y98.552 E133.45293
G1 F3000 E129.95293
G0 F3600 X91.977 Y96.503
;TYPE:SUPPORT
G1 F3000 E133.45293
G1 X91.977 Y89.901 E133.61720
G0 F3600 X92.040 Y90.091
G0 X89.398 Y91.144
G0 X89.311 Y90.965
G1 F3000 X89.311 Y99.986 E133.84167
G0 F3600 X89.125 Y99.915
G0 X84.118 Y96.078
G0 X83.979 Y95.937
G1 F3000 X83.979 Y110.425 E134.20217
G0 F3600 X84.119 Y110.285
G0 X86.785 Y113.551
G0 X86.645 Y113.691
G1 F3000 X86.645 Y93.071 E134.71525
G0 F3600 X86.785 Y93.212
G0 X94.589 Y95.065
G0 X94.643 Y95.257
G1 F3000 X94.643 Y87.873 E134.89899
G0 F3600 X94.782 Y88.014
G0 X97.327 Y87.210
G0 X97.309 Y87.011
G1 F3000 X97.309 Y95.144 E135.10136
G0 F3600 X97.338 Y94.949
G0 X99.492 Y95.466
G0 X100.068 Y95.883
G0 X99.975 Y96.058
G1 F3000 X99.975 Y86.751 E135.33294
G0 F3600 X99.993 Y86.945
G0 X102.659 Y86.678
G0 X102.641 Y86.490
G1 F3000 X102.641 Y98.549 E135.63300
G0 F3600 X102.807 Y98.440
G0 X105.245 Y101.521
G0 X105.307 Y101.710
G1 F3000 X105.307 Y86.229 E136.01821
G0 F3600 X105.325 Y86.411
G0 X107.991 Y86.165
G0 X107.973 Y85.966
G1 F3000 X107.973 Y118.401 E136.82528
G0 F3600 X107.952 Y118.208
G0 X110.618 Y117.913
G0 X110.639 Y118.112
G1 F3000 X110.639 Y85.700 E137.63178
G0 F3600 X110.657 Y85.898
G0 X113.323 Y85.632
G0 X113.305 Y85.433
G1 F3000 X113.305 Y117.822 E138.43771
G0 F3600 X113.287 Y117.632
G0 X115.950 Y117.341
G0 X115.971 Y117.532
G1 F3000 X115.971 Y85.382 E139.23769
G0 F3600 X115.971 Y85.581
G0 X118.496 Y87.060
G0 X118.637 Y86.921
G1 F3000 X118.637 Y117.242 E139.99216
G0 F3600 X118.616 Y117.045
G0 X105.288 Y118.492
G0 X105.307 Y118.691
G1 F3000 X105.307 Y102.847 E140.38640
G0 F3600 X105.242 Y103.034
G0 X103.363 Y107.958
G0 X102.797 Y108.671
G0 X102.641 Y108.549
G1 F3000 X102.641 Y118.981 E140.64598
G0 F3600 X102.619 Y118.779
G0 X99.975 Y118.981
G0 X99.975 Y119.180
G1 F3000 X99.975 Y110.922 E140.85146
G0 F3600 X100.069 Y111.097
G0 X98.259 Y111.900
G0 X97.322 Y111.951
G0 X97.309 Y111.752
G1 F3000 X97.309 Y118.153 E141.01073
G0 F3600 X97.449 Y118.013
G0 X96.825 Y117.463
G0 X94.682 Y117.196
G0 X94.643 Y117.390
G1 F3000 X94.643 Y111.529 E141.15657
G0 F3600 X94.592 Y111.720
G0 X92.616 Y111.002
G0 X91.851 Y110.351
G0 X91.977 Y110.199
G1 F3000 X91.977 Y116.856 E141.32222
G0 F3600 X92.016 Y116.662
G0 X89.400 Y115.420
G0 X89.311 Y115.597
G1 F3000 X89.311 Y106.616 E141.54569
G0 F3600 X89.128 Y106.691
G0 X90.662 Y109.389
G0 X93.362 Y111.394
G0 X96.684 Y112.093
G0 X99.784 Y111.365
G0 X121.164 Y115.034
G0 X121.303 Y115.175
G1 F3000 X121.303 Y89.056 E142.19560
G0 F3600 X121.214 Y89.233
G0 X123.829 Y91.393
G0 X123.969 Y91.253
G1 F3000 X123.969 Y111.709 E142.70460
G0 F3600 X123.828 Y111.569
G0 X126.495 Y108.303
G0 X126.635 Y108.443
G1 F3000 X126.635 Y103.189 E142.83534
;LAYER:7
M117 Nb = 8 / 202
G1 F3000 E139.33534
G0 F3600 X102.581 Y103.782 Z1.310
;TYPE:WALL-INNER
G1 F3000 E142.83534
G1 F2700 X102.531 Y104.461 E142.85228
G1 X102.413 Y105.152 E142.86972
G1 X102.237 Y105.801 E142.88645
G1 X102.000 Y106.432 E142.90322
G1 X101.700 Y107.041 E142.92012
G1 X101.518 Y107.336 E142.92874
G1 X101.730 Y106.927 E142.94020
G1 X102.037 Y106.160 E142.96076
G1 X102.246 Y105.398 E142.98042
G1 X102.386 Y104.560 E143.00156
G1 X102.428 Y103.808 E143.02030
G1 X102.438 Y103.648 E143.02429
G1 X102.398 Y102.941 E143.04191
G1 X102.389 Y102.785 E143.04580
G1 X102.278 Y102.091 E143.06329
G1 X102.253 Y101.936 E143.06720
G1 X102.061 Y101.228 E143.08545
G1 X101.865 Y100.666 E143.10026
G1 X101.712 Y100.304 E143.11004
G1 X101.352 Y99.614 E143.12940
G1 X100.889 Y98.920 E143.15016
G1 X100.481 Y98.441 E143.16582
G1 X100.767 Y98.729 E143.17592
G1 X101.191 Y99.252 E143.19267
G1 X101.567 Y99.821 E143.20964
G1 X101.883 Y100.417 E143.22643
G1 X102.145 Y101.050 E143.24348
G1 X102.350 Y101.716 E143.26081
G1 X102.490 Y102.390 E143.27794
G1 X102.568 Y103.084 E143.29532
G1 X102.581 Y103.782 E143.31269
G0 F3600 X100.777 Y107.771
G0 X98.821 Y109.484
G0 X96.384 Y110.012
G0 X94.335 Y109.457
G0 X93.844 Y108.894
G1 F2700 X93.913 Y109.540 E143.32886
G1 X93.590 Y109.370 E143.33794
G1 X93.048 Y109.009 E143.35414
G1 X92.551 Y108.600 E143.37016
G1 X92.082 Y108.127 E143.38673
G1 X91.663 Y107.609 E143.40331
G1 X91.286 Y107.041 E143.42028
G1 X90.971 Y106.445 E143.43705
G1 X90.706 Y105.806 E143.45426
G1 X90.502 Y105.144 E143.47150
G1 X90.363 Y104.472 E143.48857
G1 X90.283 Y103.772 E143.50611
G1 X90.270 Y103.077 E143.52340
G1 X90.320 Y102.398 E143.54034
G1 X90.438 Y101.711 E143.55769
G1 X90.614 Y101.063 E143.57440
G1 X90.854 Y100.421 E143.59145
G1 X91.149 Y99.822 E143.60807
G1 X91.501 Y99.257 E143.62463
G1 X91.900 Y98.739 E143.64090
G1 X92.339 Y98.276 E143.65677
G1 X92.668 Y97.995 E143.66754
G1 X93.844 Y108.894 E143.94031
G0 F3600 X94.308 Y109.480
G1 F2700 X95.268 Y109.824 E143.96569
G1 X95.965 Y109.971 E143.98341
G1 X96.383 Y110.012 E143.99386
G1 X96.758 Y110.015 E144.00319
G1 X97.455 Y109.945 E144.02062
G1 X98.173 Y109.760 E144.03907
G1 X98.821 Y109.483 E144.05661
G1 X99.158 Y109.294 E144.06622
G1 X99.752 Y108.874 E144.08432
G1 X100.297 Y108.360 E144.10297
G1 X100.777 Y107.771 E144.12187
G1 X101.156 Y107.168 E144.13959
G1 X101.366 Y106.761 E144.15099
G1 X101.658 Y106.033 E144.17051
G1 X101.856 Y105.312 E144.18911
G1 X101.989 Y104.515 E144.20922
G1 X102.030 Y103.785 E144.22741
G1 X102.038 Y103.648 E144.23083
G1 X102.000 Y102.963 E144.24790
G1 X101.992 Y102.828 E144.25126
G1 X101.884 Y102.155 E144.26822
G1 X101.680 Y101.346 E144.28898
G1 X101.492 Y100.810 E144.30312
G1 X101.350 Y100.474 E144.31219
G1 X101.008 Y99.818 E144.33060
G1 X100.570 Y99.161 E144.35025
G1 X100.069 Y98.573 E144.36947
G1 X99.715 Y98.231 E144.38172
G1 X99.451 Y98.008 E144.39032
G1 X98.840 Y97.584 E144.40882
G1 X98.188 Y97.250 E144.42705
G1 X97.825 Y97.110 E144.43673
G1 X97.130 Y96.926 E144.45462
G1 X96.410 Y96.845 E144.47265
G1 X95.691 Y96.872 E144.49055
G1 X95.030 Y96.996 E144.50729
G1 X94.346 Y97.228 E144.52526
G1 X93.707 Y97.559 E144.54317
G1 X93.067 Y97.983 E144.56227
G1 X94.308 Y109.480 E144.85001
G0 F3600 X93.981 Y110.028
G1 F2700 X93.393 Y109.719 E144.86654
G1 X92.806 Y109.328 E144.88409
G1 X92.280 Y108.894 E144.90105
G1 X91.789 Y108.399 E144.91840
G1 X91.336 Y107.839 E144.93632
G1 X90.951 Y107.258 E144.95367
G1 X90.604 Y106.602 E144.97213
G1 X90.333 Y105.951 E144.98968
G1 X90.113 Y105.236 E145.00829
G1 X89.967 Y104.532 E145.02618
G1 X89.885 Y103.804 E145.04441
G1 X89.870 Y103.065 E145.06281
G1 X89.924 Y102.344 E145.08080
G1 X90.046 Y101.634 E145.09872
G1 X90.235 Y100.935 E145.11674
G1 X90.486 Y100.266 E145.13452
G1 X90.802 Y99.624 E145.15232
G1 X91.169 Y99.035 E145.16959
G1 X91.594 Y98.483 E145.18693
G1 X92.072 Y97.979 E145.20421
G1 X92.581 Y97.543 E145.22089
G1 X93.140 Y97.158 E145.23778
G1 X93.705 Y96.852 E145.25377
G1 X94.306 Y96.604 E145.26994
G1 X94.925 Y96.423 E145.28599
G1 X95.561 Y96.309 E145.30207
G1 X96.225 Y96.264 E145.31863
G1 X96.392 Y96.262 E145.32278
G1 X96.841 Y96.288 E145.33397
G1 X97.494 Y96.385 E145.35040
G1 X98.125 Y96.547 E145.36661
G1 X98.867 Y96.829 E145.38636
G1 X99.467 Y97.145 E145.40324
G1 X100.037 Y97.524 E145.42027
G1 X100.572 Y97.966 E145.43754
G1 X101.069 Y98.468 E145.45511
G1 X101.508 Y99.008 E145.47243
G1 X101.901 Y99.601 E145.49013
G1 X102.248 Y100.257 E145.50860
G1 X102.518 Y100.907 E145.52611
G1 X102.739 Y101.624 E145.54478
G1 X102.885 Y102.328 E145.56267
G1 X102.966 Y103.054 E145.58085
G1 X102.981 Y103.794 E145.59927
G1 X102.927 Y104.515 E145.61726
G1 X102.805 Y105.229 E145.63528
G1 X102.618 Y105.919 E145.65307
G1 X102.364 Y106.596 E145.67106
G1 X102.048 Y107.238 E145.68887
G1 X101.686 Y107.822 E145.70596
G1 X101.259 Y108.377 E145.72339
G1 X100.788 Y108.874 E145.74042
G1 X100.265 Y109.321 E145.75754
G1 X99.713 Y109.701 E145.77422
G1 X99.142 Y110.010 E145.79037
G1 X98.549 Y110.256 E145.80635
G1 X97.931 Y110.436 E145.82237
G1 X97.292 Y110.550 E145.83852
G1 X96.629 Y110.595 E145.85505
G1 X96.460 Y110.597 E145.85926
G1 X96.012 Y110.572 E145.87042
G1 X95.359 Y110.475 E145.88685
G1 X94.721 Y110.311 E145.90324
G1 X94.510 Y110.241 E145.90877
G1 X93.981 Y110.028 E145.92296
G0 F3600 X93.820 Y110.393
;TYPE:WALL-OUTER
G1 F2400 X93.183 Y110.059 E145.94086
G1 X92.581 Y109.657 E145.95887
G1 X92.003 Y109.181 E145.97750
G1 X91.491 Y108.665 E145.99559
G1 X91.018 Y108.080 E146.01431
G1 X90.601 Y107.452 E146.03307
G1 X90.246 Y106.781 E146.05196
G1 X89.954 Y106.076 E146.07094
G1 X89.729 Y105.346 E146.08995
G1 X89.572 Y104.587 E146.10924
G1 X89.486 Y103.826 E146.12829
G1 X89.471 Y103.050 E146.14761
G1 X89.527 Y102.300 E146.16632
G1 X89.656 Y101.544 E146.18540
G1 X89.856 Y100.809 E146.20436
G1 X90.116 Y100.114 E146.22282
G1 X90.453 Y99.430 E146.24179
G1 X90.842 Y98.805 E146.26011
G1 X91.293 Y98.220 E146.27849
G1 X91.793 Y97.692 E146.29659
G1 X92.336 Y97.227 E146.31437
G1 X92.931 Y96.818 E146.33234
G1 X93.533 Y96.491 E146.34939
G1 X94.173 Y96.227 E146.36661
G1 X94.835 Y96.033 E146.38378
G1 X95.509 Y95.912 E146.40082
G1 X96.210 Y95.865 E146.41830
G1 X96.396 Y95.863 E146.42293
G1 X96.888 Y95.892 E146.43519
G1 X97.569 Y95.992 E146.45232
G1 X98.246 Y96.167 E146.46972
G1 X99.033 Y96.466 E146.49067
G1 X99.670 Y96.801 E146.50857
G1 X100.279 Y97.206 E146.52677
G1 X100.844 Y97.673 E146.54501
G1 X101.366 Y98.200 E146.56347
G1 X101.830 Y98.771 E146.58178
G1 X102.251 Y99.407 E146.60076
G1 X102.606 Y100.078 E146.61965
G1 X102.898 Y100.784 E146.63866
G1 X103.123 Y101.514 E146.65766
G1 X103.279 Y102.266 E146.67677
G1 X103.365 Y103.033 E146.69598
G1 X103.380 Y103.809 E146.71529
G1 X103.324 Y104.559 E146.73400
G1 X103.194 Y105.316 E146.75312
G1 X102.996 Y106.051 E146.77206
G1 X102.735 Y106.745 E146.79051
G1 X102.398 Y107.431 E146.80952
G1 X102.010 Y108.055 E146.82781
G1 X101.560 Y108.640 E146.84617
G1 X101.060 Y109.168 E146.86427
G1 X100.516 Y109.633 E146.88207
G1 X99.922 Y110.042 E146.90002
G1 X99.319 Y110.368 E146.91708
G1 X98.680 Y110.633 E146.93429
G1 X98.018 Y110.826 E146.95145
G1 X97.344 Y110.947 E146.96849
G1 X96.644 Y110.994 E146.98594
G1 X96.457 Y110.996 E146.99060
G1 X95.965 Y110.968 E147.00286
G1 X95.284 Y110.868 E147.01999
G1 X94.599 Y110.691 E147.03759
G1 X93.820 Y110.393 E147.05834
G0 F3600 X94.678 Y109.188
G1 F2400 X95.377 Y109.439 E147.07683
G1 X96.026 Y109.576 E147.09333
G1 X96.404 Y109.613 E147.10278
G1 X96.740 Y109.616 E147.11114
G1 X97.390 Y109.551 E147.12740
G1 X97.758 Y109.467 E147.13679
G1 X98.037 Y109.384 E147.14403
G1 X98.645 Y109.125 E147.16048
G1 X98.945 Y108.956 E147.16904
G1 X99.498 Y108.564 E147.18591
G1 X100.004 Y108.088 E147.20320
G1 X100.452 Y107.538 E147.22085
G1 X100.809 Y106.970 E147.23754
G1 X101.003 Y106.595 E147.24805
G1 X101.279 Y105.906 E147.26651
G1 X101.466 Y105.226 E147.28406
G1 X101.592 Y104.471 E147.30311
G1 X101.638 Y103.647 E147.32364
G1 X101.595 Y102.872 E147.34296
G1 X101.472 Y102.106 E147.36226
G1 X101.298 Y101.464 E147.37881
G1 X101.120 Y100.953 E147.39228
G1 X100.989 Y100.644 E147.40063
G1 X100.664 Y100.021 E147.41811
G1 X100.251 Y99.402 E147.43663
G1 X99.778 Y98.847 E147.45477
G1 X99.208 Y98.325 E147.47401
G1 X98.635 Y97.927 E147.49137
G1 X98.025 Y97.615 E147.50841
G1 X97.701 Y97.490 E147.51706
G1 X97.056 Y97.319 E147.53366
G1 X96.395 Y97.245 E147.55021
G1 X95.736 Y97.270 E147.56662
G1 X95.131 Y97.383 E147.58193
G1 X94.503 Y97.596 E147.59843
G1 X93.909 Y97.903 E147.61507
G1 X93.490 Y98.181 E147.62758
G1 X94.678 Y109.188 E147.90306
G0 F3600 X93.763 Y109.092
;TYPE:SKIN
G1 F3000 X93.430 Y109.142 E147.90879
G1 X93.708 Y108.583 E147.92433
G0 F3600 X93.654 Y108.073
G1 F3000 X92.938 Y108.789 E147.94952
G0 F3600 X92.628 Y108.534
G1 F3000 X93.599 Y107.564 E147.98367
G0 F3600 X93.543 Y107.055
G1 F3000 X92.347 Y108.251 E148.02576
G0 F3600 X92.075 Y107.958
G1 F3000 X93.489 Y106.545 E148.07550
G0 F3600 X93.434 Y106.036
G1 F3000 X91.823 Y107.647 E148.13219
G0 F3600 X91.590 Y107.316
G1 F3000 X93.379 Y105.527 E148.19515
G0 F3600 X93.323 Y105.018
G1 F3000 X91.365 Y106.976 E148.26405
G0 F3600 X91.170 Y106.606
G1 F3000 X93.269 Y104.508 E148.33789
G0 F3600 X93.214 Y103.999
G1 F3000 X90.988 Y106.225 E148.41622
G0 F3600 X90.822 Y105.826
G1 F3000 X93.159 Y103.490 E148.49844
G0 F3600 X93.104 Y102.980
G1 F3000 X90.685 Y105.399 E148.58357
G0 F3600 X90.564 Y104.955
G1 F3000 X93.049 Y102.471 E148.67100
G0 F3600 X92.994 Y101.961
G1 F3000 X90.467 Y104.488 E148.75992
G0 F3600 X90.407 Y103.984
G1 F3000 X92.939 Y101.452 E148.84902
G0 F3600 X92.884 Y100.943
G1 F3000 X90.376 Y103.451 E148.93727
G0 F3600 X90.384 Y102.879
G1 F3000 X92.829 Y100.433 E149.02333
G0 F3600 X92.774 Y99.924
G1 F3000 X90.446 Y102.252 E149.10525
G0 F3600 X90.585 Y101.549
G1 F3000 X92.720 Y99.414 E149.18038
G0 F3600 X92.664 Y98.905
G1 F3000 X90.846 Y100.723 E149.24436
G0 F3600 X91.400 Y99.605
G1 F3000 X92.609 Y98.396 E149.28690
G1 F3000 E145.78690
G0 F3600 X91.977 Y96.504
;TYPE:SUPPORT
G1 F3000 E149.28690
G1 X91.977 Y89.901 E149.45120
G0 F3600 X92.040 Y90.091
G0 X89.398 Y91.144
G0 X89.311 Y90.965
G1 F3000 X89.311 Y99.984 E149.67562
G0 F3600 X89.126 Y99.913
G0 X84.118 Y96.078
G0 X83.979 Y95.937
G1 F3000 X83.979 Y110.425 E150.03612
G0 F3600 X84.119 Y110.285
G0 X86.785 Y113.551
G0 X86.645 Y113.691
G1 F3000 X86.645 Y93.071 E150.54920
G0 F3600 X86.785 Y93.212
G0 X94.588 Y95.066
G0 X94.643 Y95.257
G1 F3000 X94.643 Y87.873 E150.73294
G0 F3600 X94.782 Y88.014
G0 X97.327 Y87.210
G0 X97.309 Y87.011
G1 F3000 X97.309 Y95.144 E150.93531
G0 F3600 X97.338 Y94.949
G0 X99.482 Y95.462
G0 X100.068 Y95.883
G0 X99.975 Y96.058
G1 F3000 X99.975 Y86.751 E151.16689
G0 F3600 X99.993 Y86.945
G0 X102.659 Y86.678
G0 X102.641 Y86.490
G1 F3000 X102.641 Y98.547 E151.46690
G0 F3600 X102.807 Y98.438
G0 X105.245 Y101.521
G0 X105.307 Y101.710
G1 F3000 X105.307 Y86.229 E151.85211
G0 F3600 X105.325 Y86.411
G0 X107.991 Y86.165
G0 X107.973 Y85.966
G1 F3000 X107.973 Y118.401 E152.65918
G0 F3600 X107.952 Y118.208
G0 X110.618 Y117.913
G0 X110.639 Y118.112
G1 F3000 X110.639 Y85.700 E153.46568
G0 F3600 X110.657 Y85.898
G0 X113.323 Y85.632
G0 X113.305 Y85.433
G1 F3000 X113.305 Y117.822 E154.27161
G0 F3600 X113.287 Y117.632
G0 X115.950 Y117.341
G0 X115.971 Y117.532
G1 F3000 X115.971 Y85.382 E155.07159
G0 F3600 X115.971 Y85.581
G0 X118.496 Y87.060
G0 X118.637 Y86.921
G1 F3000 X118.637 Y117.242 E155.82606
G0 F3600 X118.616 Y117.045
G0 X105.288 Y118.492
G0 X105.307 Y118.691
G1 F3000 X105.307 Y102.848 E156.22028
G0 F3600 X105.243 Y103.035
G0 X103.365 Y107.953
G0 X102.798 Y108.667
G0 X102.641 Y108.546
G1 F3000 X102.641 Y118.981 E156.47993
G0 F3600 X102.619 Y118.779
G0 X99.975 Y118.981
G0 X99.975 Y119.180
G1 F3000 X99.975 Y110.922 E156.68541
G0 F3600 X100.069 Y111.098
G0 X98.269 Y111.896
G0 X97.322 Y111.950
G0 X97.309 Y111.751
G1 F3000 X97.309 Y118.153 E156.84471
G0 F3600 X97.449 Y118.013
G0 X96.825 Y117.463
G0 X94.682 Y117.196
G0 X94.643 Y117.390
G1 F3000 X94.643 Y111.529 E156.99055
G0 F3600 X94.592 Y111.720
G0 X92.617 Y111.003
G0 X91.851 Y110.351
G0 X91.977 Y110.198
G1 F3000 X91.977 Y116.856 E157.15622
G0 F3600 X92.016 Y116.662
G0 X89.400 Y115.420
G0 X89.311 Y115.597
G1 F3000 X89.311 Y106.612 E157.37979
G0 F3600 X89.127 Y106.688
G0 X90.667 Y109.393
G0 X93.361 Y111.392
G0 X96.696 Y112.092
G0 X99.792 Y111.360
G0 X121.164 Y115.034
G0 X121.303 Y115.175
G1 F3000 X121.303 Y89.056 E158.02970
G0 F3600 X121.214 Y89.233
G0 X123.829 Y91.393
G0 X123.969 Y91.253
G1 F3000 X123.969 Y111.709 E158.53870
G0 F3600 X123.828 Y111.569
G0 X126.495 Y108.303
G0 X126.635 Y108.443
G1 F3000 X126.635 Y103.189 E158.66943
;LAYER:8
M117 Nb = 9 / 202
G1 F3000 E155.16943
G0 F3600 X102.581 Y103.777 Z1.460
;TYPE:WALL-INNER
G1 F3000 E158.66943
G1 F2700 X102.531 Y104.459 E158.68645
G1 X102.415 Y105.139 E158.70361
G1 X102.238 Y105.800 E158.72064
G1 X101.998 Y106.436 E158.73756
G1 X101.704 Y107.034 E158.75414
G1 X101.450 Y107.443 E158.76612
G1 X101.726 Y106.937 E158.78046
G1 X102.036 Y106.161 E158.80125
G1 X102.245 Y105.404 E158.82079
G1 X102.385 Y104.566 E158.84193
G1 X102.429 Y103.818 E158.86058
G1 X102.437 Y103.645 E158.86489
G1 X102.399 Y102.953 E158.88213
G1 X102.389 Y102.784 E158.88634
G1 X102.280 Y102.103 E158.90350
G1 X102.252 Y101.936 E158.90772
G1 X102.064 Y101.240 E158.92566
