;Gcode generated by Cura by Dagoma 2.2.1
;Printer: DiscoEasy200
;Object Name : Box_Lid.stl
;Date: 18-11-2022
;Time: 23:25:18
;Print duration: 7 min
;Layer height: 0.15 mm
;Filling: 33.0 %
;Print speed: 50.0 mm/s
;Support: None
;Adhesion improvement: Nothing
;Filament:
;- Material: Other PLA type Generic
;- Temperature: 215.0 °C
;- Flow: 100.0 %
;- Retraction amount: 3.5 mm
;- Retraction speed: 50.0 mm/s
;- Length: 0.28 m
;- Weight: 1 g
;- Cost: 0.04 EUR
D131 E1 ;Disable filrunout 2, just in case the user has a bicolor printer
G90 ;absolute positioning
M106 S255 ;fan on for the sensor
G28 X Y
G1 X50
M109 R90 ;wait for cool down
G28
;Sensor activation
;No Sensor
M104 S215 ;start the heater
M107 ;start with the fan off
G1 X100 Y20 Z0.5 F3000
M109 S215
M82 ;set extruder to absolute mode
G92 E0 ;zero the extruded length
G1 F200 E10 ;extrude 10mm of feed stock
G92 E0 ;zero the extruded length again
G1 E-3.5 F5000 ;filament retract length
G1 F240 Z3
G1 F3600

;Layer count: 13
;LAYER:0
M117 Nb = 1 / 13
M107
G1 F3000 E-3.50000
G0 F3600 X97.240 Y87.070 Z0.260
;TYPE:WALL-INNER
G1 F3000 E0.00000
G1 F1020 X106.661 Y85.384 E0.41382
G1 X110.405 Y87.991 E0.61108
G1 X110.230 Y87.991 E0.61865
G1 X109.676 Y88.085 E0.64294
G1 X109.178 Y88.256 E0.66571
G1 X108.725 Y88.502 E0.68800
G1 X108.337 Y88.790 E0.70889
G1 X107.973 Y89.166 E0.73152
G1 X107.673 Y89.596 E0.75419
G1 X107.447 Y90.068 E0.77682
G1 X107.300 Y90.570 E0.79943
G1 X107.233 Y91.094 E0.82228
G1 X107.260 Y91.658 E0.84669
G1 X107.369 Y92.165 E0.86911
G1 X107.486 Y92.476 E0.88348
G1 X106.968 Y92.209 E0.90868
G1 X106.108 Y91.838 E0.94918
G1 X105.226 Y91.525 E0.98964
G1 X104.326 Y91.272 E1.03006
G1 X103.411 Y91.080 E1.07049
G1 X102.485 Y90.948 E1.11093
G1 X101.551 Y90.879 E1.15143
G1 X100.615 Y90.873 E1.19190
G1 X99.681 Y90.930 E1.23236
G1 X98.753 Y91.048 E1.27281
G1 X97.836 Y91.228 E1.31321
G1 X96.931 Y91.469 E1.35371
G1 X96.046 Y91.770 E1.39412
G1 X95.182 Y92.130 E1.43460
G1 X94.344 Y92.545 E1.47503
G1 X93.535 Y93.017 E1.51553
G1 X92.761 Y93.542 E1.55597
G1 X92.697 Y93.591 E1.55945
G1 X97.240 Y87.070 E1.90308
G0 F3600 X100.506 Y87.914
G1 F1020 X100.390 Y88.384 E1.92402
G1 X100.387 Y88.878 E1.94538
G1 X100.523 Y89.386 E1.96812
G1 X100.752 Y89.797 E1.98846
G1 X101.052 Y90.140 E2.00816
G1 X101.479 Y90.420 E2.03024
G1 X101.892 Y90.580 E2.04939
G1 X102.373 Y90.640 E2.07035
G1 X102.853 Y90.584 E2.09124
G1 X103.306 Y90.414 E2.11216
G1 X103.704 Y90.141 E2.13303
G1 X104.027 Y89.781 E2.15395
G1 X104.255 Y89.353 E2.17491
G1 X104.371 Y88.882 E2.19589
G1 X104.374 Y88.390 E2.21716
G1 X104.240 Y87.880 E2.23996
G1 X104.008 Y87.467 E2.26044
G1 X103.718 Y87.136 E2.27947
G1 X103.319 Y86.859 E2.30047
G1 X102.868 Y86.686 E2.32136
G1 X102.389 Y86.626 E2.34223
G1 X101.908 Y86.682 E2.36317
G1 X101.444 Y86.857 E2.38461
G1 X101.032 Y87.153 E2.40655
G1 X100.734 Y87.484 E2.42580
G1 X100.506 Y87.914 E2.44685
G0 F3600 X101.319 Y89.834
G0 X102.757 Y90.191
G0 X110.477 Y94.488
G1 F1020 X111.038 Y94.438 E2.47120
G1 X111.545 Y94.307 E2.49384
G1 X112.019 Y94.100 E2.51621
G1 X112.434 Y93.838 E2.53743
G1 X112.846 Y93.467 E2.56140
G1 X113.153 Y93.094 E2.58229
G1 X113.421 Y92.635 E2.60527
G1 X113.613 Y92.114 E2.62928
G1 X113.712 Y91.641 E2.65017
G1 X113.736 Y91.117 E2.67285
G1 X113.675 Y90.596 E2.69553
G1 X113.557 Y90.187 E2.71394
G1 X117.297 Y92.791 E2.91099
G1 X118.983 Y102.214 E3.32489
G1 X114.440 Y108.736 E3.66856
G1 X114.688 Y107.750 E3.71252
G1 X114.851 Y106.829 E3.75296
G1 X114.951 Y105.897 E3.79349
G1 X114.988 Y104.962 E3.83395
G1 X114.963 Y104.027 E3.87439
G1 X114.876 Y103.096 E3.91482
G1 X114.727 Y102.173 E3.95525
G1 X114.516 Y101.261 E3.99572
G1 X114.244 Y100.366 E4.03617
G1 X113.914 Y99.491 E4.07660
G1 X113.526 Y98.639 E4.11708
G1 X113.082 Y97.816 E4.15751
G1 X112.584 Y97.024 E4.19797
G1 X112.034 Y96.266 E4.23846
G1 X111.434 Y95.547 E4.27895
G1 X110.789 Y94.872 E4.31932
G1 X110.360 Y94.478 E4.34450
G1 X110.477 Y94.488 E4.34958
G0 F3600 X114.087 Y96.786
G1 F1020 X113.859 Y97.215 E4.37059
G1 X113.743 Y97.685 E4.39152
G1 X113.740 Y98.178 E4.41284
G1 X113.874 Y98.685 E4.43551
G1 X114.105 Y99.099 E4.45601
G1 X114.405 Y99.439 E4.47561
G1 X114.829 Y99.720 E4.49761
G1 X115.244 Y99.881 E4.51686
G1 X115.726 Y99.941 E4.53786
G1 X116.207 Y99.885 E4.55879
G1 X116.660 Y99.715 E4.57972
G1 X117.060 Y99.441 E4.60068
G1 X117.381 Y99.080 E4.62157
G1 X117.607 Y98.654 E4.64242
G1 X117.725 Y98.184 E4.66337
G1 X117.728 Y97.688 E4.68482
G1 X117.592 Y97.181 E4.70751
G1 X117.363 Y96.770 E4.72786
G1 X117.072 Y96.437 E4.74698
G1 X116.673 Y96.160 E4.76798
G1 X116.221 Y95.987 E4.78891
G1 X115.742 Y95.927 E4.80978
G1 X115.263 Y95.983 E4.83063
G1 X114.799 Y96.156 E4.85204
G1 X114.383 Y96.454 E4.87417
G1 X114.087 Y96.786 E4.89340
G0 F3600 X114.551 Y105.867
G0 X113.472 Y110.262
G0 X111.012 Y114.058
G0 X109.216 Y116.195
G1 F1020 X109.280 Y116.145 E4.89691
G1 X108.261 Y117.608 E4.97400
G1 X105.570 Y118.090 E5.09221
G1 X105.931 Y117.967 E5.10870
G1 X106.795 Y117.607 E5.14917
G1 X107.633 Y117.191 E5.18962
G1 X108.440 Y116.720 E5.23002
G1 X109.216 Y116.195 E5.27053
G0 F3600 X104.928 Y117.884
G0 X101.252 Y118.862
G1 F1020 X98.839 Y119.294 E5.37653
G1 X97.648 Y118.464 E5.43929
G1 X98.567 Y118.658 E5.47991
G1 X99.493 Y118.788 E5.52034
G1 X100.426 Y118.857 E5.56079
G1 X101.252 Y118.862 E5.59650
G0 F3600 X95.010 Y117.528
G1 F1020 X95.264 Y117.637 E5.60845
G1 X94.560 Y118.648 E5.66172
G1 X90.293 Y115.676 E5.88656
G1 X90.612 Y115.216 E5.91077
G1 X90.996 Y114.665 E5.93980
G1 X91.878 Y115.498 E5.99226
G1 X92.608 Y116.082 E6.03268
G1 X93.376 Y116.617 E6.07315
G1 X94.177 Y117.100 E6.11359
G1 X95.010 Y117.528 E6.15409
G0 F3600 X89.392 Y112.713
G1 F1020 X88.203 Y111.885 E6.21674
G1 X87.773 Y109.480 E6.32237
G1 X88.062 Y110.247 E6.35781
G1 X88.451 Y111.097 E6.39823
G1 X88.894 Y111.921 E6.43868
G1 X89.392 Y112.713 E6.47913
G0 F3600 X87.848 Y108.371
G0 X86.988 Y104.773
G1 F1020 X86.998 Y105.152 E6.49553
G1 X86.517 Y102.464 E6.61360
G1 X87.535 Y101.003 E6.69059
G1 X87.288 Y101.987 E6.73446
G1 X87.126 Y102.908 E6.77489
G1 X87.026 Y103.838 E6.81533
G1 X86.988 Y104.773 E6.85579
G0 F3600 X87.389 Y104.776
G1 F1020 X87.413 Y105.684 E6.89507
G1 X87.497 Y106.589 E6.93437
G1 X87.643 Y107.487 E6.97370
G1 X87.848 Y108.372 E7.01298
G1 X88.110 Y109.242 E7.05227
G1 X88.432 Y110.093 E7.09161
G1 X88.809 Y110.919 E7.13087
G1 X89.240 Y111.719 E7.17016
G1 X89.724 Y112.488 E7.20945
G1 X90.258 Y113.224 E7.24877
G1 X90.840 Y113.922 E7.28806
G1 X91.468 Y114.580 E7.32739
G1 X92.138 Y115.194 E7.36668
G1 X92.848 Y115.762 E7.40600
G1 X93.593 Y116.282 E7.44528
G1 X94.372 Y116.750 E7.48458
G1 X95.181 Y117.166 E7.52391
G1 X96.014 Y117.526 E7.56315
G1 X96.871 Y117.830 E7.60246
G1 X97.746 Y118.076 E7.64176
G1 X98.636 Y118.263 E7.68109
G1 X99.536 Y118.390 E7.72039
G1 X100.442 Y118.457 E7.75967
G1 X101.351 Y118.463 E7.79897
G1 X102.258 Y118.409 E7.83826
G1 X103.159 Y118.294 E7.87753
G1 X104.051 Y118.119 E7.91683
G1 X104.929 Y117.885 E7.95612
G1 X105.790 Y117.593 E7.99543
G1 X106.629 Y117.243 E8.03474
G1 X107.443 Y116.838 E8.07405
G1 X108.227 Y116.381 E8.11329
G1 X108.981 Y115.872 E8.15262
G1 X109.697 Y115.313 E8.19190
G1 X110.376 Y114.708 E8.23122
G1 X111.013 Y114.059 E8.27054
G1 X111.604 Y113.369 E8.30982
G1 X112.148 Y112.641 E8.34912
G1 X112.642 Y111.879 E8.38838
G1 X113.085 Y111.083 E8.42777
G1 X113.473 Y110.262 E8.46704
G1 X113.805 Y109.415 E8.50637
G1 X114.080 Y108.550 E8.54562
G1 X114.296 Y107.668 E8.58488
G1 X114.454 Y106.772 E8.62422
G1 X114.552 Y105.868 E8.66354
G1 X114.587 Y104.960 E8.70283
G1 X114.563 Y104.051 E8.74214
G1 X114.479 Y103.146 E8.78144
G1 X114.334 Y102.250 E8.82069
G1 X114.129 Y101.364 E8.86001
G1 X113.865 Y100.495 E8.89928
G1 X113.544 Y99.644 E8.93860
G1 X113.168 Y98.817 E8.97788
G1 X112.737 Y98.018 E9.01714
G1 X112.252 Y97.248 E9.05648
G1 X111.719 Y96.512 E9.09578
G1 X111.136 Y95.814 E9.13510
G1 X110.508 Y95.157 E9.17440
G1 X109.839 Y94.542 E9.21369
G1 X109.129 Y93.974 E9.25300
G1 X108.383 Y93.455 E9.29230
G1 X107.604 Y92.987 E9.33159
G1 X106.797 Y92.571 E9.37085
G1 X105.961 Y92.210 E9.41022
G1 X105.105 Y91.907 E9.44948
G1 X104.230 Y91.661 E9.48878
G1 X103.341 Y91.474 E9.52806
G1 X102.442 Y91.346 E9.56733
G1 X101.535 Y91.279 E9.60665
G1 X100.626 Y91.273 E9.64595
G1 X99.719 Y91.328 E9.68524
G1 X98.817 Y91.443 E9.72456
G1 X97.926 Y91.618 E9.76382
G1 X97.047 Y91.852 E9.80315
G1 X96.187 Y92.144 E9.84242
G1 X95.348 Y92.494 E9.88173
G1 X94.534 Y92.898 E9.92102
G1 X93.748 Y93.356 E9.96035
G1 X92.996 Y93.865 E9.99962
G1 X92.279 Y94.424 E10.03893
G1 X91.601 Y95.029 E10.07822
G1 X90.965 Y95.677 E10.11748
G1 X90.372 Y96.368 E10.15685
G1 X89.828 Y97.096 E10.19614
G1 X89.335 Y97.859 E10.23542
G1 X88.892 Y98.653 E10.27473
G1 X88.504 Y99.475 E10.31404
G1 X88.171 Y100.320 E10.35331
G1 X87.896 Y101.187 E10.39263
G1 X87.679 Y102.070 E10.43195
G1 X87.523 Y102.964 E10.47119
G1 X87.425 Y103.868 E10.51050
G1 X87.389 Y104.776 E10.54980
G0 F3600 X86.095 Y102.369
G1 F1020 X97.005 Y86.706 E11.37513
G1 X106.755 Y84.962 E11.80340
G1 X117.661 Y92.557 E12.37803
G1 X119.405 Y102.309 E12.80638
G1 X108.496 Y117.972 E13.63169
G1 X98.745 Y119.716 E14.06000
G1 X95.754 Y117.633 E14.21760
G1 X94.660 Y119.205 E14.30041
G1 X89.736 Y115.776 E14.55985
G1 X90.830 Y114.203 E14.64269
G1 X87.839 Y112.120 E14.80029
G1 X86.095 Y102.369 E15.22860
G0 F3600 X91.602 Y95.029
G0 X95.349 Y92.494
G0 X101.081 Y89.566
G1 F1020 X101.317 Y89.836 E15.24410
G1 X101.663 Y90.063 E15.26200
G1 X101.990 Y90.189 E15.27715
G1 X102.375 Y90.237 E15.29392
G1 X102.758 Y90.192 E15.31060
G1 X103.120 Y90.056 E15.32732
G1 X103.439 Y89.838 E15.34402
G1 X103.696 Y89.550 E15.36071
G1 X103.878 Y89.209 E15.37743
G1 X103.972 Y88.832 E15.39423
G1 X103.973 Y88.441 E15.41113
G1 X103.866 Y88.031 E15.42945
G1 X103.679 Y87.700 E15.44589
G1 X103.449 Y87.437 E15.46100
G1 X103.131 Y87.215 E15.47777
G1 X102.770 Y87.077 E15.49448
G1 X102.388 Y87.029 E15.51112
G1 X102.003 Y87.074 E15.52788
G1 X101.634 Y87.212 E15.54492
G1 X101.300 Y87.453 E15.56273
G1 X101.065 Y87.715 E15.57795
G1 X100.882 Y88.058 E15.59475
G1 X100.789 Y88.434 E15.61150
G1 X100.788 Y88.826 E15.62845
G1 X100.896 Y89.235 E15.64674
G1 X101.081 Y89.566 E15.66314
G0 F3600 X102.375 Y90.236
G0 X107.693 Y90.652
G1 F1020 X107.634 Y91.110 E15.68310
G1 X107.658 Y91.606 E15.70458
G1 X107.754 Y92.052 E15.72430
G1 X107.904 Y92.450 E15.74269
G1 X108.156 Y92.877 E15.76413
G1 X108.446 Y93.226 E15.78375
G1 X108.765 Y93.509 E15.80219
G1 X109.186 Y93.771 E15.82363
G1 X109.607 Y93.944 E15.84331
G1 X110.015 Y94.047 E15.86150
G1 X110.476 Y94.086 E15.88151
G1 X110.970 Y94.042 E15.90295
G1 X111.414 Y93.928 E15.92277
G1 X111.831 Y93.746 E15.94245
G1 X112.192 Y93.518 E15.96091
G1 X112.556 Y93.190 E15.98209
G1 X112.824 Y92.864 E16.00034
G1 X113.058 Y92.464 E16.02038
G1 X113.227 Y92.003 E16.04161
G1 X113.314 Y91.591 E16.05981
G1 X113.335 Y91.131 E16.07972
G1 X113.281 Y90.675 E16.09958
G1 X113.153 Y90.230 E16.11960
G1 X112.939 Y89.788 E16.14083
G1 X112.699 Y89.436 E16.15925
G1 X112.352 Y89.081 E16.18072
G1 X111.982 Y88.810 E16.20055
G1 X111.578 Y88.604 E16.22016
G1 X111.179 Y88.468 E16.23838
G1 X110.726 Y88.392 E16.25824
G1 X110.263 Y88.391 E16.27826
G1 X109.775 Y88.474 E16.29967
G1 X109.340 Y88.624 E16.31956
G1 X108.941 Y88.840 E16.33918
G1 X108.602 Y89.091 E16.35742
G1 X108.282 Y89.421 E16.37729
G1 X108.020 Y89.798 E16.39714
G1 X107.822 Y90.212 E16.41699
G1 X107.693 Y90.652 E16.43681
G0 F3600 X107.905 Y92.450
G0 X109.186 Y93.770
G0 X110.969 Y94.042
G0 X114.652 Y96.753
G1 F1020 X114.417 Y97.016 E16.45206
G1 X114.235 Y97.359 E16.46885
G1 X114.142 Y97.735 E16.48560
G1 X114.141 Y98.127 E16.50255
G1 X114.248 Y98.534 E16.52074
G1 X114.433 Y98.866 E16.53718
G1 X114.670 Y99.135 E16.55268
G1 X115.014 Y99.363 E16.57052
G1 X115.342 Y99.490 E16.58573
G1 X115.728 Y99.538 E16.60255
G1 X116.112 Y99.493 E16.61927
G1 X116.474 Y99.357 E16.63599
G1 X116.793 Y99.139 E16.65269
G1 X117.050 Y98.850 E16.66942
G1 X117.231 Y98.509 E16.68611
G1 X117.326 Y98.134 E16.70283
G1 X117.327 Y97.739 E16.71991
G1 X117.218 Y97.332 E16.73813
G1 X117.034 Y97.001 E16.75451
G1 X116.803 Y96.738 E16.76964
G1 X116.485 Y96.516 E16.78641
G1 X116.124 Y96.378 E16.80312
G1 X115.740 Y96.330 E16.81985
G1 X115.358 Y96.374 E16.83648
G1 X114.988 Y96.512 E16.85355
G1 X114.652 Y96.753 E16.87143
G0 F3600 X114.921 Y97.052
;TYPE:WALL-OUTER
G1 F1020 X114.748 Y97.247 E16.88270
G1 X114.612 Y97.503 E16.89524
G1 X114.542 Y97.784 E16.90776
G1 X114.541 Y98.076 E16.92039
G1 X114.622 Y98.383 E16.93411
G1 X114.762 Y98.634 E16.94654
G1 X114.935 Y98.831 E16.95788
G1 X115.199 Y99.006 E16.97157
G1 X115.441 Y99.099 E16.98278
G1 X115.729 Y99.135 E16.99533
G1 X116.017 Y99.102 E17.00786
G1 X116.288 Y99.000 E17.02038
G1 X116.527 Y98.836 E17.03292
G1 X116.719 Y98.620 E17.04541
G1 X116.855 Y98.364 E17.05795
G1 X116.926 Y98.083 E17.07048
G1 X116.927 Y97.791 E17.08310
G1 X116.845 Y97.483 E17.09689
G1 X116.705 Y97.233 E17.10928
G1 X116.534 Y97.038 E17.12049
G1 X116.296 Y96.872 E17.13304
G1 X116.026 Y96.769 E17.14553
G1 X115.739 Y96.733 E17.15804
G1 X115.452 Y96.766 E17.17053
G1 X115.178 Y96.868 E17.18317
G1 X114.921 Y97.052 E17.19684
G0 F3600 X114.747 Y96.809
G0 X112.643 Y98.057
G0 X112.391 Y98.219
G1 F1020 X111.921 Y97.472 E17.23500
G1 X111.403 Y96.758 E17.27314
G1 X110.837 Y96.081 E17.31129
G1 X110.228 Y95.443 E17.34943
G1 X109.578 Y94.846 E17.38759
G1 X108.890 Y94.295 E17.42570
G1 X108.166 Y93.791 E17.46384
G1 X107.409 Y93.336 E17.50203
G1 X106.626 Y92.933 E17.54011
G1 X105.815 Y92.583 E17.57830
G1 X104.984 Y92.288 E17.61643
G1 X104.135 Y92.050 E17.65455
G1 X103.272 Y91.868 E17.69269
G1 X102.399 Y91.744 E17.73081
G1 X101.519 Y91.679 E17.76897
G1 X100.637 Y91.673 E17.80710
G1 X99.756 Y91.727 E17.84527
G1 X98.881 Y91.838 E17.88341
G1 X98.016 Y92.008 E17.92152
G1 X97.163 Y92.235 E17.95969
G1 X96.328 Y92.519 E17.99782
G1 X95.514 Y92.858 E18.03595
G1 X94.724 Y93.250 E18.07408
G1 X93.961 Y93.695 E18.11227
G1 X93.231 Y94.189 E18.15038
G1 X92.535 Y94.731 E18.18853
G1 X91.877 Y95.318 E18.22665
G1 X91.260 Y95.948 E18.26478
G1 X90.685 Y96.618 E18.30296
G1 X90.157 Y97.325 E18.34111
G1 X89.678 Y98.065 E18.37922
G1 X89.248 Y98.836 E18.41740
G1 X88.871 Y99.634 E18.45556
G1 X88.548 Y100.454 E18.49366
G1 X88.281 Y101.295 E18.53181
G1 X88.071 Y102.152 E18.56997
G1 X87.919 Y103.020 E18.60807
G1 X87.824 Y103.897 E18.64621
G1 X87.789 Y104.779 E18.68438
G1 X87.812 Y105.660 E18.72248
G1 X87.894 Y106.538 E18.76061
G1 X88.036 Y107.410 E18.79881
G1 X88.235 Y108.269 E18.83694
G1 X88.489 Y109.113 E18.87505
G1 X88.801 Y109.939 E18.91322
G1 X89.168 Y110.741 E18.95136
G1 X89.586 Y111.518 E18.98951
G1 X90.055 Y112.264 E19.02761
G1 X90.574 Y112.978 E19.06577
G1 X91.139 Y113.655 E19.10390
G1 X91.748 Y114.294 E19.14207
G1 X92.399 Y114.890 E19.18023
G1 X93.087 Y115.441 E19.21834
G1 X93.811 Y115.946 E19.25651
G1 X94.567 Y116.401 E19.29466
G1 X95.352 Y116.804 E19.33282
G1 X96.161 Y117.153 E19.37091
G1 X96.992 Y117.449 E19.40905
G1 X97.841 Y117.687 E19.44718
G1 X98.705 Y117.869 E19.48536
G1 X99.579 Y117.992 E19.52352
G1 X100.458 Y118.057 E19.56163
G1 X101.340 Y118.063 E19.59977
G1 X102.221 Y118.010 E19.63793
G1 X103.095 Y117.899 E19.67602
G1 X103.961 Y117.729 E19.71418
G1 X104.813 Y117.502 E19.75230
G1 X105.649 Y117.218 E19.79048
G1 X106.463 Y116.879 E19.82861
G1 X107.253 Y116.486 E19.86676
G1 X108.014 Y116.042 E19.90485
G1 X108.746 Y115.548 E19.94304
G1 X109.441 Y115.006 E19.98114
G1 X110.100 Y114.419 E20.01930
G1 X110.718 Y113.788 E20.05749
G1 X111.291 Y113.119 E20.09558
G1 X111.819 Y112.412 E20.13373
G1 X112.299 Y111.672 E20.17187
G1 X112.729 Y110.900 E20.21008
G1 X113.106 Y110.103 E20.24820
G1 X113.428 Y109.282 E20.28633
G1 X113.695 Y108.441 E20.32448
G1 X113.905 Y107.585 E20.36259
G1 X114.058 Y106.716 E20.40074
G1 X114.153 Y105.839 E20.43889
G1 X114.187 Y104.957 E20.47705
G1 X114.164 Y104.075 E20.51520
G1 X114.082 Y103.197 E20.55333
G1 X113.941 Y102.327 E20.59144
G1 X113.742 Y101.467 E20.62960
G1 X113.486 Y100.624 E20.66770
G1 X113.175 Y99.798 E20.70586
G1 X112.809 Y98.995 E20.74402
G1 X112.391 Y98.219 E20.78213
G0 F3600 X112.643 Y98.057
G0 X111.402 Y93.823
G0 X111.283 Y93.549
G1 F1020 X111.643 Y93.391 E20.79913
G1 X111.949 Y93.198 E20.81477
G1 X112.266 Y92.913 E20.83320
G1 X112.495 Y92.635 E20.84877
G1 X112.695 Y92.293 E20.86590
G1 X112.842 Y91.892 E20.88437
G1 X112.916 Y91.540 E20.89992
G1 X112.934 Y91.146 E20.91698
G1 X112.888 Y90.754 E20.93404
G1 X112.778 Y90.373 E20.95119
G1 X112.592 Y89.989 E20.96964
G1 X112.388 Y89.691 E20.98525
G1 X112.089 Y89.384 E21.00378
G1 X111.771 Y89.151 E21.02083
G1 X111.422 Y88.973 E21.03777
G1 X111.081 Y88.857 E21.05334
G1 X110.692 Y88.792 E21.07039
G1 X110.296 Y88.791 E21.08752
G1 X109.874 Y88.863 E21.10603
G1 X109.501 Y88.991 E21.12308
G1 X109.156 Y89.178 E21.14004
G1 X108.867 Y89.393 E21.15562
G1 X108.592 Y89.676 E21.17268
G1 X108.367 Y90.000 E21.18974
G1 X108.197 Y90.355 E21.20676
G1 X108.086 Y90.734 E21.22383
G1 X108.035 Y91.126 E21.24092
G1 X108.056 Y91.554 E21.25945
G1 X108.139 Y91.939 E21.27648
G1 X108.266 Y92.277 E21.29209
G1 X108.484 Y92.646 E21.31062
G1 X108.735 Y92.947 E21.32757
G1 X109.005 Y93.188 E21.34322
G1 X109.369 Y93.414 E21.36174
G1 X109.732 Y93.563 E21.37871
G1 X110.081 Y93.651 E21.39427
G1 X110.475 Y93.685 E21.41137
G1 X110.902 Y93.647 E21.42991
G1 X111.283 Y93.549 E21.44692
G0 F3600 X111.402 Y93.823
G0 X117.746 Y92.466
G0 X118.026 Y92.323
G1 F1020 X119.829 Y102.401 E21.88959
G1 X108.730 Y118.337 E22.72928
G1 X98.653 Y120.140 E23.17191
G1 X95.854 Y118.190 E23.31941
G1 X94.759 Y119.762 E23.40225
G1 X89.179 Y115.875 E23.69628
G1 X90.273 Y114.303 E23.77909
G1 X87.474 Y112.354 E23.92657
G1 X85.671 Y102.277 E24.36920
G1 X96.771 Y86.341 E25.20892
G1 X106.847 Y84.538 E25.65150
G1 X118.026 Y92.323 E26.24052
G0 F3600 X117.746 Y92.466
G0 X111.178 Y88.470
G0 X109.341 Y88.625
G0 X103.862 Y88.857
G0 X103.572 Y88.783
G1 F1020 X103.573 Y88.492 E26.25310
G1 X103.492 Y88.182 E26.26696
G1 X103.351 Y87.932 E26.27937
G1 X103.180 Y87.737 E26.29058
G1 X102.942 Y87.571 E26.30313
G1 X102.672 Y87.468 E26.31562
G1 X102.386 Y87.432 E26.32809
G1 X102.098 Y87.465 E26.34062
G1 X101.825 Y87.568 E26.35324
G1 X101.569 Y87.752 E26.36687
G1 X101.395 Y87.946 E26.37814
G1 X101.259 Y88.202 E26.39067
G1 X101.189 Y88.483 E26.40319
G1 X101.188 Y88.775 E26.41582
G1 X101.270 Y89.084 E26.42964
G1 X101.410 Y89.334 E26.44203
G1 X101.582 Y89.531 E26.45334
G1 X101.847 Y89.705 E26.46704
G1 X102.089 Y89.798 E26.47825
G1 X102.376 Y89.834 E26.49076
G1 X102.663 Y89.801 E26.50325
G1 X102.934 Y89.699 E26.51577
G1 X103.173 Y89.535 E26.52831
G1 X103.366 Y89.319 E26.54083
G1 X103.502 Y89.064 E26.55333
G1 X103.572 Y88.783 E26.56585
G0 F3600 X103.862 Y88.857
G0 X103.437 Y89.837
G0 X94.535 Y92.898
G0 X90.965 Y95.677
G0 X88.505 Y99.475
G0 X86.986 Y103.269
;TYPE:FILL
G1 F1020 X86.713 Y102.997 E26.58251
G0 F3600 X88.208 Y111.347
G1 F1020 X88.778 Y111.918 E26.61739
G0 F3600 X93.594 Y116.281
G0 X96.872 Y117.829
G0 X99.125 Y118.837
G1 F1020 X99.382 Y119.093 E26.63308
G0 F3600 X107.788 Y117.215
G1 F1020 X108.106 Y117.533 E26.65252
G0 F3600 X112.642 Y111.878
G0 X114.928 Y107.857
;TYPE:SKIN
G1 F1020 X114.977 Y107.623 E26.66069
G1 X114.918 Y106.998 E26.67799
G1 X115.394 Y107.191 E26.70020
G0 F3600 X115.626 Y106.857
G1 F1020 X115.013 Y106.245 E26.73766
G0 F3600 X115.057 Y105.723
G1 F1020 X115.858 Y106.524 E26.78664
G0 F3600 X116.090 Y106.191
G1 F1020 X115.078 Y105.178 E26.84855
G0 F3600 X115.077 Y104.612
G1 F1020 X116.323 Y105.858 E26.92474
G0 F3600 X116.555 Y105.524
G1 F1020 X115.061 Y104.030 E27.01609
G0 F3600 X115.004 Y103.408
G1 F1020 X116.787 Y105.191 E27.12512
G0 F3600 X117.019 Y104.857
G1 F1020 X114.922 Y102.760 E27.25335
G0 F3600 X114.805 Y102.077
G1 F1020 X117.252 Y104.524 E27.40298
G0 F3600 X117.484 Y104.190
G1 F1020 X114.636 Y101.342 E27.57713
G0 F3600 X114.399 Y100.540
G1 F1020 X117.717 Y103.857 E27.77999
G0 F3600 X117.948 Y103.523
G1 F1020 X114.082 Y99.657 E28.01638
G0 F3600 X114.813 Y99.822
G1 F1020 X118.181 Y103.190 E28.22233
G0 F3600 X118.413 Y102.857
G1 F1020 X115.580 Y100.024 E28.39556
G0 F3600 X116.118 Y99.996
G1 F1020 X118.646 Y102.524 E28.55015
G0 F3600 X118.877 Y102.189
G1 F1020 X116.550 Y99.863 E28.69241
G0 F3600 X116.915 Y99.661
G1 F1020 X118.754 Y101.500 E28.80486
G0 F3600 X118.630 Y100.811
G1 F1020 X117.224 Y99.405 E28.89083
G0 F3600 X117.483 Y99.098
G1 F1020 X118.507 Y100.122 E28.95345
G0 F3600 X118.383 Y99.433
G1 F1020 X117.679 Y98.729 E28.99650
G0 F3600 X117.801 Y98.285
G1 F1020 X118.198 Y98.399 E29.02453
G1 X117.920 Y97.555 E29.04346
G1 X117.550 Y96.903 E29.07587
G0 F3600 X117.890 Y96.677
G1 F1020 X113.612 Y92.399 E29.33746
G0 F3600 X113.442 Y92.795
G1 F1020 X116.716 Y96.068 E29.53763
G0 F3600 X115.931 Y95.849
G1 F1020 X113.233 Y93.151 E29.70261
G0 F3600 X112.977 Y93.461
G1 F1020 X115.382 Y95.866 E29.84967
G0 F3600 X114.944 Y95.993
G1 F1020 X112.691 Y93.741 E29.98740
G0 F3600 X112.377 Y93.992
G1 F1020 X114.576 Y96.191 E30.12187
G0 F3600 X114.259 Y96.440
G1 F1020 X112.025 Y94.206 E30.25847
G0 F3600 X111.631 Y94.378
G1 F1020 X113.996 Y96.742 E30.40306
G0 F3600 X113.799 Y97.111
G1 F1020 X111.190 Y94.502 E30.56259
G0 F3600 X110.751 Y94.629
G1 F1020 X113.673 Y97.551 E30.74127
G0 F3600 X113.640 Y98.084
G1 F1020 X112.905 Y97.348 E30.78624
G0 F3600 X115.740 Y96.331
G0 X117.767 Y95.988
G1 F1020 X113.745 Y91.966 E31.03218
G0 F3600 X113.818 Y91.474
G1 F1020 X117.644 Y95.299 E31.26610
G0 F3600 X117.520 Y94.610
G1 F1020 X113.810 Y90.900 E31.49296
G0 F3600 X114.307 Y90.831
G1 F1020 X117.397 Y93.921 E31.68191
G0 F3600 X117.273 Y93.232
G1 F1020 X116.171 Y92.129 E31.74932
G1 F3000 E28.24932
G0 F3600 X109.750 Y87.971
G1 F3000 E31.74932
G1 F1020 X108.714 Y86.935 E31.81267
G0 F3600 X109.315 Y88.101
G1 F1020 X106.851 Y85.638 E31.96331
G0 F3600 X106.213 Y85.565
G1 F1020 X108.925 Y88.278 E32.12917
G0 F3600 X108.572 Y88.490
G1 F1020 X105.732 Y85.651 E32.30280
G0 F3600 X105.253 Y85.737
G1 F1020 X108.251 Y88.735 E32.48613
G0 F3600 X107.973 Y89.022
G1 F1020 X104.773 Y85.822 E32.68180
G0 F3600 X104.294 Y85.909
G1 F1020 X107.727 Y89.342 E32.89172
G0 F3600 X107.514 Y89.695
G1 F1020 X103.813 Y85.994 E33.11803
G0 F3600 X103.334 Y86.081
G1 F1020 X107.337 Y90.083 E33.36278
G0 F3600 X107.210 Y90.522
G1 F1020 X104.038 Y87.351 E33.55671
G0 F3600 X103.668 Y86.980
G1 F1020 X102.854 Y86.166 E33.60648
G0 F3600 X102.683 Y86.561
G1 F1020 X102.243 Y86.404 E33.62532
G1 X101.776 Y86.502 E33.63862
G1 X101.345 Y86.637 E33.65347
G1 X100.695 Y86.553 E33.67429
G1 X100.952 Y87.092 E33.70011
G0 F3600 X100.684 Y87.390
G1 F1020 X99.975 Y86.682 E33.74344
G0 F3600 X99.496 Y86.768
G1 F1020 X100.479 Y87.751 E33.80355
G0 F3600 X100.338 Y88.176
G1 F1020 X99.016 Y86.853 E33.88441
G0 F3600 X98.536 Y86.940
G1 F1020 X100.287 Y88.690 E33.99145
G0 F3600 X100.419 Y89.388
G1 F1020 X98.056 Y87.025 E34.13595
G0 F3600 X97.577 Y87.112
G1 F1020 X101.242 Y90.776 E34.36002
G0 F3600 X101.608 Y90.577
G1 F1020 X101.706 Y90.675 E34.36602
G0 F3600 X100.672 Y90.772
G1 F1020 X97.199 Y87.300 E34.57835
G0 F3600 X96.967 Y87.633
G1 F1020 X100.135 Y90.801 E34.77207
G0 F3600 X102.848 Y90.686
G1 F1020 X103.180 Y90.734 E34.78719
G1 X103.784 Y91.056 E34.81679
G0 F3600 X104.514 Y91.221
G1 F1020 X103.615 Y90.322 E34.87176
G0 F3600 X103.914 Y90.054
G1 F1020 X105.306 Y91.447 E34.95691
G0 F3600 X106.189 Y91.764
G1 F1020 X104.162 Y89.737 E35.08085
G0 F3600 X104.354 Y89.364
G1 F1020 X107.170 Y92.179 E35.25301
G0 F3600 X107.157 Y91.600
G1 F1020 X104.465 Y88.909 E35.41759
G0 F3600 X104.463 Y88.340
G1 F1020 X107.140 Y91.018 E35.58132
G0 F3600 X99.606 Y90.838
G1 F1020 X96.735 Y87.966 E35.75691
G0 F3600 X96.503 Y88.300
G1 F1020 X99.104 Y90.902 E35.91598
G0 F3600 X98.610 Y90.973
G1 F1020 X96.270 Y88.633 E36.05907
G0 F3600 X96.038 Y88.967
G1 F1020 X98.137 Y91.066 E36.18742
G0 F3600 X97.672 Y91.167
G1 F1020 X95.805 Y89.300 E36.30158
G0 F3600 X95.573 Y89.634
G1 F1020 X97.226 Y91.286 E36.40263
G0 F3600 X96.785 Y91.411
G1 F1020 X95.341 Y89.967 E36.49093
G0 F3600 X95.109 Y90.301
G1 F1020 X96.363 Y91.555 E36.56761
G0 F3600 X95.945 Y91.702
G1 F1020 X94.876 Y90.634 E36.63294
G0 F3600 X94.644 Y90.967
G1 F1020 X95.545 Y91.868 E36.68804
G0 F3600 X95.146 Y92.035
G1 F1020 X94.412 Y91.300 E36.73295
G0 F3600 X94.180 Y91.634
G1 F1020 X94.767 Y92.222 E36.76887
G0 F3600 X94.390 Y92.410
G1 F1020 X93.831 Y92.134 E36.79590
G1 X93.848 Y92.717 E36.81494
G1 X93.483 Y92.634 E36.83112
G0 F3600 X89.335 Y97.859
G0 X87.680 Y102.070
G0 X87.498 Y106.589
G0 X88.810 Y110.919
G0 X91.018 Y114.041
G0 X90.914 Y114.955
G1 F1020 X94.310 Y118.351 E37.03878
G0 F3600 X94.739 Y118.215
G1 F1020 X93.002 Y116.478 E37.14499
G0 F3600 X92.445 Y117.053
G1 F1020 X90.682 Y115.289 E37.25283
G0 F3600 X90.450 Y115.623
G1 F1020 X90.580 Y115.753 E37.26078
G0 F3600 X94.432 Y117.342
G1 F1020 X94.971 Y117.881 E37.29374
;LAYER:1
M117 Nb = 2 / 13
M106 S81
G0 F3600 X95.011 Y117.525 Z0.410
;TYPE:WALL-INNER
G1 F1380 X95.269 Y117.636 E37.30073
G1 X94.561 Y118.652 E37.33154
G1 X90.288 Y115.676 E37.46111
G1 X90.996 Y114.660 E37.49192
G1 X91.880 Y115.496 E37.52220
G1 X92.610 Y116.080 E37.54546
G1 X93.377 Y116.615 E37.56873
G1 X94.179 Y117.097 E37.59201
G1 X95.011 Y117.525 E37.61529
G0 F3600 X98.568 Y118.655
G1 F1380 X99.494 Y118.785 E37.63856
G1 X100.426 Y118.854 E37.66181
G1 X101.284 Y118.860 E37.68316
G1 X98.838 Y119.297 E37.74499
G1 X97.632 Y118.457 E37.78156
G1 X98.568 Y118.655 E37.80537
G0 F3600 X105.930 Y117.964
G1 F1380 X106.794 Y117.605 E37.82865
G1 X107.631 Y117.188 E37.85192
G1 X108.439 Y116.718 E37.87518
G1 X109.214 Y116.193 E37.89847
G1 X109.295 Y116.130 E37.90102
G1 X108.264 Y117.611 E37.94592
G1 X105.530 Y118.100 E38.01503
G1 X105.930 Y117.964 E38.02554
G0 F3600 X111.011 Y114.058
G0 X113.472 Y110.261
G0 X114.430 Y108.757
G1 F1380 X114.685 Y107.750 E38.05139
G1 X114.848 Y106.828 E38.07469
G1 X114.948 Y105.897 E38.09799
G1 X114.985 Y104.962 E38.12127
G1 X114.960 Y104.027 E38.14455
G1 X114.873 Y103.096 E38.16781
G1 X114.724 Y102.174 E38.19105
G1 X114.513 Y101.262 E38.21434
G1 X114.241 Y100.367 E38.23762
G1 X113.911 Y99.492 E38.26089
G1 X113.524 Y98.640 E38.28417
G1 X113.080 Y97.817 E38.30744
G1 X112.581 Y97.025 E38.33074
G1 X112.032 Y96.268 E38.35400
G1 X111.432 Y95.549 E38.37731
G1 X110.786 Y94.874 E38.40055
G1 X110.351 Y94.474 E38.41526
G1 X110.471 Y94.484 E38.41825
G1 X110.993 Y94.444 E38.43128
G1 X111.500 Y94.321 E38.44426
G1 X111.983 Y94.118 E38.45730
G1 X112.426 Y93.840 E38.47031
G1 X112.818 Y93.495 E38.48331
G1 X113.158 Y93.083 E38.49660
G1 X113.439 Y92.574 E38.51107
G1 X113.602 Y92.153 E38.52230
G1 X113.709 Y91.640 E38.53534
G1 X113.733 Y91.117 E38.54837
G1 X113.672 Y90.596 E38.56142
G1 X113.552 Y90.179 E38.57222
G1 X117.300 Y92.789 E38.68586
G1 X118.986 Y102.216 E38.92415
G1 X114.430 Y108.757 E39.12250
G0 F3600 X115.726 Y99.938
G1 F1380 X116.206 Y99.882 E39.13453
G1 X116.658 Y99.712 E39.14654
G1 X117.058 Y99.439 E39.15859
G1 X117.379 Y99.078 E39.17061
G1 X117.604 Y98.653 E39.18258
G1 X117.722 Y98.184 E39.19461
G1 X117.724 Y97.699 E39.20668
G1 X117.610 Y97.230 E39.21869
G1 X117.388 Y96.802 E39.23069
G1 X117.069 Y96.439 E39.24271
G1 X116.672 Y96.162 E39.25476
G1 X116.221 Y95.990 E39.26677
G1 X115.742 Y95.930 E39.27878
G1 X115.264 Y95.986 E39.29076
G1 X114.811 Y96.154 E39.30278
G1 X114.412 Y96.427 E39.31481
G1 X114.089 Y96.788 E39.32686
G1 X113.862 Y97.216 E39.33892
G1 X113.746 Y97.685 E39.35094
G1 X113.744 Y98.166 E39.36291
G1 X113.856 Y98.635 E39.37490
G1 X114.080 Y99.066 E39.38699
G1 X114.399 Y99.428 E39.39900
G1 X114.792 Y99.703 E39.41093
G1 X115.245 Y99.878 E39.42301
G1 X115.726 Y99.938 E39.43508
G0 F3600 X109.838 Y94.544
G0 X104.024 Y89.779
G1 F1380 X104.252 Y89.352 E39.44712
G1 X104.368 Y88.882 E39.45917
G1 X104.370 Y88.402 E39.47111
G1 X104.258 Y87.930 E39.48318
G1 X104.033 Y87.500 E39.49526
G1 X103.715 Y87.138 E39.50725
G1 X103.318 Y86.861 E39.51929
G1 X102.867 Y86.689 E39.53130
G1 X102.389 Y86.629 E39.54329
G1 X101.909 Y86.685 E39.55531
G1 X101.457 Y86.855 E39.56733
G1 X101.060 Y87.126 E39.57929
G1 X100.737 Y87.485 E39.59131
G1 X100.509 Y87.915 E39.60342
G1 X100.393 Y88.384 E39.61544
G1 X100.391 Y88.866 E39.62743
G1 X100.504 Y89.336 E39.63946
G1 X100.727 Y89.765 E39.65149
G1 X101.047 Y90.129 E39.66355
G1 X101.443 Y90.403 E39.67553
G1 X101.892 Y90.577 E39.68752
G1 X102.373 Y90.637 E39.69958
G1 X102.852 Y90.581 E39.71158
G1 X103.304 Y90.411 E39.72359
G1 X103.702 Y90.139 E39.73559
G1 X104.024 Y89.779 E39.74761
G0 F3600 X103.410 Y91.083
G1 F1380 X102.485 Y90.951 E39.77086
G1 X101.551 Y90.882 E39.79416
G1 X100.615 Y90.876 E39.81745
G1 X99.681 Y90.933 E39.84074
G1 X98.754 Y91.051 E39.86399
G1 X97.836 Y91.231 E39.88726
G1 X96.932 Y91.472 E39.91054
G1 X96.047 Y91.773 E39.93380
G1 X95.183 Y92.132 E39.95709
G1 X94.346 Y92.548 E39.98034
G1 X93.537 Y93.020 E40.00365
G1 X92.763 Y93.544 E40.02691
G1 X92.682 Y93.607 E40.02946
G1 X97.237 Y87.067 E40.22777
G1 X106.662 Y85.381 E40.46602
G1 X110.414 Y87.994 E40.57979
G1 X110.226 Y87.994 E40.58446
G1 X109.653 Y88.096 E40.59895
G1 X109.222 Y88.239 E40.61024
G1 X108.757 Y88.480 E40.62328
G1 X108.339 Y88.792 E40.63626
G1 X107.967 Y89.176 E40.64956
G1 X107.645 Y89.662 E40.66407
G1 X107.450 Y90.070 E40.67532
G1 X107.303 Y90.570 E40.68829
G1 X107.237 Y91.088 E40.70128
G1 X107.256 Y91.624 E40.71462
G1 X107.383 Y92.192 E40.72911
G1 X107.492 Y92.483 E40.73684
G1 X106.966 Y92.212 E40.75156
G1 X106.107 Y91.840 E40.77485
G1 X105.225 Y91.528 E40.79813
G1 X104.325 Y91.275 E40.82140
G1 X103.410 Y91.083 E40.84466
G0 F3600 X97.048 Y91.854
G0 X92.997 Y93.867
G0 X89.829 Y97.097
G0 X87.545 Y100.983
G1 F1380 X87.291 Y101.988 E40.87045
G1 X87.129 Y102.908 E40.89370
G1 X87.029 Y103.838 E40.91697
G1 X86.991 Y104.773 E40.94026
G1 X87.002 Y105.191 E40.95066
G1 X86.514 Y102.462 E41.01964
G1 X87.545 Y100.983 E41.06450
G0 F3600 X87.414 Y105.683
G0 X87.764 Y109.448
G1 F1380 X88.065 Y110.246 E41.08573
G1 X88.454 Y111.096 E41.10899
G1 X88.897 Y111.919 E41.13224
G1 X89.395 Y112.711 E41.15552
G1 X88.200 Y111.888 E41.19163
G1 X87.764 Y109.448 E41.25330
G0 F3600 X88.112 Y109.241
G1 F1380 X88.434 Y110.092 E41.27594
G1 X88.811 Y110.918 E41.29853
G1 X89.242 Y111.718 E41.32115
G1 X89.725 Y112.487 E41.34374
G1 X90.260 Y113.223 E41.36638
G1 X90.841 Y113.920 E41.38896
G1 X91.469 Y114.578 E41.41159
G1 X92.140 Y115.192 E41.43423
G1 X92.849 Y115.760 E41.45683
G1 X93.594 Y116.280 E41.47944
G1 X94.373 Y116.749 E41.50206
G1 X95.182 Y117.164 E41.52469
G1 X96.015 Y117.524 E41.54727
G1 X96.872 Y117.828 E41.56989
G1 X97.746 Y118.074 E41.59249
G1 X98.637 Y118.261 E41.61514
G1 X99.536 Y118.388 E41.63773
G1 X100.442 Y118.455 E41.66034
G1 X101.351 Y118.461 E41.68296
G1 X102.258 Y118.407 E41.70556
G1 X103.158 Y118.292 E41.72814
G1 X104.051 Y118.117 E41.75078
G1 X104.928 Y117.883 E41.77337
G1 X105.789 Y117.591 E41.79599
G1 X106.628 Y117.241 E41.81861
G1 X107.442 Y116.837 E41.84122
G1 X108.226 Y116.380 E41.86381
G1 X108.980 Y115.870 E41.88646
G1 X109.696 Y115.312 E41.90904
G1 X110.375 Y114.707 E41.93167
G1 X111.011 Y114.057 E41.95430
G1 X111.602 Y113.368 E41.97689
G1 X112.146 Y112.640 E41.99950
G1 X112.641 Y111.878 E42.02211
G1 X113.083 Y111.082 E42.04477
G1 X113.471 Y110.261 E42.06736
G1 X113.803 Y109.415 E42.08998
G1 X114.078 Y108.549 E42.11258
G1 X114.294 Y107.667 E42.13518
G1 X114.452 Y106.772 E42.15779
G1 X114.550 Y105.868 E42.18042
G1 X114.585 Y104.960 E42.20303
G1 X114.561 Y104.051 E42.22566
G1 X114.477 Y103.146 E42.24827
G1 X114.332 Y102.251 E42.27083
G1 X114.127 Y101.365 E42.29346
G1 X113.863 Y100.495 E42.31608
G1 X113.542 Y99.645 E42.33869
G1 X113.166 Y98.818 E42.36130
G1 X112.735 Y98.019 E42.38389
G1 X112.251 Y97.249 E42.40652
G1 X111.717 Y96.513 E42.42914
G1 X111.134 Y95.815 E42.45177
G1 X110.507 Y95.159 E42.47435
G1 X109.838 Y94.544 E42.49696
G1 X109.128 Y93.976 E42.51959
G1 X108.382 Y93.457 E42.54220
G1 X107.603 Y92.988 E42.56483
G1 X106.796 Y92.573 E42.58741
G1 X105.961 Y92.212 E42.61004
G1 X105.104 Y91.909 E42.63266
G1 X104.230 Y91.663 E42.65525
G1 X103.341 Y91.476 E42.67786
G1 X102.442 Y91.348 E42.70045
G1 X101.535 Y91.281 E42.72308
G1 X100.626 Y91.275 E42.74570
G1 X99.719 Y91.330 E42.76831
G1 X98.818 Y91.445 E42.79091
G1 X97.926 Y91.620 E42.81353
G1 X97.048 Y91.854 E42.83614
G1 X96.188 Y92.146 E42.85874
G1 X95.349 Y92.496 E42.88136
G1 X94.535 Y92.899 E42.90396
G1 X93.749 Y93.358 E42.92661
G1 X92.997 Y93.867 E42.94921
G1 X92.280 Y94.425 E42.97181
G1 X91.602 Y95.030 E42.99442
G1 X90.966 Y95.679 E43.01703
G1 X90.374 Y96.369 E43.03966
G1 X89.830 Y97.097 E43.06227
G1 X89.336 Y97.860 E43.08489
G1 X88.894 Y98.654 E43.10750
G1 X88.506 Y99.476 E43.13012
G1 X88.173 Y100.321 E43.15272
G1 X87.898 Y101.187 E43.17532
G1 X87.681 Y102.070 E43.19795
G1 X87.525 Y102.964 E43.22053
G1 X87.427 Y103.868 E43.24316
G1 X87.391 Y104.776 E43.26577
G1 X87.415 Y105.684 E43.28837
G1 X87.499 Y106.589 E43.31099
G1 X87.645 Y107.486 E43.33360
G1 X87.850 Y108.371 E43.35620
G1 X88.112 Y109.241 E43.37881
G0 F3600 X87.837 Y112.121
G1 F1380 X86.093 Y102.370 E43.62529
G1 X97.004 Y86.704 E44.10033
G1 X106.754 Y84.960 E44.34679
G1 X117.663 Y92.556 E44.67756
G1 X119.407 Y102.308 E44.92407
G1 X108.497 Y117.974 E45.39909
G1 X98.746 Y119.718 E45.64557
G1 X95.755 Y117.636 E45.73625
G1 X94.660 Y119.207 E45.78390
G1 X89.734 Y115.776 E45.93328
G1 X90.827 Y114.204 E45.98092
G1 X87.837 Y112.121 E46.07159
G0 F3600 X87.427 Y103.869
G0 X88.506 Y99.476
G0 X90.966 Y95.678
G0 X94.536 Y92.899
G0 X98.818 Y91.445
G0 X101.631 Y90.048
G1 F1380 X101.991 Y90.187 E46.08119
G1 X102.375 Y90.235 E46.09082
G1 X102.757 Y90.190 E46.10039
G1 X103.119 Y90.054 E46.11002
G1 X103.437 Y89.837 E46.11960
G1 X103.695 Y89.549 E46.12922
G1 X103.877 Y89.208 E46.13884
G1 X103.970 Y88.832 E46.14847
G1 X103.971 Y88.448 E46.15803
G1 X103.881 Y88.071 E46.16767
G1 X103.702 Y87.727 E46.17732
G1 X103.447 Y87.438 E46.18691
G1 X103.130 Y87.217 E46.19653
G1 X102.769 Y87.079 E46.20614
G1 X102.388 Y87.031 E46.21570
G1 X102.004 Y87.076 E46.22532
G1 X101.642 Y87.212 E46.23494
G1 X101.324 Y87.429 E46.24452
G1 X101.066 Y87.716 E46.25412
G1 X100.884 Y88.059 E46.26379
G1 X100.791 Y88.434 E46.27340
G1 X100.790 Y88.819 E46.28298
G1 X100.881 Y89.195 E46.29261
G1 X101.059 Y89.538 E46.30222
G1 X101.314 Y89.829 E46.31185
G1 X101.631 Y90.048 E46.32144
G0 F3600 X107.695 Y90.652
G1 F1380 X107.637 Y91.107 E46.33285
G1 X107.653 Y91.573 E46.34445
G1 X107.766 Y92.078 E46.35733
G1 X107.904 Y92.445 E46.36708
G1 X108.132 Y92.843 E46.37850
G1 X108.421 Y93.200 E46.38993
G1 X108.763 Y93.505 E46.40133
G1 X109.149 Y93.752 E46.41273
G1 X109.571 Y93.933 E46.42416
G1 X110.015 Y94.045 E46.43555
G1 X110.473 Y94.084 E46.44699
G1 X110.930 Y94.049 E46.45839
G1 X111.375 Y93.941 E46.46979
G1 X111.798 Y93.763 E46.48121
G1 X112.187 Y93.519 E46.49263
G1 X112.531 Y93.216 E46.50404
G1 X112.827 Y92.858 E46.51560
G1 X113.077 Y92.405 E46.52847
G1 X113.218 Y92.039 E46.53823
G1 X113.312 Y91.590 E46.54965
G1 X113.333 Y91.131 E46.56108
G1 X113.279 Y90.675 E46.57251
G1 X113.153 Y90.234 E46.58392
G1 X112.958 Y89.820 E46.59530
G1 X112.699 Y89.441 E46.60673
G1 X112.378 Y89.104 E46.61831
G1 X111.959 Y88.800 E46.63119
G1 X111.606 Y88.614 E46.64112
G1 X111.113 Y88.459 E46.65398
G1 X110.726 Y88.394 E46.66374
G1 X110.261 Y88.393 E46.67531
G1 X109.751 Y88.484 E46.68820
G1 X109.378 Y88.607 E46.69797
G1 X108.970 Y88.819 E46.70942
G1 X108.603 Y89.093 E46.72081
G1 X108.279 Y89.427 E46.73239
G1 X107.993 Y89.859 E46.74528
G1 X107.824 Y90.213 E46.75504
G1 X107.695 Y90.652 E46.76643
G0 F3600 X107.904 Y92.445
G0 X109.150 Y93.752
G0 X110.930 Y94.048
G0 X114.677 Y96.729
G1 F1380 X114.419 Y97.018 E46.77607
G1 X114.237 Y97.360 E46.78571
G1 X114.144 Y97.735 E46.79532
G1 X114.143 Y98.119 E46.80488
G1 X114.232 Y98.494 E46.81447
G1 X114.411 Y98.839 E46.82414
G1 X114.667 Y99.128 E46.83374
G1 X114.981 Y99.349 E46.84330
G1 X115.343 Y99.488 E46.85295
G1 X115.728 Y99.536 E46.86260
G1 X116.111 Y99.491 E46.87220
G1 X116.473 Y99.355 E46.88182
G1 X116.792 Y99.137 E46.89143
G1 X117.049 Y98.849 E46.90104
G1 X117.229 Y98.508 E46.91063
G1 X117.324 Y98.133 E46.92026
G1 X117.325 Y97.746 E46.92989
G1 X117.234 Y97.372 E46.93947
G1 X117.056 Y97.029 E46.94908
G1 X116.801 Y96.739 E46.95869
G1 X116.484 Y96.518 E46.96831
G1 X116.123 Y96.380 E46.97792
G1 X115.740 Y96.332 E46.98753
G1 X115.358 Y96.376 E46.99710
G1 X114.996 Y96.511 E47.00671
G1 X114.677 Y96.729 E47.01632
G0 F3600 X114.942 Y97.031
;TYPE:WALL-OUTER
G1 F1320 X114.749 Y97.247 E47.02353
G1 X114.613 Y97.503 E47.03074
G1 X114.543 Y97.784 E47.03795
G1 X114.542 Y98.073 E47.04514
G1 X114.609 Y98.354 E47.05233
G1 X114.743 Y98.611 E47.05954
G1 X114.935 Y98.828 E47.06675
G1 X115.171 Y98.994 E47.07393
G1 X115.441 Y99.098 E47.08113
G1 X115.729 Y99.134 E47.08835
G1 X116.016 Y99.101 E47.09554
G1 X116.287 Y98.999 E47.10274
G1 X116.526 Y98.835 E47.10996
G1 X116.719 Y98.619 E47.11717
G1 X116.854 Y98.364 E47.12434
G1 X116.925 Y98.083 E47.13156
G1 X116.926 Y97.794 E47.13875
G1 X116.858 Y97.513 E47.14594
G1 X116.724 Y97.256 E47.15315
G1 X116.534 Y97.039 E47.16033
G1 X116.296 Y96.873 E47.16755
G1 X116.026 Y96.770 E47.17474
G1 X115.739 Y96.734 E47.18194
G1 X115.452 Y96.767 E47.18913
G1 X115.181 Y96.868 E47.19632
G1 X114.942 Y97.031 E47.20352
G0 F3600 X114.720 Y96.831
G0 X112.642 Y98.058
G0 X112.390 Y98.220
G1 F1320 X111.920 Y97.472 E47.22550
G1 X111.402 Y96.759 E47.24743
G1 X110.836 Y96.081 E47.26941
G1 X110.227 Y95.444 E47.29134
G1 X109.578 Y94.847 E47.31328
G1 X108.889 Y94.295 E47.33525
G1 X108.165 Y93.792 E47.35718
G1 X107.409 Y93.337 E47.37914
G1 X106.625 Y92.934 E47.40107
G1 X105.815 Y92.584 E47.42303
G1 X104.983 Y92.289 E47.44499
G1 X104.134 Y92.051 E47.46693
G1 X103.272 Y91.869 E47.48886
G1 X102.399 Y91.745 E47.51080
G1 X101.519 Y91.680 E47.53275
G1 X100.637 Y91.674 E47.55470
G1 X99.756 Y91.728 E47.57666
G1 X98.881 Y91.839 E47.59861
G1 X98.016 Y92.009 E47.62055
G1 X97.163 Y92.236 E47.64251
G1 X96.329 Y92.520 E47.66443
G1 X95.514 Y92.859 E47.68640
G1 X94.725 Y93.251 E47.70832
G1 X93.962 Y93.695 E47.73028
G1 X93.232 Y94.190 E47.75223
G1 X92.536 Y94.732 E47.77418
G1 X91.878 Y95.319 E47.79612
G1 X91.260 Y95.948 E47.81806
G1 X90.686 Y96.619 E47.84003
G1 X90.158 Y97.325 E47.86197
G1 X89.678 Y98.065 E47.88392
G1 X89.249 Y98.836 E47.90587
G1 X88.872 Y99.634 E47.92783
G1 X88.549 Y100.454 E47.94976
G1 X88.282 Y101.295 E47.97172
G1 X88.072 Y102.152 E47.99367
G1 X87.920 Y103.020 E48.01560
G1 X87.825 Y103.897 E48.03755
G1 X87.790 Y104.779 E48.05952
G1 X87.813 Y105.660 E48.08144
G1 X87.895 Y106.538 E48.10339
G1 X88.037 Y107.409 E48.12535
G1 X88.236 Y108.268 E48.14729
G1 X88.490 Y109.113 E48.16924
G1 X88.802 Y109.939 E48.19121
G1 X89.169 Y110.741 E48.21316
G1 X89.587 Y111.517 E48.23509
G1 X90.056 Y112.264 E48.25704
G1 X90.575 Y112.977 E48.27898
G1 X91.139 Y113.655 E48.30093
G1 X91.749 Y114.293 E48.32289
G1 X92.399 Y114.889 E48.34483
G1 X93.088 Y115.440 E48.36679
G1 X93.812 Y115.945 E48.38875
G1 X94.567 Y116.400 E48.41068
G1 X95.352 Y116.803 E48.43264
G1 X96.161 Y117.152 E48.45456
G1 X96.993 Y117.448 E48.47654
G1 X97.842 Y117.686 E48.49848
G1 X98.706 Y117.868 E48.52045
G1 X99.579 Y117.991 E48.54239
G1 X100.458 Y118.056 E48.56432
G1 X101.340 Y118.062 E48.58626
G1 X102.221 Y118.009 E48.60823
G1 X103.095 Y117.898 E48.63015
G1 X103.961 Y117.728 E48.65211
G1 X104.813 Y117.501 E48.67405
G1 X105.648 Y117.217 E48.69599
G1 X106.463 Y116.878 E48.71796
G1 X107.253 Y116.485 E48.73991
G1 X108.014 Y116.042 E48.76182
G1 X108.745 Y115.547 E48.78379
G1 X109.440 Y115.005 E48.80572
G1 X110.099 Y114.418 E48.82768
G1 X110.717 Y113.788 E48.84964
G1 X111.290 Y113.118 E48.87158
G1 X111.818 Y112.412 E48.89351
G1 X112.299 Y111.672 E48.91547
G1 X112.728 Y110.900 E48.93745
G1 X113.105 Y110.103 E48.95939
G1 X113.427 Y109.281 E48.98136
G1 X113.694 Y108.441 E49.00329
G1 X113.904 Y107.585 E49.02522
G1 X114.057 Y106.716 E49.04717
G1 X114.152 Y105.839 E49.06912
G1 X114.186 Y104.957 E49.09109
G1 X114.163 Y104.075 E49.11304
G1 X114.081 Y103.197 E49.13498
G1 X113.940 Y102.328 E49.15689
G1 X113.741 Y101.468 E49.17885
G1 X113.486 Y100.624 E49.20079
G1 X113.174 Y99.799 E49.22274
G1 X112.808 Y98.995 E49.24472
G1 X112.390 Y98.220 E49.26663
G0 F3600 X112.642 Y98.058
G0 X111.321 Y93.852
G0 X111.250 Y93.561
G1 F1320 X111.613 Y93.408 E49.27643
G1 X111.947 Y93.198 E49.28625
G1 X112.243 Y92.938 E49.29605
G1 X112.495 Y92.632 E49.30592
G1 X112.715 Y92.235 E49.31721
G1 X112.834 Y91.926 E49.32545
G1 X112.915 Y91.540 E49.33526
G1 X112.933 Y91.146 E49.34508
G1 X112.887 Y90.754 E49.35490
G1 X112.778 Y90.375 E49.36471
G1 X112.610 Y90.018 E49.37453
G1 X112.388 Y89.692 E49.38434
G1 X112.114 Y89.405 E49.39422
G1 X111.747 Y89.140 E49.40548
G1 X111.452 Y88.984 E49.41378
G1 X111.019 Y88.848 E49.42508
G1 X110.692 Y88.793 E49.43333
G1 X110.296 Y88.792 E49.44318
G1 X109.849 Y88.872 E49.45448
G1 X109.533 Y88.976 E49.46276
G1 X109.184 Y89.158 E49.47255
G1 X108.867 Y89.394 E49.48239
G1 X108.591 Y89.679 E49.49226
G1 X108.340 Y90.057 E49.50355
G1 X108.198 Y90.356 E49.51178
G1 X108.087 Y90.734 E49.52159
G1 X108.037 Y91.125 E49.53140
G1 X108.051 Y91.522 E49.54128
G1 X108.150 Y91.964 E49.55255
G1 X108.266 Y92.275 E49.56081
G1 X108.462 Y92.617 E49.57062
G1 X108.710 Y92.924 E49.58044
G1 X109.004 Y93.186 E49.59024
G1 X109.337 Y93.398 E49.60006
G1 X109.699 Y93.554 E49.60987
G1 X110.081 Y93.650 E49.61967
G1 X110.474 Y93.684 E49.62948
G1 X110.867 Y93.653 E49.63929
G1 X111.250 Y93.561 E49.64910
G0 F3600 X111.321 Y93.852
G0 X117.747 Y92.465
G0 X118.026 Y92.323
G1 F1320 X119.830 Y102.401 E49.90385
G1 X108.730 Y118.337 E50.38709
G1 X98.653 Y120.141 E50.64182
G1 X95.854 Y118.191 E50.72670
G1 X94.759 Y119.763 E50.77437
G1 X89.178 Y115.875 E50.94362
G1 X90.272 Y114.303 E50.99128
G1 X87.474 Y112.354 E51.07612
G1 X85.670 Y102.277 E51.33085
G1 X96.771 Y86.341 E51.81411
G1 X106.847 Y84.537 E52.06881
G1 X118.026 Y92.323 E52.40780
G0 F3600 X117.747 Y92.465
G0 X111.112 Y88.459
G0 X109.378 Y88.607
G0 X103.861 Y88.857
G0 X103.571 Y88.783
G1 F1320 X103.572 Y88.494 E52.41499
G1 X103.505 Y88.212 E52.42220
G1 X103.370 Y87.955 E52.42942
G1 X103.180 Y87.738 E52.43660
G1 X102.942 Y87.572 E52.44382
G1 X102.672 Y87.469 E52.45101
G1 X102.386 Y87.433 E52.45818
G1 X102.099 Y87.466 E52.46537
G1 X101.828 Y87.568 E52.47258
G1 X101.589 Y87.731 E52.47978
G1 X101.396 Y87.946 E52.48696
G1 X101.260 Y88.202 E52.49418
G1 X101.190 Y88.483 E52.50138
G1 X101.189 Y88.772 E52.50857
G1 X101.257 Y89.054 E52.51579
G1 X101.391 Y89.311 E52.52300
G1 X101.582 Y89.529 E52.53022
G1 X101.819 Y89.693 E52.53739
G1 X102.089 Y89.797 E52.54459
G1 X102.376 Y89.833 E52.55178
G1 X102.662 Y89.800 E52.55895
G1 X102.933 Y89.698 E52.56615
G1 X103.172 Y89.535 E52.57335
G1 X103.365 Y89.319 E52.58056
G1 X103.501 Y89.064 E52.58775
G1 X103.571 Y88.783 E52.59496
G0 F3600 X103.861 Y88.857
G0 X103.437 Y89.836
G0 X94.536 Y92.899
G0 X90.966 Y95.678
G0 X88.506 Y99.476
G0 X87.141 Y102.258
;TYPE:FILL
G1 F1440 X86.665 Y102.734 E52.61171
G0 F3600 X88.426 Y111.257
G1 F1440 X88.225 Y111.458 E52.61878
G0 F3600 X93.595 Y116.280
G0 X96.872 Y117.828
G0 X99.453 Y119.084
G1 F1440 X99.566 Y118.972 E52.62274
G0 F3600 X107.803 Y117.591
G1 F1440 X108.571 Y116.823 E52.64976
G0 F3600 X112.641 Y111.878
G0 X114.786 Y107.819
;TYPE:SKIN
G1 F1440 X115.359 Y107.246 E52.66993
G0 F3600 X114.892 Y107.148
G1 F1440 X116.655 Y105.385 E52.73197
G0 F3600 X115.072 Y105.276
G1 F1440 X118.769 Y101.578 E52.86208
G0 F3600 X118.684 Y101.100
G1 F1440 X115.078 Y104.706 E52.98897
G0 F3600 X115.063 Y104.156
G1 F1440 X118.598 Y100.621 E53.11337
G0 F3600 X118.513 Y100.142
G1 F1440 X115.022 Y103.632 E53.23620
G0 F3600 X114.974 Y103.116
G1 F1440 X118.426 Y99.664 E53.35767
G0 F3600 X118.341 Y99.185
G1 F1440 X114.898 Y102.628 E53.47883
G0 F3600 X114.819 Y102.142
G1 F1440 X118.255 Y98.707 E53.59972
G0 F3600 X118.170 Y98.228
G1 F1440 X117.752 Y98.363 E53.61684
G1 X117.930 Y97.621 E53.62608
G1 X117.817 Y97.169 E53.63386
G1 X117.674 Y96.748 E53.64351
G1 X117.827 Y96.314 E53.65496
G0 F3600 X117.741 Y95.835
G1 F1440 X117.172 Y96.404 E53.67498
G0 F3600 X116.847 Y96.165
G1 F1440 X117.656 Y95.356 E53.70345
G0 F3600 X117.570 Y94.878
G1 F1440 X116.469 Y95.979 E53.74220
G0 F3600 X116.019 Y95.864
G1 F1440 X117.484 Y94.400 E53.79373
G0 F3600 X117.398 Y93.921
G1 F1440 X115.458 Y95.861 E53.86200
G0 F3600 X114.532 Y96.223
G1 F1440 X117.313 Y93.442 E53.95986
G0 F3600 X117.227 Y92.964
G1 F1440 X112.879 Y97.312 E54.11287
G0 F3600 X113.098 Y97.657
G1 F1440 X113.981 Y96.774 E54.14394
G0 F3600 X113.644 Y97.675
G1 F1440 X113.478 Y98.123 E54.15600
G1 X113.499 Y98.385 E54.16254
G0 F3600 X114.210 Y99.366
G1 F1440 X114.113 Y99.745 E54.16867
G1 X114.689 Y99.734 E54.17995
G1 X114.344 Y100.361 E54.19776
G0 F3600 X114.474 Y100.795
G1 F1440 X115.286 Y99.983 E54.22633
G0 F3600 X116.533 Y99.865
G1 F1440 X114.713 Y101.684 E54.29036
G0 F3600 X114.606 Y101.227
G1 F1440 X115.804 Y100.029 E54.33252
G0 F3600 X118.855 Y102.057
G1 F1440 X115.049 Y105.863 E54.46645
G0 F3600 X114.984 Y106.492
G1 F1440 X117.951 Y103.526 E54.57084
G0 F3600 X112.661 Y96.966
G1 F1440 X116.956 Y92.671 E54.72197
G0 F3600 X116.623 Y92.440
G1 F1440 X112.424 Y96.638 E54.86972
G0 F3600 X112.186 Y96.312
G1 F1440 X116.290 Y92.208 E55.01414
G0 F3600 X115.958 Y91.976
G1 F1440 X111.937 Y95.997 E55.15563
G0 F3600 X111.679 Y95.690
G1 F1440 X115.625 Y91.744 E55.29449
G0 F3600 X115.293 Y91.513
G1 F1440 X111.416 Y95.389 E55.43090
G0 F3600 X111.140 Y95.100
G1 F1440 X112.047 Y94.194 E55.46280
G0 F3600 X111.175 Y94.501
G1 F1440 X110.865 Y94.812 E55.47373
G0 F3600 X113.410 Y92.831
G1 F1440 X114.960 Y91.281 E55.52827
G0 F3600 X114.627 Y91.049
G1 F1440 X113.750 Y91.927 E55.55915
G0 F3600 X113.825 Y91.288
G1 F1440 X114.128 Y90.701 E55.57571
G1 X113.791 Y90.757 E55.58421
G1 F3000 E52.08421
G0 F3600 X109.970 Y87.807
G1 F3000 E55.58421
G1 F1440 X109.810 Y87.966 E55.58983
G0 F3600 X109.637 Y87.575
G1 F1440 X108.942 Y88.270 E55.61428
G0 F3600 X109.305 Y87.343
G1 F1440 X105.224 Y91.424 E55.75789
G0 F3600 X105.643 Y91.570
G1 F1440 X107.515 Y89.697 E55.82378
G0 F3600 X107.200 Y90.576
G1 F1440 X106.059 Y91.718 E55.86395
G0 F3600 X106.457 Y91.884
G1 F1440 X107.140 Y91.201 E55.88799
G0 F3600 X107.176 Y91.729
G1 F1440 X106.852 Y92.053 E55.89939
G0 F3600 X104.784 Y91.300
G1 F1440 X108.972 Y87.112 E56.04676
G0 F3600 X108.640 Y86.880
G1 F1440 X104.342 Y91.177 E56.19799
G0 F3600 X103.876 Y91.079
G1 F1440 X108.307 Y86.648 E56.35391
G0 F3600 X107.975 Y86.416
G1 F1440 X103.410 Y90.982 E56.51457
G0 F3600 X103.315 Y90.512
G1 F1440 X102.915 Y90.912 E56.52865
G0 F3600 X101.573 Y90.561
G1 F1440 X101.280 Y90.571 E56.53638
G1 X100.793 Y90.776 E56.54953
G0 F3600 X100.205 Y90.800
G1 F1440 X100.896 Y90.110 E56.57383
G0 F3600 X100.635 Y89.806
G1 F1440 X99.598 Y90.843 E56.61032
G0 F3600 X98.953 Y90.924
G1 F1440 X100.442 Y89.435 E56.66271
G0 F3600 X100.317 Y88.995
G1 F1440 X98.269 Y91.044 E56.73480
G0 F3600 X97.543 Y91.206
G1 F1440 X100.291 Y88.457 E56.83152
G0 F3600 X100.535 Y87.650
G1 F1440 X96.759 Y91.425 E56.96438
G0 F3600 X95.891 Y91.729
G1 F1440 X101.153 Y86.467 E57.14954
G0 F3600 X101.423 Y86.761
G1 F1440 X102.020 Y86.446 E57.16419
G1 X102.634 Y86.396 E57.17572
G1 X103.215 Y86.098 E57.19197
G0 F3600 X103.176 Y86.701
G1 F1440 X103.902 Y85.974 E57.21753
G0 F3600 X104.590 Y85.851
G1 F1440 X103.544 Y86.897 E57.25434
G0 F3600 X103.857 Y87.148
G1 F1440 X105.277 Y85.728 E57.30431
G0 F3600 X105.964 Y85.605
G1 F1440 X104.119 Y87.451 E57.36925
G0 F3600 X104.313 Y87.821
G1 F1440 X106.645 Y85.489 E57.45131
G0 F3600 X106.977 Y85.721
G1 F1440 X104.438 Y88.260 E57.54066
G0 F3600 X104.467 Y88.795
G1 F1440 X107.309 Y85.953 E57.64067
G0 F3600 X107.642 Y86.185
G1 F1440 X104.238 Y89.589 E57.76045
G0 F3600 X103.447 Y87.438
G0 X102.004 Y87.076
G0 X100.466 Y86.590
G1 F1440 X94.890 Y92.166 E57.95667
G0 F3600 X93.908 Y92.019
G1 F1440 X99.091 Y86.836 E58.13906
G0 F3600 X99.779 Y86.713
G1 F1440 X93.661 Y92.831 E58.35435
G0 F3600 X95.204 Y90.159
G1 F1440 X98.403 Y86.959 E58.46693
G0 F3600 X97.716 Y87.083
G1 F1440 X96.499 Y88.299 E58.50974
G0 F3600 X88.894 Y98.654
G0 X87.524 Y102.965
G0 X87.644 Y107.486
G0 X89.242 Y111.718
G0 X91.227 Y115.014
G1 F1440 X90.523 Y115.718 E58.53452
G0 F3600 X90.856 Y115.949
G1 F1440 X91.517 Y115.288 E58.55778
G0 F3600 X91.807 Y115.563
G1 F1440 X91.188 Y116.181 E58.57954
G0 F3600 X91.520 Y116.413
G1 F1440 X92.120 Y115.814 E58.60064
G0 F3600 X92.433 Y116.065
G1 F1440 X91.853 Y116.645 E58.62105
G0 F3600 X92.186 Y116.876
G1 F1440 X92.758 Y116.304 E58.64118
G0 F3600 X93.091 Y116.536
G1 F1440 X92.519 Y117.108 E58.66130
G0 F3600 X92.851 Y117.340
G1 F1440 X93.429 Y116.762 E58.68164
G0 F3600 X93.782 Y116.973
G1 F1440 X93.183 Y117.572 E58.70272
G0 F3600 X93.516 Y117.803
G1 F1440 X94.135 Y117.185 E58.72449
G0 F3600 X94.506 Y117.377
G1 F1440 X93.849 Y118.035 E58.74762
G0 F3600 X94.182 Y118.266
G1 F1440 X94.879 Y117.569 E58.77215
G0 F3600 X94.616 Y118.396
G1 F1440 X94.514 Y118.498 E58.77574
;LAYER:2
M117 Nb = 3 / 13
M106 S165
G0 F3600 X95.011 Y117.525 Z0.560
;TYPE:WALL-INNER
G1 F1800 X95.269 Y117.636 E58.78273
G1 X94.561 Y118.652 E58.81354
G1 X90.288 Y115.676 E58.94311
G1 X90.996 Y114.660 E58.97393
G1 X91.880 Y115.496 E59.00420
G1 X92.610 Y116.080 E59.02746
G1 X93.377 Y116.615 E59.05073
G1 X94.179 Y117.097 E59.07401
G1 X95.011 Y117.525 E59.09730
G0 F3600 X98.568 Y118.655
G1 F1800 X99.494 Y118.785 E59.12056
G1 X100.426 Y118.854 E59.14382
G1 X101.284 Y118.860 E59.16517
G1 X98.838 Y119.297 E59.22699
G1 X97.632 Y118.457 E59.26356
G1 X98.568 Y118.655 E59.28737
G0 F3600 X105.930 Y117.964
G1 F1800 X106.794 Y117.605 E59.31065
G1 X107.631 Y117.188 E59.33392
G1 X108.439 Y116.718 E59.35718
G1 X109.214 Y116.193 E59.38047
G1 X109.295 Y116.130 E59.38302
G1 X108.264 Y117.611 E59.42792
G1 X105.530 Y118.100 E59.49703
G1 X105.930 Y117.964 E59.50755
G0 F3600 X111.011 Y114.058
G0 X113.472 Y110.261
G0 X114.430 Y108.757
G1 F1800 X114.685 Y107.750 E59.53339
G1 X114.848 Y106.828 E59.55669
G1 X114.948 Y105.897 E59.57999
G1 X114.985 Y104.962 E59.60327
G1 X114.960 Y104.027 E59.62655
G1 X114.873 Y103.096 E59.64982
G1 X114.724 Y102.174 E59.67305
G1 X114.513 Y101.262 E59.69635
G1 X114.241 Y100.367 E59.71962
G1 X113.911 Y99.492 E59.74289
G1 X113.524 Y98.640 E59.76618
G1 X113.080 Y97.817 E59.78945
G1 X112.581 Y97.025 E59.81274
G1 X112.032 Y96.268 E59.83601
G1 X111.432 Y95.549 E59.85931
G1 X110.786 Y94.874 E59.88256
G1 X110.351 Y94.474 E59.89726
G1 X110.471 Y94.484 E59.90026
G1 X110.993 Y94.444 E59.91328
G1 X111.500 Y94.321 E59.92627
G1 X111.983 Y94.118 E59.93930
G1 X112.426 Y93.840 E59.95232
G1 X112.818 Y93.495 E59.96531
G1 X113.150 Y93.092 E59.97830
G1 X113.415 Y92.640 E59.99134
G1 X113.602 Y92.152 E60.00434
G1 X113.709 Y91.640 E60.01736
G1 X113.733 Y91.117 E60.03039
G1 X113.672 Y90.596 E60.04344
G1 X113.552 Y90.179 E60.05424
G1 X117.300 Y92.789 E60.16788
G1 X118.986 Y102.216 E60.40617
G1 X114.430 Y108.757 E60.60452
G0 F3600 X115.726 Y99.938
G1 F1800 X116.206 Y99.882 E60.61655
G1 X116.658 Y99.712 E60.62856
G1 X117.058 Y99.439 E60.64061
G1 X117.379 Y99.078 E60.65263
G1 X117.604 Y98.653 E60.66460
G1 X117.722 Y98.184 E60.67663
G1 X117.724 Y97.699 E60.68870
G1 X117.610 Y97.230 E60.70071
G1 X117.388 Y96.802 E60.71271
G1 X117.069 Y96.439 E60.72473
G1 X116.672 Y96.162 E60.73678
G1 X116.221 Y95.990 E60.74879
G1 X115.742 Y95.930 E60.76080
G1 X115.264 Y95.986 E60.77277
G1 X114.811 Y96.154 E60.78480
G1 X114.412 Y96.427 E60.79683
G1 X114.089 Y96.788 E60.80888
G1 X113.862 Y97.216 E60.82093
G1 X113.746 Y97.685 E60.83296
G1 X113.744 Y98.166 E60.84492
G1 X113.856 Y98.635 E60.85692
G1 X114.080 Y99.066 E60.86901
G1 X114.399 Y99.428 E60.88102
G1 X114.792 Y99.703 E60.89295
G1 X115.245 Y99.878 E60.90503
G1 X115.726 Y99.938 E60.91710
G0 F3600 X109.838 Y94.544
G0 X104.024 Y89.779
G1 F1800 X104.252 Y89.352 E60.92914
G1 X104.368 Y88.882 E60.94119
G1 X104.370 Y88.402 E60.95313
G1 X104.258 Y87.930 E60.96520
G1 X104.033 Y87.500 E60.97728
G1 X103.715 Y87.138 E60.98927
G1 X103.318 Y86.861 E61.00131
G1 X102.867 Y86.689 E61.01332
G1 X102.389 Y86.629 E61.02531
G1 X101.909 Y86.685 E61.03733
G1 X101.457 Y86.855 E61.04935
G1 X101.060 Y87.126 E61.06131
G1 X100.737 Y87.485 E61.07333
G1 X100.509 Y87.915 E61.08544
G1 X100.393 Y88.384 E61.09746
G1 X100.391 Y88.866 E61.10945
G1 X100.504 Y89.336 E61.12148
G1 X100.727 Y89.765 E61.13351
G1 X101.047 Y90.129 E61.14557
G1 X101.443 Y90.403 E61.15755
G1 X101.892 Y90.577 E61.16954
G1 X102.373 Y90.637 E61.18160
G1 X102.852 Y90.581 E61.19360
G1 X103.304 Y90.411 E61.20561
G1 X103.702 Y90.139 E61.21761
G1 X104.024 Y89.779 E61.22963
G0 F3600 X103.410 Y91.083
G1 F1800 X102.485 Y90.951 E61.25288
G1 X101.551 Y90.882 E61.27618
G1 X100.615 Y90.876 E61.29947
G1 X99.681 Y90.933 E61.32275
G1 X98.754 Y91.051 E61.34601
G1 X97.836 Y91.231 E61.36928
G1 X96.932 Y91.472 E61.39256
G1 X96.047 Y91.773 E61.41582
G1 X95.183 Y92.132 E61.43910
G1 X94.346 Y92.548 E61.46236
G1 X93.537 Y93.020 E61.48567
G1 X92.763 Y93.544 E61.50893
G1 X92.682 Y93.607 E61.51148
G1 X97.237 Y87.067 E61.70979
G1 X106.662 Y85.381 E61.94803
G1 X110.414 Y87.994 E62.06180
G1 X110.237 Y87.994 E62.06621
G1 X109.721 Y88.075 E62.07921
G1 X109.223 Y88.238 E62.09224
G1 X108.758 Y88.480 E62.10529
G1 X108.339 Y88.793 E62.11830
G1 X107.975 Y89.168 E62.13130
G1 X107.676 Y89.597 E62.14432
G1 X107.450 Y90.069 E62.15734
G1 X107.303 Y90.570 E62.17033
G1 X107.237 Y91.088 E62.18332
G1 X107.256 Y91.612 E62.19637
G1 X107.358 Y92.125 E62.20939
G1 X107.492 Y92.483 E62.21890
G1 X106.966 Y92.212 E62.23362
G1 X106.107 Y91.840 E62.25691
G1 X105.225 Y91.528 E62.28019
G1 X104.325 Y91.275 E62.30345
G1 X103.410 Y91.083 E62.32672
G0 F3600 X97.048 Y91.854
G0 X92.997 Y93.867
G0 X89.829 Y97.097
G0 X87.545 Y100.983
G1 F1800 X87.291 Y101.988 E62.35251
G1 X87.129 Y102.908 E62.37576
G1 X87.029 Y103.838 E62.39903
G1 X86.991 Y104.773 E62.42231
G1 X87.002 Y105.191 E62.43272
G1 X86.514 Y102.462 E62.50170
G1 X87.545 Y100.983 E62.54656
G0 F3600 X87.414 Y105.683
G0 X87.764 Y109.448
G1 F1800 X88.065 Y110.246 E62.56778
G1 X88.454 Y111.096 E62.59104
G1 X88.897 Y111.919 E62.61430
G1 X89.395 Y112.711 E62.63758
G1 X88.200 Y111.888 E62.67368
G1 X87.764 Y109.448 E62.73536
G0 F3600 X88.112 Y109.241
G1 F1800 X88.434 Y110.092 E62.75800
G1 X88.811 Y110.918 E62.78059
G1 X89.242 Y111.718 E62.80320
G1 X89.725 Y112.487 E62.82580
G1 X90.260 Y113.223 E62.84844
G1 X90.841 Y113.920 E62.87102
G1 X91.469 Y114.578 E62.89365
G1 X92.140 Y115.192 E62.91628
G1 X92.849 Y115.760 E62.93889
G1 X93.594 Y116.280 E62.96150
G1 X94.373 Y116.749 E62.98412
G1 X95.182 Y117.164 E63.00675
G1 X96.015 Y117.524 E63.02933
G1 X96.872 Y117.828 E63.05195
G1 X97.746 Y118.074 E63.07454
G1 X98.637 Y118.261 E63.09720
G1 X99.536 Y118.388 E63.11979
G1 X100.442 Y118.455 E63.14240
G1 X101.351 Y118.461 E63.16501
G1 X102.258 Y118.407 E63.18762
G1 X103.158 Y118.292 E63.21020
G1 X104.051 Y118.117 E63.23284
G1 X104.928 Y117.883 E63.25543
G1 X105.789 Y117.591 E63.27805
G1 X106.628 Y117.241 E63.30067
G1 X107.442 Y116.837 E63.32328
G1 X108.226 Y116.380 E63.34586
G1 X108.980 Y115.870 E63.36851
G1 X109.696 Y115.312 E63.39110
G1 X110.375 Y114.707 E63.41373
G1 X111.011 Y114.057 E63.43636
G1 X111.602 Y113.368 E63.45895
G1 X112.146 Y112.640 E63.48156
G1 X112.641 Y111.878 E63.50417
G1 X113.083 Y111.082 E63.52682
G1 X113.471 Y110.261 E63.54942
G1 X113.803 Y109.415 E63.57203
G1 X114.078 Y108.549 E63.59464
G1 X114.294 Y107.667 E63.61724
G1 X114.452 Y106.772 E63.63985
G1 X114.550 Y105.868 E63.66248
G1 X114.585 Y104.960 E63.68509
G1 X114.561 Y104.051 E63.70771
G1 X114.477 Y103.146 E63.73033
G1 X114.332 Y102.251 E63.75289
G1 X114.127 Y101.365 E63.77552
G1 X113.863 Y100.495 E63.79814
G1 X113.542 Y99.645 E63.82075
G1 X113.166 Y98.818 E63.84335
G1 X112.735 Y98.019 E63.86594
G1 X112.251 Y97.249 E63.88857
G1 X111.717 Y96.513 E63.91120
G1 X111.134 Y95.815 E63.93383
G1 X110.507 Y95.159 E63.95641
G1 X109.838 Y94.544 E63.97902
G1 X109.128 Y93.976 E64.00165
G1 X108.382 Y93.457 E64.02426
G1 X107.603 Y92.988 E64.04688
G1 X106.796 Y92.573 E64.06946
G1 X105.961 Y92.212 E64.09210
G1 X105.104 Y91.909 E64.11472
G1 X104.230 Y91.663 E64.13731
G1 X103.341 Y91.476 E64.15992
G1 X102.442 Y91.348 E64.18251
G1 X101.535 Y91.281 E64.20514
G1 X100.626 Y91.275 E64.22776
G1 X99.719 Y91.330 E64.25037
G1 X98.818 Y91.445 E64.27297
G1 X97.926 Y91.620 E64.29559
G1 X97.048 Y91.854 E64.31820
G1 X96.188 Y92.146 E64.34080
G1 X95.349 Y92.496 E64.36342
G1 X94.535 Y92.899 E64.38602
G1 X93.749 Y93.358 E64.40867
G1 X92.997 Y93.867 E64.43126
G1 X92.280 Y94.425 E64.45387
G1 X91.602 Y95.030 E64.47648
G1 X90.966 Y95.679 E64.49909
G1 X90.374 Y96.369 E64.52171
G1 X89.830 Y97.097 E64.54433
G1 X89.336 Y97.860 E64.56694
G1 X88.894 Y98.654 E64.58956
G1 X88.506 Y99.476 E64.61217
G1 X88.173 Y100.321 E64.63477
G1 X87.898 Y101.187 E64.65738
G1 X87.681 Y102.070 E64.68001
G1 X87.525 Y102.964 E64.70259
G1 X87.427 Y103.868 E64.72521
G1 X87.391 Y104.776 E64.74783
G1 X87.415 Y105.684 E64.77043
G1 X87.499 Y106.589 E64.79304
G1 X87.645 Y107.486 E64.81566
G1 X87.850 Y108.371 E64.83826
G1 X88.112 Y109.241 E64.86087
G0 F3600 X87.837 Y112.121
G1 F1800 X86.093 Y102.370 E65.10735
G1 X97.004 Y86.704 E65.58239
G1 X106.754 Y84.960 E65.82885
G1 X117.663 Y92.556 E66.15962
G1 X119.407 Y102.308 E66.40612
G1 X108.497 Y117.974 E66.88115
G1 X98.746 Y119.718 E67.12763
G1 X95.755 Y117.635 E67.21833
G1 X94.660 Y119.207 E67.26600
G1 X89.734 Y115.776 E67.41537
G1 X90.827 Y114.204 E67.46301
G1 X87.837 Y112.121 E67.55368
G0 F3600 X87.427 Y103.869
G0 X88.506 Y99.476
G0 X90.966 Y95.678
G0 X94.536 Y92.899
G0 X98.818 Y91.445
G0 X101.631 Y90.048
G1 F1800 X101.991 Y90.187 E67.56329
G1 X102.375 Y90.235 E67.57292
G1 X102.757 Y90.190 E67.58249
G1 X103.119 Y90.054 E67.59211
G1 X103.437 Y89.837 E67.60169
G1 X103.695 Y89.549 E67.61131
G1 X103.877 Y89.208 E67.62093
G1 X103.970 Y88.832 E67.63057
G1 X103.971 Y88.448 E67.64012
G1 X103.881 Y88.071 E67.64977
G1 X103.702 Y87.727 E67.65941
G1 X103.447 Y87.438 E67.66900
G1 X103.130 Y87.217 E67.67862
G1 X102.769 Y87.079 E67.68824
G1 X102.388 Y87.031 E67.69779
G1 X102.004 Y87.076 E67.70741
G1 X101.642 Y87.212 E67.71703
G1 X101.324 Y87.429 E67.72661
G1 X101.066 Y87.716 E67.73622
G1 X100.884 Y88.059 E67.74588
G1 X100.791 Y88.434 E67.75549
G1 X100.790 Y88.819 E67.76507
G1 X100.881 Y89.195 E67.77470
G1 X101.059 Y89.538 E67.78431
G1 X101.314 Y89.829 E67.79394
G1 X101.631 Y90.048 E67.80353
G0 F3600 X107.695 Y90.652
G1 F1800 X107.637 Y91.107 E67.81494
G1 X107.653 Y91.566 E67.82637
G1 X107.743 Y92.016 E67.83779
G1 X107.904 Y92.445 E67.84919
G1 X108.132 Y92.843 E67.86060
G1 X108.421 Y93.200 E67.87203
G1 X108.763 Y93.505 E67.88344
G1 X109.149 Y93.752 E67.89484
G1 X109.571 Y93.933 E67.90626
G1 X110.015 Y94.045 E67.91766
G1 X110.473 Y94.084 E67.92910
G1 X110.930 Y94.049 E67.94050
G1 X111.375 Y93.941 E67.95189
G1 X111.798 Y93.763 E67.96331
G1 X112.187 Y93.519 E67.97474
G1 X112.531 Y93.216 E67.98615
G1 X112.822 Y92.863 E67.99753
G1 X113.054 Y92.467 E68.00895
G1 X113.218 Y92.039 E68.02035
G1 X113.312 Y91.590 E68.03177
G1 X113.333 Y91.131 E68.04320
G1 X113.279 Y90.675 E68.05463
G1 X113.153 Y90.234 E68.06604
G1 X112.958 Y89.820 E68.07743
G1 X112.699 Y89.441 E68.08885
G1 X112.383 Y89.109 E68.10025
G1 X112.018 Y88.831 E68.11167
G1 X111.612 Y88.617 E68.12309
G1 X111.178 Y88.470 E68.13449
G1 X110.726 Y88.394 E68.14590
G1 X110.267 Y88.393 E68.15732
G1 X109.815 Y88.464 E68.16870
G1 X109.378 Y88.607 E68.18014
G1 X108.971 Y88.819 E68.19156
G1 X108.603 Y89.093 E68.20298
G1 X108.284 Y89.422 E68.21438
G1 X108.022 Y89.799 E68.22581
G1 X107.824 Y90.212 E68.23720
G1 X107.695 Y90.652 E68.24861
G0 F3600 X107.904 Y92.445
G0 X109.150 Y93.752
G0 X110.930 Y94.048
G0 X114.677 Y96.729
G1 F1800 X114.419 Y97.018 E68.25825
G1 X114.237 Y97.360 E68.26789
G1 X114.144 Y97.735 E68.27751
G1 X114.143 Y98.119 E68.28706
G1 X114.232 Y98.494 E68.29665
G1 X114.411 Y98.839 E68.30632
G1 X114.667 Y99.128 E68.31593
G1 X114.981 Y99.349 E68.32548
G1 X115.343 Y99.488 E68.33513
G1 X115.728 Y99.536 E68.34479
G1 X116.111 Y99.491 E68.35438
G1 X116.473 Y99.355 E68.36400
G1 X116.792 Y99.137 E68.37362
G1 X117.049 Y98.849 E68.38322
G1 X117.229 Y98.508 E68.39282
G1 X117.324 Y98.133 E68.40244
G1 X117.325 Y97.746 E68.41207
G1 X117.234 Y97.372 E68.42165
G1 X117.056 Y97.029 E68.43127
G1 X116.801 Y96.739 E68.44087
G1 X116.484 Y96.518 E68.45049
G1 X116.123 Y96.380 E68.46011
G1 X115.740 Y96.332 E68.46971
G1 X115.358 Y96.376 E68.47928
G1 X114.996 Y96.511 E68.48889
G1 X114.677 Y96.729 E68.49851
G0 F3600 X114.942 Y97.031
;TYPE:WALL-OUTER
G1 F1680 X114.749 Y97.247 E68.50571
G1 X114.613 Y97.503 E68.51293
G1 X114.543 Y97.784 E68.52013
G1 X114.542 Y98.073 E68.52732
G1 X114.609 Y98.354 E68.53451
G1 X114.743 Y98.611 E68.54172
G1 X114.935 Y98.828 E68.54893
G1 X115.171 Y98.994 E68.55611
G1 X115.441 Y99.098 E68.56331
G1 X115.729 Y99.134 E68.57053
G1 X116.016 Y99.101 E68.57772
G1 X116.287 Y98.999 E68.58493
G1 X116.526 Y98.835 E68.59214
G1 X116.719 Y98.619 E68.59935
G1 X116.854 Y98.364 E68.60653
G1 X116.925 Y98.083 E68.61374
G1 X116.926 Y97.794 E68.62093
G1 X116.858 Y97.513 E68.62812
G1 X116.724 Y97.256 E68.63534
G1 X116.534 Y97.039 E68.64251
G1 X116.296 Y96.873 E68.64973
G1 X116.026 Y96.770 E68.65692
G1 X115.739 Y96.734 E68.66412
G1 X115.452 Y96.767 E68.67131
G1 X115.181 Y96.868 E68.67851
G1 X114.942 Y97.031 E68.68570
G0 F3600 X114.720 Y96.831
G0 X112.642 Y98.058
G0 X112.390 Y98.220
G1 F1680 X111.920 Y97.472 E68.70769
G1 X111.402 Y96.759 E68.72962
G1 X110.836 Y96.081 E68.75159
G1 X110.227 Y95.444 E68.77352
G1 X109.578 Y94.847 E68.79546
G1 X108.889 Y94.295 E68.81743
G1 X108.165 Y93.792 E68.83937
G1 X107.409 Y93.337 E68.86132
G1 X106.625 Y92.934 E68.88326
G1 X105.815 Y92.584 E68.90521
G1 X104.983 Y92.289 E68.92718
G1 X104.134 Y92.051 E68.94912
G1 X103.272 Y91.869 E68.97104
G1 X102.399 Y91.745 E68.99298
G1 X101.519 Y91.680 E69.01494
G1 X100.637 Y91.674 E69.03688
G1 X99.756 Y91.728 E69.05885
G1 X98.881 Y91.839 E69.08079
G1 X98.016 Y92.009 E69.10273
G1 X97.163 Y92.236 E69.12469
G1 X96.329 Y92.520 E69.14661
G1 X95.514 Y92.859 E69.16858
G1 X94.725 Y93.251 E69.19050
G1 X93.962 Y93.695 E69.21247
G1 X93.232 Y94.190 E69.23441
G1 X92.536 Y94.732 E69.25636
G1 X91.878 Y95.319 E69.27830
G1 X91.260 Y95.948 E69.30025
G1 X90.686 Y96.619 E69.32222
G1 X90.158 Y97.325 E69.34415
G1 X89.678 Y98.065 E69.36610
G1 X89.249 Y98.836 E69.38806
G1 X88.872 Y99.634 E69.41002
G1 X88.549 Y100.454 E69.43195
G1 X88.282 Y101.295 E69.45390
G1 X88.072 Y102.152 E69.47586
G1 X87.920 Y103.020 E69.49779
G1 X87.825 Y103.897 E69.51973
G1 X87.790 Y104.779 E69.54170
G1 X87.813 Y105.660 E69.56363
G1 X87.895 Y106.538 E69.58557
G1 X88.037 Y107.409 E69.60753
G1 X88.236 Y108.268 E69.62947
G1 X88.490 Y109.113 E69.65142
G1 X88.802 Y109.939 E69.67340
G1 X89.169 Y110.741 E69.69534
G1 X89.587 Y111.517 E69.71727
G1 X90.056 Y112.264 E69.73922
G1 X90.575 Y112.977 E69.76116
G1 X91.139 Y113.655 E69.78311
G1 X91.749 Y114.293 E69.80507
G1 X92.399 Y114.889 E69.82702
G1 X93.088 Y115.440 E69.84897
G1 X93.812 Y115.945 E69.87093
G1 X94.567 Y116.400 E69.89287
G1 X95.352 Y116.803 E69.91482
G1 X96.161 Y117.152 E69.93675
G1 X96.993 Y117.448 E69.95872
G1 X97.842 Y117.686 E69.98066
G1 X98.706 Y117.868 E70.00263
G1 X99.579 Y117.991 E70.02457
G1 X100.458 Y118.056 E70.04650
G1 X101.340 Y118.062 E70.06845
G1 X102.221 Y118.009 E70.09041
G1 X103.095 Y117.898 E70.11233
G1 X103.961 Y117.728 E70.13429
G1 X104.813 Y117.501 E70.15623
G1 X105.648 Y117.217 E70.17818
G1 X106.463 Y116.878 E70.20014
G1 X107.253 Y116.485 E70.22210
G1 X108.014 Y116.042 E70.24401
G1 X108.745 Y115.547 E70.26597
G1 X109.440 Y115.005 E70.28790
G1 X110.099 Y114.418 E70.30986
G1 X110.717 Y113.788 E70.33182
G1 X111.290 Y113.118 E70.35376
G1 X111.818 Y112.412 E70.37570
G1 X112.299 Y111.672 E70.39766
G1 X112.728 Y110.900 E70.41963
G1 X113.105 Y110.103 E70.44157
G1 X113.427 Y109.281 E70.46354
G1 X113.694 Y108.441 E70.48547
G1 X113.904 Y107.585 E70.50740
G1 X114.057 Y106.716 E70.52936
G1 X114.152 Y105.839 E70.55131
G1 X114.186 Y104.957 E70.57327
G1 X114.163 Y104.075 E70.59522
G1 X114.081 Y103.197 E70.61717
G1 X113.940 Y102.328 E70.63907
G1 X113.741 Y101.468 E70.66104
G1 X113.486 Y100.624 E70.68298
G1 X113.174 Y99.799 E70.70492
G1 X112.808 Y98.995 E70.72690
G1 X112.390 Y98.220 E70.74881
G0 F3600 X112.642 Y98.058
G0 X111.321 Y93.852
G0 X111.250 Y93.561
G1 F1680 X111.613 Y93.408 E70.75862
G1 X111.947 Y93.198 E70.76843
G1 X112.243 Y92.938 E70.77824
G1 X112.494 Y92.634 E70.78805
G1 X112.693 Y92.294 E70.79785
G1 X112.835 Y91.925 E70.80769
G1 X112.915 Y91.540 E70.81747
G1 X112.933 Y91.146 E70.82728
G1 X112.887 Y90.754 E70.83711
G1 X112.778 Y90.375 E70.84692
G1 X112.610 Y90.018 E70.85674
G1 X112.388 Y89.692 E70.86655
G1 X112.116 Y89.407 E70.87635
G1 X111.802 Y89.169 E70.88616
G1 X111.454 Y88.985 E70.89595
G1 X111.081 Y88.858 E70.90576
G1 X110.692 Y88.793 E70.91557
G1 X110.298 Y88.792 E70.92537
G1 X109.908 Y88.853 E70.93520
G1 X109.534 Y88.976 E70.94499
G1 X109.184 Y89.158 E70.95481
G1 X108.867 Y89.394 E70.96464
G1 X108.593 Y89.677 E70.97444
G1 X108.367 Y90.000 E70.98425
G1 X108.198 Y90.356 E70.99406
G1 X108.087 Y90.734 E71.00386
G1 X108.037 Y91.125 E71.01367
G1 X108.051 Y91.519 E71.02348
G1 X108.128 Y91.906 E71.03330
G1 X108.266 Y92.275 E71.04310
G1 X108.462 Y92.617 E71.05291
G1 X108.710 Y92.924 E71.06273
G1 X109.004 Y93.186 E71.07253
G1 X109.337 Y93.398 E71.08235
G1 X109.699 Y93.554 E71.09216
G1 X110.081 Y93.650 E71.10196
G1 X110.474 Y93.684 E71.11178
G1 X110.867 Y93.653 E71.12159
G1 X111.250 Y93.561 E71.13139
G0 F3600 X111.321 Y93.852
G0 X117.747 Y92.465
G0 X118.026 Y92.323
G1 F1680 X119.830 Y102.401 E71.38614
G1 X108.730 Y118.337 E71.86938
G1 X98.653 Y120.141 E72.12411
G1 X95.854 Y118.191 E72.20899
G1 X94.759 Y119.763 E72.25666
G1 X89.178 Y115.875 E72.42591
G1 X90.272 Y114.303 E72.47357
G1 X87.474 Y112.354 E72.55841
G1 X85.670 Y102.277 E72.81314
G1 X96.771 Y86.341 E73.29640
G1 X106.847 Y84.537 E73.55110
G1 X118.026 Y92.323 E73.89009
G0 F3600 X117.747 Y92.465
G0 X111.178 Y88.471
G0 X109.379 Y88.607
G0 X103.861 Y88.857
G0 X103.571 Y88.783
G1 F1680 X103.572 Y88.494 E73.89728
G1 X103.505 Y88.212 E73.90449
G1 X103.370 Y87.955 E73.91171
G1 X103.180 Y87.738 E73.91889
G1 X102.942 Y87.572 E73.92611
G1 X102.672 Y87.469 E73.93330
G1 X102.386 Y87.433 E73.94047
G1 X102.099 Y87.466 E73.94766
G1 X101.828 Y87.568 E73.95487
G1 X101.589 Y87.731 E73.96207
G1 X101.396 Y87.946 E73.96926
G1 X101.260 Y88.202 E73.97647
G1 X101.190 Y88.483 E73.98367
G1 X101.189 Y88.772 E73.99087
G1 X101.257 Y89.054 E73.99808
G1 X101.391 Y89.311 E74.00530
G1 X101.582 Y89.529 E74.01251
G1 X101.819 Y89.693 E74.01968
G1 X102.089 Y89.797 E74.02688
G1 X102.376 Y89.833 E74.03408
G1 X102.662 Y89.800 E74.04124
G1 X102.933 Y89.698 E74.04844
G1 X103.172 Y89.535 E74.05564
G1 X103.365 Y89.319 E74.06285
G1 X103.501 Y89.064 E74.07004
G1 X103.571 Y88.783 E74.07725
G0 F3600 X103.861 Y88.857
G0 X103.437 Y89.836
G0 X94.536 Y92.899
G0 X90.966 Y95.678
G0 X88.506 Y99.476
G0 X86.988 Y103.272
;TYPE:FILL
G1 F1980 X86.711 Y102.994 E74.08701
G0 F3600 X88.204 Y111.343
G1 F1980 X88.787 Y111.927 E74.10755
G0 F3600 X93.595 Y116.280
G0 X96.872 Y117.828
G0 X99.122 Y118.833
G1 F1980 X99.384 Y119.095 E74.11677
G0 F3600 X107.785 Y117.212
G1 F1980 X108.108 Y117.535 E74.12813
G0 F3600 X112.641 Y111.878
G0 X114.924 Y107.871
;TYPE:SKIN
G1 F1980 X114.971 Y107.636 E74.13291
G1 X114.913 Y107.014 E74.14281
G1 X115.387 Y107.206 E74.15553
G0 F3600 X115.619 Y106.874
G1 F1980 X115.008 Y106.263 E74.17704
G0 F3600 X115.053 Y105.743
G1 F1980 X115.850 Y106.541 E74.20510
G0 F3600 X116.082 Y106.208
G1 F1980 X115.074 Y105.200 E74.24057
G0 F3600 X115.075 Y104.636
G1 F1980 X116.314 Y105.876 E74.28419
G0 F3600 X116.546 Y105.543
G1 F1980 X115.059 Y104.057 E74.33650
G0 F3600 X115.003 Y103.436
G1 F1980 X116.777 Y105.211 E74.39894
G0 F3600 X117.009 Y104.878
G1 F1980 X114.924 Y102.793 E74.47231
G0 F3600 X114.813 Y102.118
G1 F1980 X117.241 Y104.545 E74.55773
G0 F3600 X117.473 Y104.213
G1 F1980 X114.643 Y101.383 E74.65732
G0 F3600 X114.411 Y100.587
G1 F1980 X117.704 Y103.881 E74.77322
G0 F3600 X117.936 Y103.548
G1 F1980 X114.100 Y99.711 E74.90822
G0 F3600 X114.745 Y99.792
G1 F1980 X118.168 Y103.215 E75.02867
G0 F3600 X118.400 Y102.883
G1 F1980 X115.531 Y100.014 E75.12963
G0 F3600 X116.079 Y99.998
G1 F1980 X118.631 Y102.550 E75.21944
G0 F3600 X118.863 Y102.217
G1 F1980 X116.517 Y99.871 E75.30199
G0 F3600 X116.886 Y99.676
G1 F1980 X118.767 Y101.557 E75.36818
G0 F3600 X118.644 Y100.870
G1 F1980 X117.200 Y99.426 E75.41900
G0 F3600 X117.465 Y99.127
G1 F1980 X118.520 Y100.182 E75.45612
G0 F3600 X118.397 Y99.495
G1 F1980 X117.660 Y98.758 E75.48206
G0 F3600 X117.789 Y98.322
G1 F1980 X118.212 Y98.464 E75.49911
G1 X117.925 Y97.611 E75.51068
G1 X117.609 Y97.014 E75.52748
G0 F3600 X117.905 Y96.745
G1 F1980 X113.598 Y92.439 E75.67903
G0 F3600 X113.421 Y92.826
G1 F1980 X116.638 Y96.043 E75.79223
G0 F3600 X115.877 Y95.846
G1 F1980 X113.208 Y93.177 E75.88615
G0 F3600 X112.953 Y93.486
G1 F1980 X115.341 Y95.874 E75.97018
G0 F3600 X114.911 Y96.008
G1 F1980 X112.664 Y93.762 E76.04924
G0 F3600 X112.345 Y94.007
G1 F1980 X114.549 Y96.211 E76.12680
G0 F3600 X114.241 Y96.467
G1 F1980 X111.995 Y94.221 E76.20583
G0 F3600 X111.598 Y94.388
G1 F1980 X113.982 Y96.773 E76.28974
G0 F3600 X113.787 Y97.142
G1 F1980 X111.152 Y94.507 E76.38246
G0 F3600 X110.735 Y94.654
G1 F1980 X113.667 Y97.586 E76.48564
G0 F3600 X113.644 Y98.127
G1 F1980 X112.964 Y97.447 E76.50957
G0 F3600 X115.741 Y96.332
G0 X117.782 Y96.058
G1 F1980 X113.732 Y92.008 E76.65209
G0 F3600 X113.812 Y91.524
G1 F1980 X117.659 Y95.371 E76.78746
G0 F3600 X117.535 Y94.683
G1 F1980 X113.815 Y90.963 E76.91837
G0 F3600 X114.097 Y90.680
G1 F1980 X117.412 Y93.996 E77.03504
G0 F3600 X117.289 Y93.309
G1 F1980 X115.957 Y91.976 E77.08193
G0 F3600 X111.612 Y88.617
G0 X109.700 Y87.976
G1 F1980 X108.522 Y86.798 E77.12338
G0 F3600 X109.274 Y88.115
G1 F1980 X106.661 Y85.501 E77.21535
G0 F3600 X106.165 Y85.570
G1 F1980 X108.892 Y88.297 E77.31131
G0 F3600 X108.543 Y88.512
G1 F1980 X105.687 Y85.656 E77.41181
G0 F3600 X105.209 Y85.742
G1 F1980 X108.229 Y88.762 E77.51808
G0 F3600 X107.951 Y89.048
G1 F1980 X104.730 Y85.827 E77.63143
G0 F3600 X104.251 Y85.913
G1 F1980 X107.710 Y89.371 E77.75313
G0 F3600 X107.501 Y89.727
G1 F1980 X103.772 Y85.999 E77.88434
G0 F3600 X103.294 Y86.084
G1 F1980 X107.331 Y90.121 E78.02640
G0 F3600 X107.203 Y90.558
G1 F1980 X104.142 Y87.497 E78.13411
G0 F3600 X103.538 Y86.893
G1 F1980 X102.815 Y86.170 E78.15955
G0 F3600 X102.640 Y86.559
G1 F1980 X102.208 Y86.409 E78.17019
G1 X101.745 Y86.511 E78.17797
G1 X101.318 Y86.648 E78.18686
G1 X100.661 Y86.555 E78.19936
G1 X100.937 Y87.113 E78.21485
G0 F3600 X100.670 Y87.410
G1 F1980 X99.944 Y86.684 E78.24039
G0 F3600 X99.465 Y86.770
G1 F1980 X100.469 Y87.774 E78.27572
G0 F3600 X100.334 Y88.203
G1 F1980 X98.987 Y86.856 E78.32312
G0 F3600 X98.508 Y86.941
G1 F1980 X100.291 Y88.724 E78.38587
G0 F3600 X100.448 Y89.446
G1 F1980 X98.029 Y87.027 E78.47099
G0 F3600 X97.551 Y87.113
G1 F1980 X101.217 Y90.779 E78.60000
G0 F3600 X101.558 Y90.555
G1 F1980 X101.722 Y90.720 E78.60578
G0 F3600 X100.649 Y90.775
G1 F1980 X97.186 Y87.312 E78.72765
G0 F3600 X96.954 Y87.645
G1 F1980 X100.115 Y90.805 E78.83886
G0 F3600 X102.817 Y90.686
G1 F1980 X103.150 Y90.737 E78.84752
G1 X103.746 Y91.051 E78.86428
G0 F3600 X103.593 Y90.333
G1 F1980 X104.472 Y91.213 E78.89523
G0 F3600 X105.257 Y91.433
G1 F1980 X103.895 Y90.071 E78.94316
G0 F3600 X104.146 Y89.758
G1 F1980 X106.131 Y91.742 E79.01299
G0 F3600 X107.159 Y91.643
G1 F1980 X104.455 Y88.939 E79.10814
G0 F3600 X104.343 Y89.391
G1 F1980 X107.142 Y92.190 E79.20664
G0 F3600 X107.140 Y91.059
G1 F1980 X104.467 Y88.386 E79.30070
G0 F3600 X103.118 Y90.054
G0 X101.632 Y90.047
G0 X99.588 Y90.843
G1 F1980 X96.723 Y87.977 E79.40154
G0 F3600 X96.491 Y88.310
G1 F1980 X99.088 Y90.907 E79.49292
G0 F3600 X98.596 Y90.979
G1 F1980 X96.259 Y88.642 E79.57516
G0 F3600 X96.027 Y88.975
G1 F1980 X98.124 Y91.071 E79.64894
G0 F3600 X97.662 Y91.173
G1 F1980 X95.796 Y89.308 E79.71458
G0 F3600 X95.564 Y89.640
G1 F1980 X97.216 Y91.292 E79.77271
G0 F3600 X96.778 Y91.418
G1 F1980 X95.333 Y89.973 E79.82356
G0 F3600 X95.101 Y90.306
G1 F1980 X96.357 Y91.561 E79.86774
G0 F3600 X95.939 Y91.708
G1 F1980 X94.869 Y90.638 E79.90540
G0 F3600 X94.638 Y90.971
G1 F1980 X95.541 Y91.874 E79.93717
G0 F3600 X95.143 Y92.040
G1 F1980 X94.406 Y91.303 E79.96311
G0 F3600 X94.174 Y91.636
G1 F1980 X94.765 Y92.227 E79.98390
G0 F3600 X94.388 Y92.414
G1 F1980 X93.827 Y92.135 E79.99953
G1 X93.848 Y92.720 E80.01063
G1 X93.479 Y92.633 E80.02006
G0 F3600 X89.336 Y97.859
G0 X87.681 Y102.070
G0 X87.499 Y106.589
G0 X88.811 Y110.919
G0 X90.936 Y114.918
G1 F1980 X94.516 Y118.499 E80.14606
G0 F3600 X94.765 Y118.183
G1 F1980 X93.183 Y116.601 E80.20173
G0 F3600 X92.657 Y117.204
G1 F1980 X90.704 Y115.251 E80.27046
G0 F3600 X90.472 Y115.583
G1 F1980 X90.799 Y115.910 E80.28196
G0 F3600 X94.542 Y117.395
G1 F1980 X94.997 Y117.851 E80.29799
;LAYER:3
M117 Nb = 4 / 13
G0 F3600 X95.011 Y117.525 Z0.710
;TYPE:WALL-INNER
G1 F2220 X95.269 Y117.636 E80.30498
G1 X94.561 Y118.652 E80.33579
G1 X90.289 Y115.677 E80.46533
G1 X90.996 Y114.661 E80.49613
G1 X91.880 Y115.496 E80.52639
G1 X92.610 Y116.080 E80.54965
G1 X93.377 Y116.615 E80.57292
G1 X94.179 Y117.097 E80.59620
G1 X95.011 Y117.525 E80.61948
G0 F3600 X98.568 Y118.655
G1 F2220 X99.494 Y118.785 E80.64275
G1 X100.426 Y118.854 E80.66600
G1 X101.284 Y118.860 E80.68735
G1 X98.838 Y119.297 E80.74918
G1 X97.632 Y118.457 E80.78575
G1 X98.568 Y118.655 E80.80956
G0 F3600 X105.930 Y117.964
G1 F2220 X106.794 Y117.605 E80.83284
G1 X107.631 Y117.188 E80.85610
G1 X108.439 Y116.718 E80.87936
G1 X109.214 Y116.193 E80.90266
G1 X109.295 Y116.130 E80.90521
G1 X108.264 Y117.611 E80.95011
G1 X105.530 Y118.100 E81.01922
G1 X105.930 Y117.964 E81.02973
G0 F3600 X111.011 Y114.058
G0 X113.472 Y110.261
G0 X114.430 Y108.757
G1 F2220 X114.685 Y107.750 E81.05558
G1 X114.848 Y106.828 E81.07888
G1 X114.948 Y105.897 E81.10218
G1 X114.985 Y104.962 E81.12546
G1 X114.960 Y104.027 E81.14873
G1 X114.873 Y103.096 E81.17200
G1 X114.724 Y102.174 E81.19524
G1 X114.513 Y101.262 E81.21853
G1 X114.241 Y100.367 E81.24181
G1 X113.911 Y99.492 E81.26508
G1 X113.524 Y98.640 E81.28836
G1 X113.080 Y97.817 E81.31163
G1 X112.581 Y97.025 E81.33492
G1 X112.032 Y96.268 E81.35819
G1 X111.432 Y95.549 E81.38149
G1 X110.786 Y94.874 E81.40474
G1 X110.351 Y94.474 E81.41945
G1 X110.471 Y94.484 E81.42244
G1 X110.993 Y94.444 E81.43547
G1 X111.500 Y94.321 E81.44845
G1 X111.983 Y94.118 E81.46149
G1 X112.426 Y93.840 E81.47450
G1 X112.818 Y93.495 E81.48750
G1 X113.150 Y93.092 E81.50049
G1 X113.415 Y92.640 E81.51353
G1 X113.602 Y92.152 E81.52653
G1 X113.709 Y91.640 E81.53954
G1 X113.733 Y91.117 E81.55257
G1 X113.672 Y90.596 E81.56562
G1 X113.552 Y90.179 E81.57642
G1 X117.300 Y92.789 E81.69007
G1 X118.986 Y102.216 E81.92836
G1 X114.430 Y108.757 E82.12671
G0 F3600 X115.726 Y99.938
G1 F2220 X116.206 Y99.882 E82.13873
G1 X116.658 Y99.712 E82.15075
G1 X117.058 Y99.439 E82.16280
G1 X117.379 Y99.078 E82.17482
G1 X117.604 Y98.653 E82.18678
G1 X117.722 Y98.184 E82.19882
G1 X117.724 Y97.699 E82.21089
G1 X117.610 Y97.230 E82.22289
G1 X117.388 Y96.802 E82.23489
G1 X117.069 Y96.439 E82.24692
G1 X116.672 Y96.162 E82.25896
G1 X116.221 Y95.990 E82.27097
G1 X115.742 Y95.930 E82.28298
G1 X115.264 Y95.986 E82.29496
G1 X114.811 Y96.154 E82.30698
G1 X114.412 Y96.427 E82.31901
G1 X114.089 Y96.788 E82.33107
G1 X113.862 Y97.216 E82.34312
G1 X113.746 Y97.685 E82.35514
G1 X113.744 Y98.166 E82.36711
G1 X113.856 Y98.635 E82.37911
G1 X114.080 Y99.066 E82.39119
G1 X114.399 Y99.428 E82.40320
G1 X114.792 Y99.703 E82.41514
G1 X115.245 Y99.878 E82.42722
G1 X115.726 Y99.938 E82.43928
G0 F3600 X109.838 Y94.544
G0 X104.024 Y89.779
G1 F2220 X104.252 Y89.352 E82.45133
G1 X104.368 Y88.882 E82.46337
G1 X104.370 Y88.402 E82.47532
G1 X104.258 Y87.930 E82.48739
G1 X104.033 Y87.500 E82.49946
G1 X103.715 Y87.138 E82.51145
G1 X103.318 Y86.861 E82.52350
G1 X102.867 Y86.689 E82.53551
G1 X102.389 Y86.629 E82.54749
G1 X101.909 Y86.685 E82.55952
G1 X101.457 Y86.855 E82.57154
G1 X101.060 Y87.126 E82.58350
G1 X100.737 Y87.485 E82.59551
G1 X100.509 Y87.915 E82.60762
G1 X100.393 Y88.384 E82.61964
G1 X100.391 Y88.866 E82.63164
G1 X100.504 Y89.336 E82.64367
G1 X100.727 Y89.765 E82.65570
G1 X101.047 Y90.129 E82.66776
G1 X101.443 Y90.403 E82.67974
G1 X101.892 Y90.577 E82.69172
G1 X102.373 Y90.637 E82.70378
G1 X102.852 Y90.581 E82.71578
G1 X103.304 Y90.411 E82.72780
G1 X103.702 Y90.139 E82.73979
G1 X104.024 Y89.779 E82.75181
G0 F3600 X103.410 Y91.083
G1 F2220 X102.485 Y90.951 E82.77506
G1 X101.551 Y90.882 E82.79837
G1 X100.615 Y90.876 E82.82166
G1 X99.681 Y90.933 E82.84494
G1 X98.754 Y91.051 E82.86819
G1 X97.836 Y91.231 E82.89147
G1 X96.932 Y91.472 E82.91475
G1 X96.047 Y91.773 E82.93801
G1 X95.183 Y92.132 E82.96129
G1 X94.346 Y92.548 E82.98455
G1 X93.537 Y93.020 E83.00785
G1 X92.763 Y93.544 E83.03111
G1 X92.682 Y93.607 E83.03366
G1 X97.237 Y87.067 E83.23198
G1 X106.662 Y85.381 E83.47022
G1 X110.414 Y87.994 E83.58399
G1 X110.237 Y87.994 E83.58839
G1 X109.721 Y88.075 E83.60139
G1 X109.223 Y88.238 E83.61443
G1 X108.758 Y88.480 E83.62747
G1 X108.339 Y88.793 E83.64049
G1 X107.975 Y89.168 E83.65349
G1 X107.676 Y89.597 E83.66650
G1 X107.450 Y90.069 E83.67952
G1 X107.303 Y90.570 E83.69252
G1 X107.237 Y91.088 E83.70551
G1 X107.256 Y91.612 E83.71856
G1 X107.358 Y92.125 E83.73157
G1 X107.492 Y92.483 E83.74108
G1 X106.966 Y92.212 E83.75581
G1 X106.107 Y91.840 E83.77910
G1 X105.225 Y91.528 E83.80238
G1 X104.325 Y91.275 E83.82564
G1 X103.410 Y91.083 E83.84890
G0 F3600 X97.048 Y91.854
G0 X92.997 Y93.867
G0 X89.829 Y97.097
G0 X87.545 Y100.983
G1 F2220 X87.291 Y101.988 E83.87470
G1 X87.129 Y102.908 E83.89794
G1 X87.029 Y103.838 E83.92122
G1 X86.991 Y104.773 E83.94450
G1 X87.002 Y105.191 E83.95490
G1 X86.514 Y102.462 E84.02389
G1 X87.545 Y100.983 E84.06875
G0 F3600 X87.414 Y105.683
G0 X87.764 Y109.448
G1 F2220 X88.065 Y110.246 E84.08997
G1 X88.454 Y111.096 E84.11323
G1 X88.897 Y111.919 E84.13649
G1 X89.395 Y112.711 E84.15977
G1 X88.200 Y111.888 E84.19587
G1 X87.764 Y109.448 E84.25755
G0 F3600 X88.112 Y109.241
G1 F2220 X88.434 Y110.092 E84.28019
G1 X88.811 Y110.918 E84.30278
G1 X89.242 Y111.718 E84.32539
G1 X89.725 Y112.487 E84.34799
G1 X90.260 Y113.223 E84.37063
G1 X90.841 Y113.920 E84.39321
G1 X91.469 Y114.578 E84.41584
G1 X92.140 Y115.192 E84.43847
G1 X92.849 Y115.760 E84.46108
G1 X93.594 Y116.280 E84.48368
G1 X94.373 Y116.749 E84.50631
G1 X95.182 Y117.164 E84.52893
G1 X96.015 Y117.524 E84.55151
G1 X96.872 Y117.828 E84.57414
G1 X97.746 Y118.074 E84.59673
G1 X98.637 Y118.261 E84.61938
G1 X99.536 Y118.388 E84.64198
G1 X100.442 Y118.455 E84.66458
G1 X101.351 Y118.461 E84.68720
G1 X102.258 Y118.407 E84.70981
G1 X103.158 Y118.292 E84.73239
G1 X104.051 Y118.117 E84.75503
G1 X104.928 Y117.883 E84.77761
G1 X105.789 Y117.591 E84.80024
G1 X106.628 Y117.241 E84.82286
G1 X107.442 Y116.837 E84.84547
G1 X108.226 Y116.380 E84.86805
G1 X108.980 Y115.870 E84.89070
G1 X109.696 Y115.312 E84.91329
G1 X110.375 Y114.707 E84.93592
G1 X111.011 Y114.057 E84.95854
G1 X111.602 Y113.368 E84.98113
G1 X112.146 Y112.640 E85.00374
G1 X112.641 Y111.878 E85.02635
G1 X113.083 Y111.082 E85.04901
G1 X113.471 Y110.261 E85.07161
G1 X113.803 Y109.415 E85.09422
G1 X114.078 Y108.549 E85.11683
G1 X114.294 Y107.667 E85.13942
G1 X114.452 Y106.772 E85.16204
G1 X114.550 Y105.868 E85.18466
G1 X114.585 Y104.960 E85.20727
G1 X114.561 Y104.051 E85.22990
G1 X114.477 Y103.146 E85.25252
G1 X114.332 Y102.251 E85.27508
G1 X114.127 Y101.365 E85.29770
G1 X113.863 Y100.495 E85.32033
G1 X113.542 Y99.645 E85.34294
G1 X113.166 Y98.818 E85.36554
G1 X112.735 Y98.019 E85.38813
G1 X112.251 Y97.249 E85.41076
G1 X111.717 Y96.513 E85.43339
G1 X111.134 Y95.815 E85.45602
G1 X110.507 Y95.159 E85.47860
G1 X109.838 Y94.544 E85.50121
G1 X109.128 Y93.976 E85.52383
G1 X108.382 Y93.457 E85.54644
G1 X107.603 Y92.988 E85.56907
G1 X106.796 Y92.573 E85.59165
G1 X105.961 Y92.212 E85.61429
G1 X105.104 Y91.909 E85.63690
G1 X104.230 Y91.663 E85.65950
G1 X103.341 Y91.476 E85.68210
G1 X102.442 Y91.348 E85.70470
G1 X101.535 Y91.281 E85.72733
G1 X100.626 Y91.275 E85.74995
G1 X99.719 Y91.330 E85.77256
G1 X98.818 Y91.445 E85.79516
G1 X97.926 Y91.620 E85.81778
G1 X97.048 Y91.854 E85.84039
G1 X96.188 Y92.146 E85.86298
G1 X95.349 Y92.496 E85.88560
G1 X94.535 Y92.899 E85.90821
G1 X93.749 Y93.358 E85.93085
G1 X92.997 Y93.867 E85.95345
G1 X92.280 Y94.425 E85.97606
G1 X91.602 Y95.030 E85.99867
G1 X90.966 Y95.679 E86.02128
G1 X90.374 Y96.369 E86.04390
G1 X89.830 Y97.097 E86.06651
G1 X89.336 Y97.860 E86.08913
G1 X88.894 Y98.654 E86.11174
G1 X88.506 Y99.476 E86.13436
G1 X88.173 Y100.321 E86.15696
G1 X87.898 Y101.187 E86.17957
G1 X87.681 Y102.070 E86.20219
G1 X87.525 Y102.964 E86.22477
G1 X87.427 Y103.868 E86.24740
G1 X87.391 Y104.776 E86.27001
G1 X87.415 Y105.684 E86.29261
G1 X87.499 Y106.589 E86.31523
G1 X87.645 Y107.486 E86.33784
G1 X87.850 Y108.371 E86.36045
G1 X88.112 Y109.241 E86.38306
G0 F3600 X87.837 Y112.121
G1 F2220 X86.093 Y102.370 E86.62954
G1 X97.004 Y86.704 E87.10458
G1 X106.754 Y84.960 E87.35104
G1 X117.663 Y92.556 E87.68180
G1 X119.407 Y102.308 E87.92831
G1 X108.497 Y117.974 E88.40334
G1 X98.746 Y119.718 E88.64982
G1 X95.755 Y117.636 E88.74050
G1 X94.660 Y119.207 E88.78815
G1 X89.734 Y115.776 E88.93752
G1 X90.827 Y114.204 E88.98516
G1 X87.837 Y112.121 E89.07584
G0 F3600 X87.427 Y103.869
G0 X88.506 Y99.476
G0 X90.966 Y95.678
G0 X94.536 Y92.899
G0 X98.818 Y91.445
G0 X101.631 Y90.048
G1 F2220 X101.991 Y90.187 E89.08544
G1 X102.375 Y90.235 E89.09507
G1 X102.757 Y90.190 E89.10464
G1 X103.119 Y90.054 E89.11426
G1 X103.437 Y89.837 E89.12384
G1 X103.695 Y89.549 E89.13346
G1 X103.877 Y89.208 E89.14308
G1 X103.970 Y88.832 E89.15272
G1 X103.971 Y88.448 E89.16227
G1 X103.881 Y88.071 E89.17192
G1 X103.702 Y87.727 E89.18157
G1 X103.447 Y87.438 E89.19116
G1 X103.130 Y87.217 E89.20077
G1 X102.769 Y87.079 E89.21039
G1 X102.388 Y87.031 E89.21994
G1 X102.004 Y87.076 E89.22956
G1 X101.642 Y87.212 E89.23919
G1 X101.324 Y87.429 E89.24877
G1 X101.066 Y87.716 E89.25837
G1 X100.884 Y88.059 E89.26803
G1 X100.791 Y88.434 E89.27764
G1 X100.790 Y88.819 E89.28722
G1 X100.881 Y89.195 E89.29685
G1 X101.059 Y89.538 E89.30646
G1 X101.314 Y89.829 E89.31609
G1 X101.631 Y90.048 E89.32568
G0 F3600 X107.695 Y90.652
G1 F2220 X107.637 Y91.107 E89.33709
G1 X107.653 Y91.566 E89.34852
G1 X107.743 Y92.016 E89.35994
G1 X107.904 Y92.445 E89.37134
G1 X108.132 Y92.843 E89.38275
G1 X108.421 Y93.200 E89.39418
G1 X108.763 Y93.505 E89.40559
G1 X109.149 Y93.752 E89.41699
G1 X109.571 Y93.933 E89.42841
G1 X110.015 Y94.045 E89.43981
G1 X110.473 Y94.084 E89.45125
G1 X110.930 Y94.049 E89.46265
G1 X111.375 Y93.941 E89.47405
G1 X111.798 Y93.763 E89.48546
G1 X112.187 Y93.519 E89.49689
G1 X112.531 Y93.216 E89.50830
G1 X112.822 Y92.863 E89.51968
G1 X113.054 Y92.467 E89.53110
G1 X113.218 Y92.039 E89.54251
G1 X113.312 Y91.590 E89.55392
G1 X113.333 Y91.131 E89.56535
G1 X113.279 Y90.675 E89.57678
G1 X113.153 Y90.234 E89.58819
G1 X112.958 Y89.820 E89.59958
G1 X112.699 Y89.441 E89.61100
G1 X112.383 Y89.109 E89.62241
G1 X112.018 Y88.831 E89.63382
G1 X111.612 Y88.617 E89.64524
G1 X111.178 Y88.470 E89.65664
G1 X110.726 Y88.394 E89.66805
G1 X110.267 Y88.393 E89.67947
G1 X109.815 Y88.464 E89.69085
G1 X109.378 Y88.607 E89.70230
G1 X108.971 Y88.819 E89.71371
G1 X108.603 Y89.093 E89.72513
G1 X108.284 Y89.422 E89.73653
G1 X108.022 Y89.799 E89.74796
G1 X107.824 Y90.212 E89.75935
G1 X107.695 Y90.652 E89.77076
G0 F3600 X107.904 Y92.445
G0 X109.150 Y93.752
G0 X110.930 Y94.048
G0 X114.677 Y96.729
G1 F2220 X114.419 Y97.018 E89.78040
G1 X114.237 Y97.360 E89.79004
G1 X114.144 Y97.735 E89.79966
G1 X114.143 Y98.119 E89.80921
G1 X114.232 Y98.494 E89.81880
G1 X114.411 Y98.839 E89.82847
G1 X114.667 Y99.128 E89.83808
G1 X114.981 Y99.349 E89.84763
G1 X115.343 Y99.488 E89.85728
G1 X115.728 Y99.536 E89.86694
G1 X116.111 Y99.491 E89.87653
G1 X116.473 Y99.355 E89.88615
G1 X116.792 Y99.137 E89.89577
G1 X117.049 Y98.849 E89.90537
G1 X117.229 Y98.508 E89.91497
G1 X117.324 Y98.133 E89.92459
G1 X117.325 Y97.746 E89.93422
G1 X117.234 Y97.372 E89.94380
G1 X117.056 Y97.029 E89.95342
G1 X116.801 Y96.739 E89.96303
G1 X116.484 Y96.518 E89.97264
G1 X116.123 Y96.380 E89.98226
G1 X115.740 Y96.332 E89.99186
G1 X115.358 Y96.376 E90.00143
G1 X114.996 Y96.511 E90.01104
G1 X114.677 Y96.729 E90.02066
G0 F3600 X114.942 Y97.031
;TYPE:WALL-OUTER
G1 F2040 X114.749 Y97.247 E90.02787
G1 X114.613 Y97.503 E90.03508
G1 X114.543 Y97.784 E90.04228
G1 X114.542 Y98.073 E90.04948
G1 X114.609 Y98.354 E90.05666
G1 X114.743 Y98.611 E90.06388
G1 X114.935 Y98.828 E90.07109
G1 X115.171 Y98.994 E90.07826
G1 X115.441 Y99.098 E90.08546
G1 X115.729 Y99.134 E90.09269
G1 X116.016 Y99.101 E90.09987
G1 X116.287 Y98.999 E90.10708
G1 X116.526 Y98.835 E90.11429
G1 X116.719 Y98.619 E90.12150
G1 X116.854 Y98.364 E90.12868
G1 X116.925 Y98.083 E90.13589
G1 X116.926 Y97.794 E90.14308
G1 X116.858 Y97.513 E90.15028
G1 X116.724 Y97.256 E90.15749
G1 X116.534 Y97.039 E90.16466
G1 X116.296 Y96.873 E90.17188
G1 X116.026 Y96.770 E90.17908
G1 X115.739 Y96.734 E90.18627
G1 X115.452 Y96.767 E90.19346
G1 X115.181 Y96.868 E90.20066
G1 X114.942 Y97.031 E90.20786
G0 F3600 X114.720 Y96.831
G0 X112.642 Y98.058
G0 X112.390 Y98.220
G1 F2040 X111.920 Y97.472 E90.22984
G1 X111.402 Y96.759 E90.25177
G1 X110.836 Y96.081 E90.27374
G1 X110.227 Y95.444 E90.29567
G1 X109.578 Y94.847 E90.31761
G1 X108.889 Y94.295 E90.33958
G1 X108.165 Y93.792 E90.36152
G1 X107.409 Y93.337 E90.38347
G1 X106.625 Y92.934 E90.40541
G1 X105.815 Y92.584 E90.42736
G1 X104.983 Y92.289 E90.44933
G1 X104.134 Y92.051 E90.47127
G1 X103.272 Y91.869 E90.49319
G1 X102.399 Y91.745 E90.51513
G1 X101.519 Y91.680 E90.53709
G1 X100.637 Y91.674 E90.55903
G1 X99.756 Y91.728 E90.58100
G1 X98.881 Y91.839 E90.60294
G1 X98.016 Y92.009 E90.62488
G1 X97.163 Y92.236 E90.64684
G1 X96.329 Y92.520 E90.66877
G1 X95.514 Y92.859 E90.69073
G1 X94.725 Y93.251 E90.71265
G1 X93.962 Y93.695 E90.73462
G1 X93.232 Y94.190 E90.75656
G1 X92.536 Y94.732 E90.77851
G1 X91.878 Y95.319 E90.80046
G1 X91.260 Y95.948 E90.82240
G1 X90.686 Y96.619 E90.84437
G1 X90.158 Y97.325 E90.86631
G1 X89.678 Y98.065 E90.88825
G1 X89.249 Y98.836 E90.91021
G1 X88.872 Y99.634 E90.93217
G1 X88.549 Y100.454 E90.95410
G1 X88.282 Y101.295 E90.97605
G1 X88.072 Y102.152 E90.99801
G1 X87.920 Y103.020 E91.01994
G1 X87.825 Y103.897 E91.04189
G1 X87.790 Y104.779 E91.06385
G1 X87.813 Y105.660 E91.08578
G1 X87.895 Y106.538 E91.10772
G1 X88.037 Y107.409 E91.12968
G1 X88.236 Y108.268 E91.15162
G1 X88.490 Y109.113 E91.17358
G1 X88.802 Y109.939 E91.19555
G1 X89.169 Y110.741 E91.21749
G1 X89.587 Y111.517 E91.23942
G1 X90.056 Y112.264 E91.26137
G1 X90.575 Y112.977 E91.28332
G1 X91.139 Y113.655 E91.30526
G1 X91.749 Y114.293 E91.32722
G1 X92.399 Y114.889 E91.34917
G1 X93.088 Y115.440 E91.37112
G1 X93.812 Y115.945 E91.39308
G1 X94.567 Y116.400 E91.41502
G1 X95.352 Y116.803 E91.43698
G1 X96.161 Y117.152 E91.45890
G1 X96.993 Y117.448 E91.48087
G1 X97.842 Y117.686 E91.50281
G1 X98.706 Y117.868 E91.52478
G1 X99.579 Y117.991 E91.54672
G1 X100.458 Y118.056 E91.56865
G1 X101.340 Y118.062 E91.59060
G1 X102.221 Y118.009 E91.61256
G1 X103.095 Y117.898 E91.63448
G1 X103.961 Y117.728 E91.65644
G1 X104.813 Y117.501 E91.67838
G1 X105.648 Y117.217 E91.70033
G1 X106.463 Y116.878 E91.72229
G1 X107.253 Y116.485 E91.74425
G1 X108.014 Y116.042 E91.76616
G1 X108.745 Y115.547 E91.78812
G1 X109.440 Y115.005 E91.81005
G1 X110.099 Y114.418 E91.83201
G1 X110.717 Y113.788 E91.85397
G1 X111.290 Y113.118 E91.87591
G1 X111.818 Y112.412 E91.89785
G1 X112.299 Y111.672 E91.91981
G1 X112.728 Y110.900 E91.94178
G1 X113.105 Y110.103 E91.96372
G1 X113.427 Y109.281 E91.98569
G1 X113.694 Y108.441 E92.00762
G1 X113.904 Y107.585 E92.02955
G1 X114.057 Y106.716 E92.05151
G1 X114.152 Y105.839 E92.07346
G1 X114.186 Y104.957 E92.09542
G1 X114.163 Y104.075 E92.11738
G1 X114.081 Y103.197 E92.13932
G1 X113.940 Y102.328 E92.16122
G1 X113.741 Y101.468 E92.18319
G1 X113.486 Y100.624 E92.20513
G1 X113.174 Y99.799 E92.22707
G1 X112.808 Y98.995 E92.24905
G1 X112.390 Y98.220 E92.27096
G0 F3600 X112.642 Y98.058
G0 X111.321 Y93.852
G0 X111.250 Y93.561
G1 F2040 X111.613 Y93.408 E92.28077
G1 X111.947 Y93.198 E92.29058
G1 X112.243 Y92.938 E92.30039
G1 X112.494 Y92.634 E92.31020
G1 X112.693 Y92.294 E92.32000
G1 X112.835 Y91.925 E92.32984
G1 X112.915 Y91.540 E92.33962
G1 X112.933 Y91.146 E92.34944
G1 X112.887 Y90.754 E92.35926
G1 X112.778 Y90.375 E92.36907
G1 X112.610 Y90.018 E92.37889
G1 X112.388 Y89.692 E92.38870
G1 X112.116 Y89.407 E92.39850
G1 X111.802 Y89.169 E92.40831
G1 X111.454 Y88.985 E92.41810
G1 X111.081 Y88.858 E92.42791
G1 X110.692 Y88.793 E92.43772
G1 X110.298 Y88.792 E92.44753
G1 X109.908 Y88.853 E92.45735
G1 X109.534 Y88.976 E92.46714
G1 X109.184 Y89.158 E92.47696
G1 X108.867 Y89.394 E92.48679
G1 X108.593 Y89.677 E92.49660
G1 X108.367 Y90.000 E92.50640
G1 X108.198 Y90.356 E92.51621
G1 X108.087 Y90.734 E92.52601
G1 X108.037 Y91.125 E92.53582
G1 X108.051 Y91.519 E92.54563
G1 X108.128 Y91.906 E92.55545
G1 X108.266 Y92.275 E92.56525
G1 X108.462 Y92.617 E92.57506
G1 X108.710 Y92.924 E92.58488
G1 X109.004 Y93.186 E92.59468
G1 X109.337 Y93.398 E92.60450
G1 X109.699 Y93.554 E92.61431
G1 X110.081 Y93.650 E92.62411
G1 X110.474 Y93.684 E92.63393
G1 X110.867 Y93.653 E92.64374
G1 X111.250 Y93.561 E92.65354
G0 F3600 X111.321 Y93.852
G0 X117.747 Y92.465
G0 X118.026 Y92.323
G1 F2040 X119.830 Y102.401 E92.90829
G1 X108.730 Y118.337 E93.39153
G1 X98.653 Y120.141 E93.64626
G1 X95.854 Y118.191 E93.73115
G1 X94.759 Y119.763 E93.77882
G1 X89.178 Y115.875 E93.94806
G1 X90.272 Y114.303 E93.99572
G1 X87.474 Y112.354 E94.08057
G1 X85.670 Y102.277 E94.33529
G1 X96.771 Y86.341 E94.81855
G1 X106.847 Y84.537 E95.07326
G1 X118.026 Y92.323 E95.41224
G0 F3600 X117.747 Y92.465
G0 X111.178 Y88.471
G0 X109.379 Y88.607
G0 X103.861 Y88.857
G0 X103.571 Y88.783
G1 F2040 X103.572 Y88.494 E95.41943
G1 X103.505 Y88.212 E95.42664
G1 X103.370 Y87.955 E95.43387
G1 X103.180 Y87.738 E95.44104
G1 X102.942 Y87.572 E95.44826
G1 X102.672 Y87.469 E95.45545
G1 X102.386 Y87.433 E95.46263
G1 X102.099 Y87.466 E95.46981
G1 X101.828 Y87.568 E95.47702
G1 X101.589 Y87.731 E95.48422
G1 X101.396 Y87.946 E95.49141
G1 X101.260 Y88.202 E95.49862
G1 X101.190 Y88.483 E95.50583
G1 X101.189 Y88.772 E95.51302
G1 X101.257 Y89.054 E95.52023
G1 X101.391 Y89.311 E95.52745
G1 X101.582 Y89.529 E95.53466
G1 X101.819 Y89.693 E95.54183
G1 X102.089 Y89.797 E95.54903
G1 X102.376 Y89.833 E95.55623
G1 X102.662 Y89.800 E95.56339
G1 X102.933 Y89.698 E95.57060
G1 X103.172 Y89.535 E95.57779
G1 X103.365 Y89.319 E95.58500
G1 X103.501 Y89.064 E95.59219
G1 X103.571 Y88.783 E95.59940
G0 F3600 X103.861 Y88.857
G0 X103.437 Y89.836
G0 X94.536 Y92.899
G0 X90.966 Y95.678
G0 X88.506 Y99.476
G0 X87.141 Y102.258
;TYPE:FILL
G1 F2460 X86.665 Y102.734 E95.61615
G0 F3600 X88.426 Y111.257
G1 F2460 X88.225 Y111.458 E95.62322
G0 F3600 X93.595 Y116.280
G0 X96.872 Y117.828
G0 X99.453 Y119.084
G1 F2460 X99.566 Y118.972 E95.62718
G0 F3600 X107.803 Y117.591
G1 F2460 X108.571 Y116.823 E95.65421
G0 F3600 X112.641 Y111.878
G0 X114.786 Y107.819
;TYPE:SKIN
G1 F2460 X115.359 Y107.246 E95.67437
G0 F3600 X114.892 Y107.148
G1 F2460 X116.655 Y105.385 E95.73641
G0 F3600 X115.072 Y105.276
G1 F2460 X118.769 Y101.578 E95.86652
G0 F3600 X118.684 Y101.100
G1 F2460 X115.078 Y104.706 E95.99342
G0 F3600 X115.063 Y104.156
G1 F2460 X118.598 Y100.621 E96.11781
G0 F3600 X118.513 Y100.142
G1 F2460 X115.022 Y103.632 E96.24064
G0 F3600 X114.974 Y103.116
G1 F2460 X118.426 Y99.664 E96.36211
G0 F3600 X118.341 Y99.185
G1 F2460 X114.898 Y102.628 E96.48327
G0 F3600 X114.819 Y102.142
G1 F2460 X118.255 Y98.707 E96.60416
G0 F3600 X118.170 Y98.228
G1 F2460 X117.752 Y98.363 E96.62129
G1 X117.930 Y97.621 E96.63052
G1 X117.817 Y97.169 E96.63830
G1 X117.674 Y96.748 E96.64795
G1 X117.827 Y96.314 E96.65940
G0 F3600 X117.741 Y95.835
G1 F2460 X117.172 Y96.404 E96.67943
G0 F3600 X116.847 Y96.165
G1 F2460 X117.656 Y95.356 E96.70790
G0 F3600 X117.570 Y94.878
G1 F2460 X116.469 Y95.979 E96.74664
G0 F3600 X116.019 Y95.864
G1 F2460 X117.484 Y94.400 E96.79817
G0 F3600 X117.398 Y93.921
G1 F2460 X115.458 Y95.861 E96.86644
G0 F3600 X114.532 Y96.223
G1 F2460 X117.313 Y93.442 E96.96430
G0 F3600 X117.227 Y92.964
G1 F2460 X112.879 Y97.312 E97.11731
G0 F3600 X113.098 Y97.657
G1 F2460 X113.981 Y96.774 E97.14838
G0 F3600 X113.644 Y97.675
G1 F2460 X113.478 Y98.123 E97.16045
G1 X113.499 Y98.385 E97.16699
G0 F3600 X114.210 Y99.366
G1 F2460 X114.113 Y99.745 E97.17311
G1 X114.689 Y99.734 E97.18439
G1 X114.344 Y100.361 E97.20220
G0 F3600 X114.474 Y100.795
G1 F2460 X115.286 Y99.983 E97.23077
G0 F3600 X116.533 Y99.865
G1 F2460 X114.713 Y101.684 E97.29480
G0 F3600 X114.606 Y101.227
G1 F2460 X115.804 Y100.029 E97.33696
G0 F3600 X118.855 Y102.057
G1 F2460 X115.049 Y105.863 E97.47089
G0 F3600 X114.984 Y106.492
G1 F2460 X117.951 Y103.526 E97.57528
G0 F3600 X112.661 Y96.966
G1 F2460 X116.956 Y92.671 E97.72642
G0 F3600 X116.623 Y92.440
G1 F2460 X112.424 Y96.638 E97.87416
G0 F3600 X112.186 Y96.312
G1 F2460 X116.290 Y92.208 E98.01858
G0 F3600 X115.958 Y91.976
G1 F2460 X111.937 Y95.997 E98.16008
G0 F3600 X111.679 Y95.690
G1 F2460 X115.625 Y91.744 E98.29893
G0 F3600 X115.293 Y91.513
G1 F2460 X111.416 Y95.389 E98.43534
G0 F3600 X111.140 Y95.100
G1 F2460 X112.047 Y94.194 E98.46724
G0 F3600 X111.175 Y94.501
G1 F2460 X110.865 Y94.812 E98.47817
G0 F3600 X113.429 Y92.812
G1 F2460 X114.960 Y91.281 E98.53205
G0 F3600 X114.627 Y91.049
G1 F2460 X113.750 Y91.927 E98.56292
G0 F3600 X113.825 Y91.288
G1 F2460 X114.128 Y90.701 E98.57949
G1 X113.791 Y90.757 E98.58799
G0 F3600 X111.612 Y88.617
G0 X109.970 Y87.807
G1 F2460 X109.818 Y87.959 E98.59333
G0 F3600 X109.638 Y87.575
G1 F2460 X108.941 Y88.272 E98.61786
G0 F3600 X109.305 Y87.343
G1 F2460 X105.224 Y91.424 E98.76147
G0 F3600 X105.643 Y91.570
G1 F2460 X107.514 Y89.698 E98.82733
G0 F3600 X107.200 Y90.576
G1 F2460 X106.059 Y91.718 E98.86750
G0 F3600 X106.457 Y91.884
G1 F2460 X107.140 Y91.201 E98.89153
G0 F3600 X107.176 Y91.730
G1 F2460 X106.852 Y92.053 E98.90291
G0 F3600 X104.784 Y91.300
G1 F2460 X108.972 Y87.112 E99.05029
G0 F3600 X108.640 Y86.880
G1 F2460 X104.342 Y91.177 E99.20151
G0 F3600 X103.876 Y91.079
G1 F2460 X108.308 Y86.648 E99.35746
G0 F3600 X107.975 Y86.416
G1 F2460 X103.410 Y90.982 E99.51811
G0 F3600 X103.315 Y90.512
G1 F2460 X102.915 Y90.912 E99.53219
G0 F3600 X101.573 Y90.561
G1 F2460 X101.280 Y90.571 E99.53992
G1 X100.793 Y90.776 E99.55307
G0 F3600 X100.205 Y90.800
G1 F2460 X100.896 Y90.110 E99.57737
G0 F3600 X100.635 Y89.806
G1 F2460 X99.598 Y90.843 E99.61386
G0 F3600 X98.953 Y90.924
G1 F2460 X100.442 Y89.435 E99.66626
G0 F3600 X100.317 Y88.995
G1 F2460 X98.269 Y91.044 E99.73834
G0 F3600 X97.543 Y91.206
G1 F2460 X100.291 Y88.457 E99.83506
G0 F3600 X100.535 Y87.650
G1 F2460 X96.759 Y91.425 E99.96792
G0 F3600 X95.891 Y91.729
G1 F2460 X101.153 Y86.467 E100.15309
G0 F3600 X101.423 Y86.761
G1 F2460 X102.020 Y86.446 E100.16774
G1 X102.634 Y86.396 E100.17926
G1 X103.215 Y86.098 E100.19551
G0 F3600 X103.176 Y86.701
G1 F2460 X103.902 Y85.974 E100.22108
G0 F3600 X104.590 Y85.851
G1 F2460 X103.544 Y86.897 E100.25788
G0 F3600 X103.857 Y87.148
G1 F2460 X105.277 Y85.728 E100.30785
G0 F3600 X105.964 Y85.605
G1 F2460 X104.119 Y87.451 E100.37280
G0 F3600 X104.313 Y87.821
G1 F2460 X106.645 Y85.489 E100.45486
G0 F3600 X106.977 Y85.721
G1 F2460 X104.438 Y88.260 E100.54420
G0 F3600 X104.467 Y88.795
G1 F2460 X107.310 Y85.953 E100.64423
G0 F3600 X107.642 Y86.185
G1 F2460 X104.238 Y89.589 E100.76401
G0 F3600 X103.447 Y87.438
G0 X102.004 Y87.076
G0 X100.466 Y86.590
G1 F2460 X94.890 Y92.166 E100.96023
G0 F3600 X93.908 Y92.019
G1 F2460 X99.091 Y86.836 E101.14262
G0 F3600 X99.779 Y86.713
G1 F2460 X93.661 Y92.831 E101.35791
G0 F3600 X95.204 Y90.159
G1 F2460 X98.403 Y86.959 E101.47050
G0 F3600 X97.716 Y87.083
G1 F2460 X96.499 Y88.299 E101.51330
G0 F3600 X88.894 Y98.654
G0 X87.524 Y102.965
G0 X87.644 Y107.486
G0 X89.242 Y111.718
G0 X91.225 Y115.015
G1 F2460 X90.523 Y115.718 E101.53803
G0 F3600 X90.855 Y115.950
G1 F2460 X91.516 Y115.289 E101.56129
G0 F3600 X91.807 Y115.563
G1 F2460 X91.188 Y116.181 E101.58305
G0 F3600 X91.520 Y116.413
G1 F2460 X92.120 Y115.814 E101.60415
G0 F3600 X92.433 Y116.065
G1 F2460 X91.853 Y116.645 E101.62456
G0 F3600 X92.186 Y116.876
G1 F2460 X92.758 Y116.304 E101.64468
G0 F3600 X93.091 Y116.536
G1 F2460 X92.519 Y117.108 E101.66481
G0 F3600 X92.851 Y117.340
G1 F2460 X93.429 Y116.762 E101.68515
G0 F3600 X93.782 Y116.973
G1 F2460 X93.183 Y117.572 E101.70623
G0 F3600 X93.516 Y117.803
G1 F2460 X94.135 Y117.185 E101.72800
G0 F3600 X94.506 Y117.377
G1 F2460 X93.849 Y118.035 E101.75113
G0 F3600 X94.182 Y118.266
G1 F2460 X94.879 Y117.569 E101.77566
G0 F3600 X94.616 Y118.396
G1 F2460 X94.514 Y118.498 E101.77925
;LAYER:4
M117 Nb = 5 / 13
G0 F3600 X95.011 Y117.525 Z0.860
;TYPE:WALL-INNER
G1 F2700 X95.269 Y117.636 E101.78624
G1 X94.561 Y118.652 E101.81705
G1 X90.289 Y115.676 E101.94660
G1 X90.996 Y114.660 E101.97740
G1 X91.880 Y115.496 E102.00768
G1 X92.610 Y116.080 E102.03094
G1 X93.377 Y116.615 E102.05421
G1 X94.179 Y117.097 E102.07749
G1 X95.011 Y117.525 E102.10077
G0 F3600 X98.568 Y118.655
G1 F2700 X99.494 Y118.785 E102.12404
G1 X100.426 Y118.854 E102.14729
G1 X101.285 Y118.860 E102.16867
G1 X98.839 Y119.297 E102.23049
G1 X97.632 Y118.457 E102.26708
G1 X98.568 Y118.655 E102.29089
G0 F3600 X105.930 Y117.964
G1 F2700 X106.794 Y117.605 E102.31417
G1 X107.631 Y117.188 E102.33744
G1 X108.439 Y116.718 E102.36070
G1 X109.214 Y116.193 E102.38399
G1 X109.295 Y116.130 E102.38654
G1 X108.263 Y117.611 E102.43146
G1 X105.529 Y118.100 E102.50057
G1 X105.930 Y117.964 E102.51110
G0 F3600 X111.011 Y114.058
G0 X113.472 Y110.261
G0 X114.430 Y108.757
G1 F2700 X114.685 Y107.750 E102.53695
G1 X114.848 Y106.828 E102.56025
G1 X114.948 Y105.897 E102.58355
G1 X114.985 Y104.962 E102.60683
G1 X114.960 Y104.027 E102.63011
G1 X114.873 Y103.096 E102.65337
G1 X114.724 Y102.174 E102.67661
G1 X114.513 Y101.262 E102.69991
G1 X114.241 Y100.367 E102.72318
G1 X113.911 Y99.492 E102.74645
G1 X113.524 Y98.640 E102.76974
G1 X113.080 Y97.817 E102.79300
G1 X112.581 Y97.025 E102.81630
G1 X112.032 Y96.268 E102.83956
G1 X111.432 Y95.549 E102.86287
G1 X110.786 Y94.874 E102.88611
G1 X110.351 Y94.474 E102.90082
G1 X110.471 Y94.484 E102.90382
G1 X110.993 Y94.444 E102.91684
G1 X111.500 Y94.321 E102.92982
G1 X111.983 Y94.118 E102.94286
G1 X112.426 Y93.840 E102.95587
G1 X112.818 Y93.495 E102.96887
G1 X113.150 Y93.092 E102.98186
G1 X113.415 Y92.640 E102.99490
G1 X113.602 Y92.152 E103.00790
G1 X113.709 Y91.640 E103.02092
G1 X113.733 Y91.117 E103.03394
G1 X113.672 Y90.596 E103.04700
G1 X113.552 Y90.179 E103.05779
G1 X117.300 Y92.790 E103.17145
G1 X118.986 Y102.215 E103.40970
G1 X114.430 Y108.757 E103.60806
G0 F3600 X115.726 Y99.938
G1 F2700 X116.206 Y99.882 E103.62009
G1 X116.658 Y99.712 E103.63210
G1 X117.058 Y99.439 E103.64416
G1 X117.379 Y99.078 E103.65618
G1 X117.604 Y98.653 E103.66814
G1 X117.722 Y98.184 E103.68017
G1 X117.724 Y97.699 E103.69224
G1 X117.610 Y97.230 E103.70425
G1 X117.388 Y96.802 E103.71625
G1 X117.069 Y96.439 E103.72827
G1 X116.672 Y96.162 E103.74032
G1 X116.221 Y95.990 E103.75233
G1 X115.742 Y95.930 E103.76434
G1 X115.264 Y95.986 E103.77632
G1 X114.811 Y96.154 E103.78834
G1 X114.412 Y96.427 E103.80037
G1 X114.089 Y96.788 E103.81242
G1 X113.862 Y97.216 E103.82448
G1 X113.746 Y97.685 E103.83650
G1 X113.744 Y98.166 E103.84847
G1 X113.856 Y98.635 E103.86047
G1 X114.080 Y99.066 E103.87255
G1 X114.399 Y99.428 E103.88456
G1 X114.792 Y99.703 E103.89649
G1 X115.245 Y99.878 E103.90858
G1 X115.726 Y99.938 E103.92064
G0 F3600 X109.838 Y94.544
G0 X104.024 Y89.779
G1 F2700 X104.252 Y89.352 E103.93268
G1 X104.368 Y88.882 E103.94473
G1 X104.370 Y88.402 E103.95667
G1 X104.258 Y87.930 E103.96874
G1 X104.033 Y87.500 E103.98082
G1 X103.715 Y87.138 E103.99281
G1 X103.318 Y86.861 E104.00485
G1 X102.867 Y86.689 E104.01687
G1 X102.389 Y86.629 E104.02885
G1 X101.909 Y86.685 E104.04088
G1 X101.457 Y86.855 E104.05289
G1 X101.060 Y87.126 E104.06485
G1 X100.737 Y87.485 E104.07687
G1 X100.509 Y87.915 E104.08898
G1 X100.393 Y88.384 E104.10100
G1 X100.391 Y88.866 E104.11300
G1 X100.504 Y89.336 E104.12502
G1 X100.727 Y89.765 E104.13706
G1 X101.047 Y90.129 E104.14911
G1 X101.443 Y90.403 E104.16110
G1 X101.892 Y90.577 E104.17308
G1 X102.373 Y90.637 E104.18514
G1 X102.852 Y90.581 E104.19714
G1 X103.304 Y90.411 E104.20916
G1 X103.702 Y90.139 E104.22115
G1 X104.024 Y89.779 E104.23317
G0 F3600 X103.410 Y91.083
G1 F2700 X102.485 Y90.951 E104.25642
G1 X101.551 Y90.882 E104.27972
G1 X100.615 Y90.876 E104.30301
G1 X99.681 Y90.933 E104.32630
G1 X98.754 Y91.051 E104.34955
G1 X97.836 Y91.231 E104.37283
G1 X96.932 Y91.472 E104.39611
G1 X96.047 Y91.773 E104.41937
G1 X95.183 Y92.132 E104.44265
G1 X94.346 Y92.548 E104.46591
G1 X93.537 Y93.020 E104.48921
G1 X92.763 Y93.544 E104.51247
G1 X92.682 Y93.607 E104.51502
G1 X97.238 Y87.067 E104.71335
G1 X106.662 Y85.381 E104.95157
G1 X110.414 Y87.994 E105.06534
