;Gcode generated by Cura by Dagoma 2.2.1
;Printer: DiscoEasy200
;Object Name : Button_Decorator.stl
;Date: 18-11-2022
;Time: 23:19:14
;Print duration: 2 min
;Layer height: 0.15 mm
;Filling: 17.0 %
;Print speed: 50.0 mm/s
;Support: Touching buildplate
;Adhesion improvement: Nothing
;Filament:
;- Material: Other PLA type Generic
;- Temperature: 215.0 °C
;- Flow: 100.0 %
;- Retraction amount: 3.5 mm
;- Retraction speed: 50.0 mm/s
;- Length: 0.04 m
;- Weight: 0 g
;- Cost: 0.01 EUR
D131 E1 ;Disable filrunout 2, just in case the user has a bicolor printer
G90 ;absolute positioning
M106 S255 ;fan on for the sensor
G28 X Y
G1 X50
M109 R90 ;wait for cool down
G28
;Sensor activation
;No Sensor
M104 S215 ;start the heater
M107 ;start with the fan off
G1 X100 Y20 Z0.5 F3000
M109 S215
M82 ;set extruder to absolute mode
G92 E0 ;zero the extruded length
G1 F200 E10 ;extrude 10mm of feed stock
G92 E0 ;zero the extruded length again
G1 E-3.5 F5000 ;filament retract length
G1 F240 Z3
G1 F3600

;Layer count: 53
;LAYER:0
M117 Nb = 1 / 53
M107
G1 F3000 E-3.50000
G0 F3600 X100.587 Y101.105 Z0.260
;TYPE:WALL-INNER
G1 F3000 E0.00000
G1 F1020 X100.918 Y100.785 E0.01991
G1 X101.233 Y100.576 E0.03625
G1 X101.530 Y100.436 E0.05045
G1 X101.678 Y100.394 E0.05710
G1 X100.294 Y103.231 E0.19359
G1 X100.161 Y103.502 E0.20664
G1 X100.145 Y103.464 E0.20842
G1 X100.027 Y102.983 E0.22984
G1 X100.006 Y102.689 E0.24258
G1 X100.062 Y102.163 E0.26545
G1 X100.209 Y101.701 E0.28641
G1 X100.388 Y101.371 E0.30265
G1 X100.587 Y101.105 E0.31701
G1 F3000 E-3.18299
G0 F3600 X102.479 Y100.312
G1 F3000 E0.31701
G1 F1020 X102.402 Y100.274 E0.32072
G1 X102.480 Y100.271 E0.32410
G1 X102.993 Y100.343 E0.34650
G1 X103.307 Y100.445 E0.36077
G1 X103.482 Y100.525 E0.36909
G1 X103.749 Y100.680 E0.38244
G1 X103.902 Y100.795 E0.39072
G1 X104.147 Y101.022 E0.40516
G1 X104.289 Y101.195 E0.41484
G1 X102.479 Y100.312 E0.50191
G1 F3000 E-2.99809
G0 F3600 X104.515 Y102.103
G1 F3000 E0.50191
G1 F1020 X104.648 Y101.831 E0.51500
G1 X104.663 Y101.867 E0.51669
G1 X104.782 Y102.353 E0.53832
G1 X104.803 Y102.659 E0.55159
G1 X104.774 Y103.031 E0.56772
G1 X104.699 Y103.360 E0.58231
G1 X104.598 Y103.638 E0.59510
G1 X104.421 Y103.963 E0.61110
G1 X104.224 Y104.226 E0.62531
G1 X103.882 Y104.554 E0.64580
G1 X103.454 Y104.821 E0.66761
G1 X103.132 Y104.938 E0.68242
G1 X104.515 Y102.103 E0.81881
G1 F3000 E-2.68119
G0 F3600 X102.330 Y105.022
G1 F3000 E0.81881
G1 F1020 X102.407 Y105.060 E0.82252
G1 X102.329 Y105.063 E0.82590
G1 X101.816 Y104.991 E0.84830
G1 X101.505 Y104.890 E0.86244
G1 X101.082 Y104.668 E0.88309
G1 X100.677 Y104.329 E0.90593
G1 X100.522 Y104.140 E0.91650
G1 X102.330 Y105.022 E1.00348
G0 F3600 X102.510 Y104.665
;TYPE:WALL-OUTER
G1 F1020 X102.759 Y104.789 E1.01550
G1 X104.294 Y101.643 E1.16686
G1 X102.299 Y100.669 E1.26285
G1 X102.050 Y100.545 E1.27488
G1 X100.515 Y103.691 E1.42623
G1 X102.510 Y104.665 E1.52223
G0 F3600 X102.697 Y105.450
G1 F1020 X102.310 Y105.464 E1.53897
G1 X101.724 Y105.381 E1.56456
G1 X101.357 Y105.263 E1.58123
G1 X100.967 Y105.069 E1.60006
G1 X100.846 Y104.992 E1.60626
G1 X100.393 Y104.613 E1.63180
G1 X100.120 Y104.281 E1.65039
G1 X99.932 Y103.978 E1.66581
G1 X99.764 Y103.592 E1.68401
G1 X99.632 Y103.053 E1.70800
G1 X99.612 Y102.862 E1.71631
G1 X99.605 Y102.674 E1.72444
G1 X99.668 Y102.084 E1.75010
G1 X99.846 Y101.532 E1.77517
G1 X100.053 Y101.151 E1.79392
G1 X100.283 Y100.843 E1.81054
G1 X100.679 Y100.464 E1.83424
G1 X101.035 Y100.228 E1.85271
G1 X101.393 Y100.059 E1.86983
G1 X101.921 Y99.910 E1.89355
G1 X102.108 Y99.884 E1.90171
G1 X102.499 Y99.870 E1.91863
G1 X103.085 Y99.953 E1.94422
G1 X103.454 Y100.072 E1.96098
G1 X103.970 Y100.346 E1.98625
G1 X104.150 Y100.480 E1.99595
G1 X104.440 Y100.749 E2.01305
G1 X104.689 Y101.053 E2.03004
G1 X104.877 Y101.356 E2.04546
G1 X105.045 Y101.741 E2.06362
G1 X105.177 Y102.283 E2.08774
G1 X105.197 Y102.465 E2.09566
G1 X105.204 Y102.660 E2.10410
G1 X105.171 Y103.090 E2.12274
G1 X105.085 Y103.470 E2.13959
G1 X104.963 Y103.803 E2.15492
G1 X104.756 Y104.183 E2.17363
G1 X104.525 Y104.493 E2.19035
G1 X104.131 Y104.870 E2.21393
G1 X103.629 Y105.183 E2.23951
G1 X103.079 Y105.383 E2.26481
G1 X102.697 Y105.450 E2.28158
G1 F3000 E-1.21842
G0 F3600 X100.113 Y102.786
;TYPE:FILL
G1 F3000 E2.28158
G1 F1020 X100.692 Y102.181 E2.31544
G1 X100.412 Y101.544 E2.34033
G1 X100.995 Y101.561 E2.36385
G1 X100.928 Y100.928 E2.38284
G1 X101.273 Y100.991 E2.39800
G0 F3600 X100.170 Y102.150
;TYPE:SKIN
G1 F1020 X100.438 Y102.701 E2.42006
G1 X100.110 Y102.655 E2.43438
G1 F3000 E-1.06562
G0 F3600 X103.520 Y104.368
G1 F3000 E2.43438
G1 F1020 X103.854 Y104.419 E2.44534
G1 X103.797 Y103.798 E2.46387
G1 X104.379 Y103.813 E2.48728
G1 X104.169 Y103.037 E2.51214
G1 X104.663 Y102.965 E2.53459
G1 X104.447 Y102.467 E2.55806
;LAYER:1
M117 Nb = 2 / 53
M106 S91
G0 F3600 X104.471 Y102.186 Z0.410
;TYPE:WALL-INNER
G1 F1200 X104.647 Y101.829 E2.56796
G1 X104.715 Y102.014 E2.57287
G1 X104.752 Y102.161 E2.57664
G1 X104.800 Y102.505 E2.58528
G1 X104.805 Y102.656 E2.58904
G1 X104.780 Y103.016 E2.59802
G1 X104.756 Y103.153 E2.60148
G1 X104.661 Y103.481 E2.60998
G1 X104.437 Y103.941 E2.62271
G1 X104.206 Y104.250 E2.63231
G1 X103.881 Y104.558 E2.64345
G1 X103.556 Y104.770 E2.65310
G1 X103.122 Y104.953 E2.66482
G1 X104.471 Y102.186 E2.74142
G0 F3600 X104.128 Y101.000
G1 F1200 X104.279 Y101.193 E2.74752
G1 X102.394 Y100.272 E2.79972
G1 X102.485 Y100.269 E2.80199
G1 X102.885 Y100.317 E2.81201
G1 X103.136 Y100.381 E2.81846
G1 X103.511 Y100.540 E2.82859
G1 X103.785 Y100.706 E2.83656
G1 X104.128 Y101.000 E2.84780
G1 F3000 E-0.65220
G0 F3600 X101.357 Y100.509
G1 F3000 E2.84780
G1 F1200 X101.687 Y100.382 E2.85660
G1 X100.338 Y103.148 E2.93318
G1 X100.163 Y103.502 E2.94300
G1 X100.059 Y103.176 E2.95152
G1 X100.009 Y102.827 E2.96029
G1 X100.004 Y102.678 E2.96400
G1 X100.028 Y102.331 E2.97266
G1 X100.100 Y101.994 E2.98123
G1 X100.140 Y101.872 E2.98443
G1 X100.375 Y101.389 E2.99779
G1 X100.602 Y101.086 E3.00721
G1 X100.925 Y100.780 E3.01828
G1 X101.357 Y100.509 E3.03097
G1 F3000 E-0.46903
G0 F3600 X100.644 Y104.294
G1 F3000 E3.03097
G1 F1200 X100.524 Y104.138 E3.03587
G1 X102.415 Y105.062 E3.08824
G1 X102.324 Y105.065 E3.09050
G1 X101.924 Y105.017 E3.10053
G1 X101.669 Y104.952 E3.10708
G1 X101.306 Y104.799 E3.11688
G1 X100.927 Y104.557 E3.12807
G1 X100.644 Y104.294 E3.13768
G0 F3600 X100.347 Y104.562
;TYPE:WALL-OUTER
G1 F1140 X100.031 Y104.150 E3.15060
G1 X99.846 Y103.804 E3.16036
G1 X99.667 Y103.253 E3.17478
G1 X99.611 Y102.860 E3.18466
G1 X99.604 Y102.674 E3.18929
G1 X99.632 Y102.276 E3.19922
G1 X99.771 Y101.718 E3.21353
G1 X100.033 Y101.180 E3.22842
G1 X100.301 Y100.821 E3.23956
G1 X100.678 Y100.464 E3.25248
G1 X101.180 Y100.150 E3.26722
G1 X101.603 Y99.986 E3.27850
G1 X102.115 Y99.882 E3.29150
G1 X102.499 Y99.869 E3.30107
G1 X102.957 Y99.924 E3.31254
G1 X103.270 Y100.004 E3.32058
G1 X103.690 Y100.182 E3.33193
G1 X104.022 Y100.383 E3.34159
G1 X104.415 Y100.719 E3.35446
G1 X104.780 Y101.187 E3.36922
G1 X104.964 Y101.532 E3.37895
G1 X105.098 Y101.900 E3.38870
G1 X105.143 Y102.081 E3.39334
G1 X105.198 Y102.474 E3.40321
G1 X105.205 Y102.660 E3.40784
G1 X105.176 Y103.065 E3.41795
G1 X105.145 Y103.247 E3.42254
G1 X105.037 Y103.620 E3.43220
G1 X104.776 Y104.154 E3.44699
G1 X104.508 Y104.514 E3.45816
G1 X104.130 Y104.872 E3.47112
G1 X103.743 Y105.124 E3.48261
G1 X103.274 Y105.328 E3.49533
G1 X102.693 Y105.452 E3.51012
G1 X102.310 Y105.465 E3.51965
G1 X101.852 Y105.410 E3.53113
G1 X101.536 Y105.329 E3.53925
G1 X101.125 Y105.156 E3.55034
G1 X100.682 Y104.874 E3.56341
G1 X100.347 Y104.562 E3.57480
G0 F3600 X100.516 Y103.691
G1 F1140 X102.760 Y104.786 E3.63693
G1 X104.293 Y101.643 E3.72394
G1 X102.049 Y100.548 E3.78607
G1 X100.516 Y103.691 E3.87309
G0 F3600 X100.108 Y102.791
;TYPE:FILL
G1 F1260 X100.676 Y102.223 E3.89307
G0 F3600 X100.718 Y102.138
;TYPE:SKIN
G1 F1260 X100.107 Y102.748 E3.91456
G0 F3600 X100.177 Y102.114
G1 F1260 X101.255 Y101.036 E3.95249
G1 F3000 E0.45249
G0 F3600 X104.010 Y103.359
G1 F3000 E3.95249
G1 F1260 X104.702 Y102.667 E3.97684
G0 F3600 X104.598 Y103.336
G1 F1260 X103.474 Y104.460 E4.01640
;LAYER:2
M117 Nb = 3 / 53
M106 S216
G0 F3600 X103.385 Y104.855 Z0.560
;TYPE:WALL-INNER
G1 F1260 X103.126 Y104.945 E4.02322
G1 X104.645 Y101.833 E4.10939
G1 X104.730 Y102.083 E4.11596
G1 X104.800 Y102.513 E4.12680
G1 X104.805 Y102.656 E4.13036
G1 X104.781 Y102.999 E4.13891
G1 X104.685 Y103.410 E4.14941
G1 X104.600 Y103.636 E4.15542
G1 X104.391 Y104.010 E4.16608
G1 X104.139 Y104.328 E4.17618
G1 X103.757 Y104.650 E4.18861
G1 X103.385 Y104.855 E4.19918
G0 F3600 X102.221 Y104.966
G1 F1260 X102.415 Y105.062 E4.20457
G1 X102.321 Y105.066 E4.20691
G1 X101.990 Y105.031 E4.21519
G1 X101.590 Y104.923 E4.22550
G1 X101.207 Y104.745 E4.23601
G1 X100.866 Y104.505 E4.24638
G1 X100.561 Y104.203 E4.25706
G1 X100.509 Y104.131 E4.25927
G1 X102.221 Y104.966 E4.30667
G1 F3000 E0.80667
G0 F3600 X100.079 Y103.249
G1 F3000 E4.30667
G1 F1260 X100.009 Y102.822 E4.31744
G1 X100.004 Y102.678 E4.32102
G1 X100.028 Y102.335 E4.32958
G1 X100.124 Y101.922 E4.34013
G1 X100.208 Y101.700 E4.34603
G1 X100.415 Y101.330 E4.35658
G1 X100.689 Y100.989 E4.36747
G1 X101.057 Y100.681 E4.37941
G1 X101.424 Y100.479 E4.38983
G1 X101.683 Y100.389 E4.39666
G1 X100.164 Y103.501 E4.48282
G1 X100.079 Y103.249 E4.48944
G1 F3000 E0.98944
G0 F3600 X102.588 Y100.368
G1 F3000 E4.48944
G1 F1260 X102.394 Y100.272 E4.49483
G1 X102.488 Y100.268 E4.49717
G1 X102.819 Y100.303 E4.50545
G1 X103.234 Y100.415 E4.51615
G1 X103.498 Y100.531 E4.52332
G1 X103.884 Y100.779 E4.53474
G1 X104.183 Y101.060 E4.54495
G1 X104.287 Y101.196 E4.54921
G1 X102.588 Y100.368 E4.59624
G0 F3600 X102.502 Y99.868
;TYPE:WALL-OUTER
G1 F1140 X102.890 Y99.909 E4.60594
G1 X103.364 Y100.037 E4.61816
G1 X103.704 Y100.189 E4.62743
G1 X104.128 Y100.462 E4.63998
G1 X104.480 Y100.792 E4.65198
G1 X104.782 Y101.189 E4.66439
G1 X104.962 Y101.526 E4.67390
G1 X105.119 Y101.987 E4.68602
G1 X105.198 Y102.473 E4.69827
G1 X105.205 Y102.660 E4.70293
G1 X105.177 Y103.056 E4.71280
G1 X105.065 Y103.535 E4.72504
G1 X104.965 Y103.800 E4.73209
G1 X104.724 Y104.232 E4.74440
G1 X104.421 Y104.610 E4.75646
G1 X104.126 Y104.876 E4.76634
G1 X103.973 Y104.987 E4.77104
G1 X103.547 Y105.221 E4.78314
G1 X103.081 Y105.384 E4.79542
G1 X102.697 Y105.451 E4.80512
G1 X102.307 Y105.466 E4.81483
G1 X101.919 Y105.425 E4.82454
G1 X101.455 Y105.299 E4.83650
G1 X101.005 Y105.091 E4.84884
G1 X100.606 Y104.810 E4.86098
G1 X100.260 Y104.467 E4.87311
G1 X99.932 Y103.982 E4.88767
G1 X99.847 Y103.808 E4.89249
G1 X99.690 Y103.348 E4.90459
G1 X99.611 Y102.861 E4.91686
G1 X99.604 Y102.674 E4.92152
G1 X99.632 Y102.278 E4.93140
G1 X99.744 Y101.800 E4.94361
G1 X99.844 Y101.534 E4.95069
G1 X100.083 Y101.105 E4.96290
G1 X100.396 Y100.716 E4.97533
G1 X100.524 Y100.593 E4.97975
G1 X100.842 Y100.344 E4.98980
G1 X101.262 Y100.113 E5.00172
G1 X101.728 Y99.950 E5.01401
G1 X102.113 Y99.883 E5.02373
G1 X102.502 Y99.868 E5.03342
G0 F3600 X102.049 Y100.548
G1 F1140 X100.516 Y103.691 E5.12043
G1 X102.760 Y104.786 E5.18256
G1 X104.293 Y101.643 E5.26957
G1 X102.049 Y100.548 E5.33170
G0 F3600 X101.781 Y100.416
G0 X100.675 Y102.225
;TYPE:FILL
G1 F1380 X100.107 Y102.792 E5.35167
G0 F3600 X100.105 Y102.645
;TYPE:SKIN
G1 F1380 X100.443 Y102.701 E5.36031
G1 X100.241 Y101.934 E5.37302
G1 X100.813 Y101.942 E5.38747
G1 X100.642 Y101.207 E5.40121
G1 X101.183 Y101.183 E5.41249
G1 X101.077 Y100.795 E5.42250
G1 F3000 E1.92250
G0 F3600 X104.443 Y102.469
G1 F3000 E5.42250
G1 F1380 X104.479 Y102.787 E5.43150
G1 X104.555 Y103.427 E5.44444
G1 X103.981 Y103.417 E5.45880
G1 X104.145 Y104.146 E5.47240
G1 X103.611 Y104.176 E5.48338
G1 X103.710 Y104.557 E5.49317
;LAYER:3
M117 Nb = 4 / 53
M106 S239
G0 F3600 X103.650 Y104.717 Z0.710
;TYPE:WALL-INNER
G1 F1260 X103.454 Y104.826 E5.49875
G1 X103.120 Y104.957 E5.50768
G1 X104.644 Y101.835 E5.59412
G1 X104.737 Y102.110 E5.60135
G1 X104.800 Y102.514 E5.61152
G1 X104.805 Y102.655 E5.61503
G1 X104.763 Y103.105 E5.62628
G1 X104.660 Y103.484 E5.63605
G1 X104.468 Y103.887 E5.64716
G1 X104.241 Y104.211 E5.65700
G1 X104.012 Y104.448 E5.66520
G1 X103.650 Y104.717 E5.67642
G0 F3600 X102.326 Y105.065
G1 F1260 X101.879 Y105.007 E5.68764
G1 X101.507 Y104.892 E5.69733
G1 X101.202 Y104.744 E5.70576
G1 X100.925 Y104.557 E5.71408
G1 X100.685 Y104.341 E5.72212
G1 X100.524 Y104.138 E5.72856
G1 X102.415 Y105.062 E5.78093
G1 X102.326 Y105.065 E5.78315
G1 F3000 E2.28315
G0 F3600 X100.057 Y103.165
G1 F3000 E5.78315
G1 F1260 X100.009 Y102.827 E5.79164
G1 X100.004 Y102.678 E5.79535
G1 X100.028 Y102.331 E5.80401
G1 X100.097 Y102.005 E5.81230
G1 X100.210 Y101.696 E5.82049
G1 X100.368 Y101.399 E5.82886
G1 X100.644 Y101.038 E5.84016
G1 X100.789 Y100.893 E5.84527
G1 X101.167 Y100.613 E5.85697
G1 X101.353 Y100.509 E5.86227
G1 X101.689 Y100.377 E5.87126
G1 X100.159 Y103.511 E5.95804
G1 X100.057 Y103.165 E5.96701
G1 F3000 E2.46701
G0 F3600 X102.483 Y100.269
G1 F3000 E5.96701
G1 F1260 X102.930 Y100.327 E5.97823
G1 X103.304 Y100.442 E5.98796
G1 X103.544 Y100.557 E5.99459
G1 X103.881 Y100.777 E6.00460
G1 X104.199 Y101.078 E6.01549
G1 X104.289 Y101.197 E6.01921
G1 X102.394 Y100.272 E6.07168
G1 X102.483 Y100.269 E6.07389
G0 F3600 X102.107 Y99.883
;TYPE:WALL-OUTER
G1 F1140 X102.502 Y99.868 E6.08373
G1 X103.011 Y99.935 E6.09650
G1 X103.452 Y100.071 E6.10799
G1 X103.739 Y100.208 E6.11590
G1 X104.130 Y100.463 E6.12752
G1 X104.499 Y100.813 E6.14017
G1 X104.778 Y101.184 E6.15172
G1 X104.962 Y101.528 E6.16143
G1 X105.125 Y102.015 E6.17421
G1 X105.198 Y102.479 E6.18589
G1 X105.205 Y102.660 E6.19040
G1 X105.157 Y103.178 E6.20335
G1 X105.037 Y103.621 E6.21477
G1 X104.813 Y104.091 E6.22772
G1 X104.547 Y104.469 E6.23922
G1 X104.282 Y104.743 E6.24871
G1 X103.860 Y105.057 E6.26180
G1 X103.629 Y105.185 E6.26837
G1 X103.271 Y105.330 E6.27798
G1 X102.702 Y105.451 E6.29245
G1 X102.307 Y105.466 E6.30229
G1 X101.798 Y105.399 E6.31506
G1 X101.355 Y105.263 E6.32659
G1 X101.004 Y105.092 E6.33631
G1 X100.681 Y104.874 E6.34601
G1 X100.394 Y104.615 E6.35563
G1 X100.065 Y104.203 E6.36874
G1 X99.934 Y103.986 E6.37505
G1 X99.772 Y103.622 E6.38497
G1 X99.666 Y103.250 E6.39459
G1 X99.611 Y102.860 E6.40439
G1 X99.604 Y102.674 E6.40902
G1 X99.632 Y102.276 E6.41895
G1 X99.713 Y101.894 E6.42867
G1 X99.845 Y101.532 E6.43825
G1 X100.031 Y101.183 E6.44809
G1 X100.343 Y100.775 E6.46088
G1 X100.531 Y100.587 E6.46749
G1 X100.946 Y100.280 E6.48034
G1 X101.180 Y100.149 E6.48701
G1 X101.538 Y100.004 E6.49662
G1 X101.922 Y99.908 E6.50647
G1 X102.107 Y99.883 E6.51111
G0 F3600 X102.049 Y100.548
G1 F1140 X100.516 Y103.691 E6.59813
G1 X102.760 Y104.786 E6.66026
G1 X104.293 Y101.643 E6.74727
G1 X102.049 Y100.548 E6.80940
G0 F3600 X101.781 Y100.416
G0 X100.675 Y102.224
;TYPE:FILL
G1 F1380 X100.108 Y102.791 E6.82935
G0 F3600 X100.107 Y102.748
;TYPE:SKIN
G1 F1380 X100.717 Y102.138 E6.85082
G0 F3600 X100.176 Y102.115
G1 F1380 X101.255 Y101.036 E6.88879
G1 F3000 E3.38879
G0 F3600 X104.009 Y103.360
G1 F3000 E6.88879
G1 F1380 X104.702 Y102.667 E6.91317
G0 F3600 X104.595 Y103.339
G1 F1380 X103.473 Y104.461 E6.95266
;LAYER:4
M117 Nb = 5 / 53
M106 S255
G0 F3600 X104.024 Y104.439 Z0.860
;TYPE:WALL-INNER
G1 F1320 X103.639 Y104.723 E6.96456
G1 X103.172 Y104.938 E6.97735
G1 X103.123 Y104.951 E6.97861
G1 X104.649 Y101.825 E7.06517
G1 X104.754 Y102.174 E7.07424
G1 X104.800 Y102.505 E7.08256
G1 X104.805 Y102.656 E7.08631
G1 X104.781 Y103.004 E7.09499
G1 X104.712 Y103.330 E7.10329
G1 X104.599 Y103.638 E7.11145
G1 X104.442 Y103.932 E7.11974
G1 X104.141 Y104.324 E7.13204
G1 X104.024 Y104.439 E7.13612
G1 F3000 E3.63612
G0 F3600 X102.321 Y105.066
G1 F3000 E7.13612
G1 F1320 X101.996 Y105.031 E7.14426
G1 X101.534 Y104.902 E7.15619
G1 X101.202 Y104.744 E7.16534
G1 X100.925 Y104.557 E7.17366
G1 X100.687 Y104.343 E7.18162
G1 X100.527 Y104.140 E7.18805
G1 X102.415 Y105.062 E7.24033
G1 X102.321 Y105.066 E7.24267
G1 F3000 E3.74267
G0 F3600 X100.057 Y103.165
G1 F3000 E7.24267
G1 F1320 X100.009 Y102.827 E7.25117
G1 X100.004 Y102.678 E7.25488
G1 X100.028 Y102.331 E7.26353
G1 X100.097 Y102.005 E7.27183
G1 X100.210 Y101.696 E7.28001
G1 X100.369 Y101.398 E7.28842
G1 X100.675 Y101.003 E7.30085
G1 X100.786 Y100.895 E7.30470
G1 X101.178 Y100.607 E7.31681
G1 X101.511 Y100.440 E7.32608
G1 X101.686 Y100.383 E7.33066
G1 X100.158 Y103.513 E7.41732
G1 X100.057 Y103.165 E7.42634
G1 F3000 E3.92634
G0 F3600 X102.488 Y100.268
G1 F3000 E7.42634
G1 F1320 X102.813 Y100.303 E7.43447
G1 X103.278 Y100.433 E7.44649
G1 X103.567 Y100.569 E7.45444
G1 X103.876 Y100.773 E7.46365
G1 X104.214 Y101.096 E7.47528
G1 X104.283 Y101.194 E7.47826
G1 X102.394 Y100.272 E7.53057
G1 X102.488 Y100.268 E7.53291
G0 F3600 X102.502 Y99.868
;TYPE:WALL-OUTER
G1 F1200 X102.885 Y99.909 E7.54249
G1 X103.417 Y100.058 E7.55624
G1 X103.766 Y100.222 E7.56584
G1 X104.128 Y100.461 E7.57663
G1 X104.519 Y100.834 E7.59008
G1 X104.856 Y101.318 E7.60475
G1 X105.037 Y101.714 E7.61558
G1 X105.144 Y102.084 E7.62517
G1 X105.198 Y102.474 E7.63497
G1 X105.205 Y102.660 E7.63960
G1 X105.177 Y103.058 E7.64952
G1 X105.096 Y103.441 E7.65927
G1 X104.964 Y103.802 E7.66883
G1 X104.778 Y104.150 E7.67865
G1 X104.445 Y104.582 E7.69222
G1 X104.278 Y104.747 E7.69806
G1 X103.843 Y105.068 E7.71151
G1 X103.308 Y105.315 E7.72618
G1 X102.883 Y105.426 E7.73711
G1 X102.702 Y105.451 E7.74165
G1 X102.307 Y105.466 E7.75149
G1 X101.924 Y105.425 E7.76107
G1 X101.392 Y105.276 E7.77482
G1 X101.003 Y105.091 E7.78554
G1 X100.681 Y104.874 E7.79520
G1 X100.391 Y104.613 E7.80491
G1 X100.057 Y104.189 E7.81834
G1 X99.843 Y103.799 E7.82941
G1 X99.773 Y103.624 E7.83410
G1 X99.666 Y103.250 E7.84378
G1 X99.611 Y102.860 E7.85358
G1 X99.604 Y102.674 E7.85821
G1 X99.632 Y102.276 E7.86814
G1 X99.713 Y101.894 E7.87785
G1 X99.845 Y101.532 E7.88744
G1 X100.029 Y101.187 E7.89717
G1 X100.374 Y100.740 E7.91122
G1 X100.526 Y100.591 E7.91652
G1 X100.969 Y100.265 E7.93020
G1 X101.359 Y100.069 E7.94106
G1 X101.724 Y99.951 E7.95061
G1 X102.113 Y99.883 E7.96044
G1 X102.502 Y99.868 E7.97012
G0 F3600 X102.049 Y100.548
G1 F1200 X100.516 Y103.691 E8.05713
G1 X102.760 Y104.786 E8.11926
G1 X104.293 Y101.643 E8.20628
G1 X102.049 Y100.548 E8.26841
G0 F3600 X101.781 Y100.416
G0 X100.674 Y102.225
;TYPE:FILL
G1 F1500 X100.108 Y102.791 E8.28833
G0 F3600 X100.106 Y102.646
;TYPE:SKIN
G1 F1500 X100.442 Y102.700 E8.29690
G1 X100.238 Y101.932 E8.30973
G1 X100.813 Y101.942 E8.32419
G1 X100.643 Y101.208 E8.33781
G1 X101.183 Y101.183 E8.34911
G1 X101.082 Y100.800 E8.35896
G1 F3000 E4.85896
G0 F3600 X104.443 Y102.469
G1 F3000 E8.35896
G1 F1500 X104.479 Y102.786 E8.36794
G1 X104.557 Y103.429 E8.38102
G1 X103.981 Y103.417 E8.39543
G1 X104.145 Y104.145 E8.40883
G1 X103.611 Y104.176 E8.41994
G1 X103.702 Y104.549 E8.42950
;LAYER:5
M117 Nb = 6 / 53
G0 F3600 X103.753 Y104.651 Z1.010
;TYPE:WALL-INNER
G1 F1320 X103.297 Y104.895 E8.44236
G1 X103.121 Y104.956 E8.44700
G1 X104.647 Y101.830 E8.53356
G1 X104.713 Y102.011 E8.53835
G1 X104.800 Y102.499 E8.55068
G1 X104.805 Y102.667 E8.55487
G1 X104.800 Y102.829 E8.55890
G1 X104.754 Y103.156 E8.56712
G1 X104.599 Y103.638 E8.57971
G1 X104.443 Y103.931 E8.58797
G1 X104.124 Y104.342 E8.60092
G1 X103.753 Y104.651 E8.61293
G1 F3000 E5.11293
G0 F3600 X102.052 Y104.884
G1 F3000 E8.61293
G1 F1320 X102.417 Y105.063 E8.62305
G1 X102.139 Y105.053 E8.62997
G1 X101.996 Y105.033 E8.63356
G1 X101.663 Y104.950 E8.64210
G1 X101.356 Y104.826 E8.65034
G1 X101.061 Y104.656 E8.65881
G1 X100.802 Y104.453 E8.66700
G1 X100.564 Y104.207 E8.67552
G1 X100.509 Y104.131 E8.67785
G1 X102.052 Y104.884 E8.72058
G1 F3000 E5.22058
G0 F3600 X100.097 Y103.330
G1 F3000 E8.72058
G1 F1320 X100.009 Y102.835 E8.73309
G1 X100.004 Y102.667 E8.73727
G1 X100.009 Y102.507 E8.74125
G1 X100.057 Y102.169 E8.74975
G1 X100.148 Y101.851 E8.75798
G1 X100.288 Y101.537 E8.76653
G1 X100.470 Y101.246 E8.77507
G1 X100.555 Y101.136 E8.77853
G1 X100.791 Y100.892 E8.78698
G1 X101.196 Y100.598 E8.79943
G1 X101.663 Y100.386 E8.81219
G1 X100.162 Y103.506 E8.89834
G1 X100.097 Y103.330 E8.90301
G1 F3000 E5.40301
G0 F3600 X102.757 Y100.450
G1 F3000 E8.90301
G1 F1320 X102.392 Y100.271 E8.91313
G1 X102.671 Y100.281 E8.92007
G1 X102.813 Y100.301 E8.92364
G1 X103.146 Y100.384 E8.93218
G1 X103.464 Y100.513 E8.94072
G1 X103.578 Y100.574 E8.94394
G1 X103.886 Y100.780 E8.95316
G1 X104.127 Y100.997 E8.96123
G1 X104.301 Y101.204 E8.96795
G1 X102.757 Y100.450 E9.01071
G0 F3600 X102.702 Y99.883
;TYPE:WALL-OUTER
G1 F1200 X103.271 Y100.004 E9.02519
G1 X103.635 Y100.151 E9.03495
G1 X104.128 Y100.461 E9.04944
G1 X104.420 Y100.724 E9.05922
G1 X104.667 Y101.018 E9.06878
G1 X104.958 Y101.519 E9.08319
G1 X105.096 Y101.894 E9.09314
G1 X105.178 Y102.283 E9.10303
G1 X105.198 Y102.465 E9.10758
G1 X105.205 Y102.660 E9.11244
G1 X105.198 Y102.860 E9.11742
G1 X105.144 Y103.248 E9.12717
G1 X104.968 Y103.794 E9.14144
G1 X104.780 Y104.149 E9.15144
G1 X104.423 Y104.608 E9.16591
G1 X103.973 Y104.986 E9.18053
G1 X103.458 Y105.260 E9.19504
G1 X103.268 Y105.331 E9.20009
G1 X102.892 Y105.424 E9.20973
G1 X102.502 Y105.466 E9.21949
G1 X102.107 Y105.451 E9.22933
G1 X101.922 Y105.426 E9.23397
G1 X101.538 Y105.330 E9.24382
G1 X101.176 Y105.183 E9.25354
G1 X100.845 Y104.993 E9.26304
G1 X100.528 Y104.744 E9.27307
G1 X100.261 Y104.468 E9.28262
G1 X100.032 Y104.153 E9.29231
G1 X99.845 Y103.802 E9.30221
G1 X99.713 Y103.441 E9.31177
G1 X99.631 Y103.051 E9.32169
G1 X99.611 Y102.862 E9.32642
G1 X99.604 Y102.674 E9.33110
G1 X99.611 Y102.474 E9.33608
G1 X99.666 Y102.084 E9.34588
G1 X99.772 Y101.713 E9.35548
G1 X99.932 Y101.355 E9.36524
G1 X100.142 Y101.018 E9.37512
G1 X100.262 Y100.865 E9.37996
G1 X100.528 Y100.590 E9.38948
G1 X100.995 Y100.250 E9.40385
G1 X101.529 Y100.008 E9.41844
G1 X101.919 Y99.910 E9.42845
G1 X102.307 Y99.868 E9.43816
G1 X102.702 Y99.883 E9.44799
G0 F3600 X102.049 Y100.548
G1 F1200 X100.516 Y103.691 E9.53501
G1 X102.760 Y104.786 E9.59714
G1 X104.293 Y101.643 E9.68415
G1 X102.049 Y100.548 E9.74628
G0 F3600 X101.781 Y100.416
G0 X100.660 Y102.239
;TYPE:FILL
G1 F1500 X100.108 Y102.791 E9.76570
G0 F3600 X100.107 Y102.748
;TYPE:SKIN
G1 F1500 X100.701 Y102.155 E9.78659
G0 F3600 X100.175 Y102.116
G1 F1500 X101.223 Y101.068 E9.82347
G1 F3000 E6.32347
G0 F3600 X104.012 Y103.357
G1 F3000 E9.82347
G1 F1500 X104.703 Y102.666 E9.84778
G0 F3600 X104.587 Y103.347
G1 F1500 X103.473 Y104.461 E9.88698
;LAYER:6
M117 Nb = 7 / 53
G0 F3600 X103.246 Y104.399 Z1.160
;TYPE:WALL-OUTER
G1 F1200 X103.109 Y104.458 E9.89070
G1 X102.888 Y104.524 E9.89643
G1 X104.168 Y101.900 E9.96908
G1 X104.290 Y102.279 E9.97899
G1 X104.314 Y102.422 E9.98260
G1 X104.327 Y102.751 E9.99079
G1 X104.289 Y103.059 E9.99851
G1 X104.196 Y103.370 E10.00659
G1 X104.058 Y103.652 E10.01440
G1 X103.867 Y103.917 E10.02253
G1 X103.766 Y104.028 E10.02626
G1 X103.523 Y104.233 E10.03417
G1 X103.246 Y104.399 E10.04221
G0 F3600 X102.320 Y104.590
G1 F1200 X102.013 Y104.552 E10.04991
G1 X101.699 Y104.458 E10.05806
G1 X101.422 Y104.322 E10.06574
G1 X101.157 Y104.132 E10.07385
G1 X100.938 Y103.912 E10.08158
G1 X102.356 Y104.589 E10.12068
G1 X102.320 Y104.590 E10.12157
G1 F3000 E6.62157
G0 F3600 X100.612 Y103.366
G1 F3000 E10.12157
G1 F1200 X100.519 Y103.056 E10.12963
G1 X100.496 Y102.914 E10.13321
G1 X100.482 Y102.582 E10.14147
G1 X100.520 Y102.275 E10.14917
G1 X100.612 Y101.967 E10.15717
G1 X100.755 Y101.677 E10.16522
G1 X100.942 Y101.416 E10.17320
G1 X101.043 Y101.306 E10.17692
G1 X101.286 Y101.101 E10.18483
G1 X101.561 Y100.937 E10.19280
G1 X101.857 Y100.821 E10.20071
G1 X101.924 Y100.804 E10.20243
G1 X100.643 Y103.430 E10.27513
G1 X100.612 Y103.366 E10.27690
G1 F3000 E6.77690
G0 F3600 X102.490 Y100.744
G1 F3000 E10.27690
G1 F1200 X102.796 Y100.782 E10.28457
G1 X103.249 Y100.937 E10.29649
G1 X103.522 Y101.101 E10.30441
G1 X103.766 Y101.308 E10.31237
G1 X103.880 Y101.442 E10.31675
G1 X102.453 Y100.745 E10.35627
G1 X102.490 Y100.744 E10.35719
G0 F3600 X101.541 Y101.358
;TYPE:FILL
G1 F1500 X100.624 Y102.275 E10.38946
G0 F3600 X100.679 Y102.090
;TYPE:SKIN
G1 F1500 X101.111 Y102.240 E10.40141
G1 X100.980 Y101.545 E10.41358
G1 X101.481 Y101.482 E10.42363
G1 X101.418 Y101.137 E10.43235
G1 F3000 E6.93235
G0 F3600 X100.583 Y102.559
G1 F3000 E10.43235
G1 F1500 X100.834 Y102.809 E10.44117
G0 F3600 X103.220 Y104.067
G1 F1500 X103.523 Y104.087 E10.44620
G1 X103.497 Y103.498 E10.45595
G1 X104.026 Y103.462 E10.46802
G1 X103.867 Y102.739 E10.48011
G1 X104.218 Y102.808 E10.48901
;LAYER:7
M117 Nb = 8 / 53
G0 F3600 X104.315 Y102.428 Z1.310
;TYPE:WALL-OUTER
G1 F1200 X104.327 Y102.742 E10.49683
G1 X104.249 Y103.216 E10.50878
G1 X104.131 Y103.517 E10.51683
G1 X103.963 Y103.795 E10.52491
G1 X103.763 Y104.031 E10.53261
G1 X103.647 Y104.137 E10.53652
G1 X103.375 Y104.329 E10.54480
G1 X103.258 Y104.393 E10.54812
G1 X102.885 Y104.530 E10.55801
G1 X104.165 Y101.906 E10.63066
G1 X104.252 Y102.129 E10.63661
G1 X104.315 Y102.428 E10.64422
G0 F3600 X103.764 Y101.305
G1 F1200 X103.879 Y101.441 E10.64865
G1 X102.464 Y100.750 E10.68783
G1 X102.652 Y100.759 E10.69251
G1 X102.963 Y100.825 E10.70042
G1 X103.261 Y100.944 E10.70841
G1 X103.527 Y101.105 E10.71615
G1 X103.764 Y101.305 E10.72386
G1 F3000 E7.22386
G0 F3600 X101.562 Y100.936
G1 F3000 E10.72386
G1 F1200 X101.921 Y100.811 E10.73332
G1 X100.644 Y103.429 E10.80580
G1 X100.554 Y103.197 E10.81199
G1 X100.520 Y103.055 E10.81563
G1 X100.482 Y102.752 E10.82322
G1 X100.496 Y102.423 E10.83142
G1 X100.613 Y101.966 E10.84316
G1 X100.752 Y101.682 E10.85102
G1 X100.936 Y101.423 E10.85893
G1 X101.042 Y101.307 E10.86284
G1 X101.279 Y101.105 E10.87059
G1 X101.562 Y100.936 E10.87879
G1 F3000 E7.37879
G0 F3600 X101.160 Y104.135
G1 F3000 E10.87879
G1 F1200 X100.933 Y103.906 E10.88681
G1 X102.346 Y104.584 E10.92581
G1 X102.160 Y104.576 E10.93044
G1 X101.703 Y104.459 E10.94218
G1 X101.422 Y104.322 E10.94996
G1 X101.160 Y104.135 E10.95797
G1 F3000 E7.45797
G0 F3600 X100.641 Y102.258
;TYPE:FILL
G1 F3000 E10.95797
G1 F1500 X101.541 Y101.358 E10.98964
G0 F3600 X101.582 Y101.273
;TYPE:SKIN
G1 F1500 X100.656 Y102.199 E11.02223
G0 F3600 X101.047 Y102.372
G1 F1500 X100.592 Y102.828 E11.03825
G1 F3000 E7.53825
G0 F3600 X103.190 Y104.180
G1 F3000 E11.03825
G1 F1500 X104.132 Y103.237 E11.07142
G0 F3600 X103.681 Y103.124
G1 F1500 X104.219 Y102.586 E11.09035
;LAYER:8
M117 Nb = 9 / 53
G0 F3600 X104.327 Y102.746 Z1.460
;TYPE:WALL-OUTER
G1 F1200 X104.285 Y103.074 E11.09858
G1 X104.133 Y103.514 E11.11016
G1 X103.962 Y103.797 E11.11839
G1 X103.651 Y104.132 E11.12977
G1 X103.244 Y104.399 E11.14188
G1 X103.087 Y104.467 E11.14613
G1 X102.888 Y104.523 E11.15128
G1 X104.165 Y101.905 E11.22376
G1 X104.253 Y102.135 E11.22989
G1 X104.315 Y102.428 E11.23734
G1 X104.327 Y102.746 E11.24526
G1 F3000 E7.74526
G0 F3600 X103.535 Y101.111
G1 F3000 E11.24526
G1 F1200 X103.891 Y101.447 E11.25744
G1 X102.453 Y100.745 E11.29725
G1 X102.485 Y100.744 E11.29805
G1 X102.817 Y100.787 E11.30638
G1 X103.115 Y100.879 E11.31414
G1 X103.535 Y101.111 E11.32608
G1 F3000 E7.82608
G0 F3600 X101.873 Y100.818
G1 F3000 E11.32608
G1 F1200 X101.922 Y100.807 E11.32733
G1 X100.644 Y103.429 E11.39991
G1 X100.556 Y103.199 E11.40604
G1 X100.495 Y102.907 E11.41346
G1 X100.482 Y102.587 E11.42143
G1 X100.524 Y102.260 E11.42963
G1 X100.676 Y101.820 E11.44122
G1 X100.847 Y101.537 E11.44944
G1 X101.165 Y101.194 E11.46108
G1 X101.277 Y101.107 E11.46461
G1 X101.578 Y100.930 E11.47330
G1 X101.873 Y100.818 E11.48115
G1 F3000 E7.98115
G0 F3600 X101.151 Y104.126
G1 F3000 E11.48115
G1 F1200 X100.944 Y103.900 E11.48878
G1 X102.356 Y104.589 E11.52787
G1 X101.993 Y104.547 E11.53696
G1 X101.691 Y104.455 E11.54482
G1 X101.405 Y104.312 E11.55278
G1 X101.151 Y104.126 E11.56061
G1 F3000 E8.06061
G0 F3600 X100.624 Y102.275
;TYPE:FILL
G1 F3000 E11.56061
G1 F1500 X101.540 Y101.359 E11.59284
;LAYER:9
M117 Nb = 10 / 53
G0 F3600 X101.312 Y101.085 Z1.610
;TYPE:WALL-OUTER
G1 F1200 X101.557 Y100.939 E11.59994
G1 X101.923 Y100.807 E11.60962
G1 X100.644 Y103.428 E11.68219
G1 X100.603 Y103.342 E11.68456
G1 X100.496 Y102.914 E11.69554
G1 X100.482 Y102.587 E11.70368
G1 X100.527 Y102.248 E11.71219
G1 X100.622 Y101.943 E11.72014
G1 X100.763 Y101.664 E11.72792
G1 X100.950 Y101.408 E11.73581
G1 X101.312 Y101.085 E11.74788
G0 F3600 X102.485 Y100.744
G1 F1200 X102.821 Y100.788 E11.75631
G1 X103.132 Y100.886 E11.76442
G1 X103.266 Y100.947 E11.76809
G1 X103.668 Y101.217 E11.78014
G1 X103.891 Y101.447 E11.78811
G1 X102.453 Y100.745 E11.82793
G1 X102.485 Y100.744 E11.82872
G1 F3000 E8.32872
G0 F3600 X104.206 Y101.994
G1 F3000 E11.82872
G1 F1200 X104.314 Y102.422 E11.83971
G1 X104.327 Y102.746 E11.84777
G1 X104.282 Y103.086 E11.85631
G1 X104.189 Y103.385 E11.86410
G1 X103.971 Y103.784 E11.87541
G1 X103.651 Y104.132 E11.88718
G1 X103.242 Y104.400 E11.89934
G1 X103.084 Y104.467 E11.90361
G1 X102.887 Y104.525 E11.90872
G1 X104.165 Y101.906 E11.98124
G1 X104.206 Y101.994 E11.98365
G1 F3000 E8.48365
G0 F3600 X101.986 Y104.545
G1 F3000 E11.98365
G1 F1200 X101.684 Y104.452 E11.99152
G1 X101.288 Y104.234 E12.00276
G1 X101.030 Y104.012 E12.01123
G1 X100.946 Y103.901 E12.01470
G1 X102.356 Y104.589 E12.05374
G1 X101.986 Y104.545 E12.06301
G1 F3000 E8.56301
G0 F3600 X100.625 Y102.274
;TYPE:FILL
G1 F3000 E12.06301
G1 F1500 X101.542 Y101.357 E12.09528
;LAYER:10
M117 Nb = 11 / 53
G0 F3600 X101.184 Y101.181 Z1.760
;TYPE:WALL-OUTER
G1 F1200 X101.561 Y100.937 E12.10645
G1 X101.852 Y100.823 E12.11423
G1 X101.922 Y100.808 E12.11601
G1 X100.643 Y103.430 E12.18860
G1 X100.561 Y103.220 E12.19421
G1 X100.495 Y102.906 E12.20219
G1 X100.482 Y102.584 E12.21021
G1 X100.519 Y102.279 E12.21786
G1 X100.611 Y101.972 E12.22583
G1 X100.772 Y101.652 E12.23474
G1 X100.936 Y101.424 E12.24173
G1 X101.184 Y101.181 E12.25037
G0 F3600 X102.487 Y100.744
G1 F1200 X102.792 Y100.781 E12.25802
G1 X103.106 Y100.874 E12.26617
G1 X103.276 Y100.952 E12.27082
G1 X103.551 Y101.122 E12.27886
G1 X103.782 Y101.325 E12.28652
G1 X103.864 Y101.433 E12.28989
G1 X102.453 Y100.745 E12.32895
G1 X102.487 Y100.744 E12.32980
G1 F3000 E8.82980
G0 F3600 X104.249 Y102.120
G1 F3000 E12.32980
G1 F1200 X104.315 Y102.428 E12.33764
G1 X104.327 Y102.742 E12.34545
G1 X104.288 Y103.061 E12.35345
G1 X104.196 Y103.371 E12.36150
G1 X104.119 Y103.539 E12.36610
G1 X103.952 Y103.812 E12.37406
G1 X103.744 Y104.048 E12.38189
G1 X103.492 Y104.254 E12.38999
G1 X103.253 Y104.395 E12.39689
G1 X102.957 Y104.511 E12.40480
G1 X102.887 Y104.526 E12.40658
G1 X104.161 Y101.914 E12.47889
G1 X104.249 Y102.120 E12.48447
G1 F3000 E8.98447
G0 F3600 X102.322 Y104.590
G1 F3000 E12.48447
G1 F1200 X102.017 Y104.553 E12.49211
G1 X101.709 Y104.461 E12.50011
G1 X101.384 Y104.298 E12.50916
G1 X101.266 Y104.217 E12.51272
G1 X101.021 Y104.003 E12.52081
G1 X100.931 Y103.894 E12.52433
G1 X102.356 Y104.589 E12.56378
G1 X102.322 Y104.590 E12.56463
G1 F3000 E9.06463
G0 F3600 X100.624 Y102.275
;TYPE:FILL
G1 F3000 E12.56463
G1 F1500 X101.541 Y101.358 E12.59690
;LAYER:11
M117 Nb = 12 / 53
G0 F3600 X101.039 Y101.310 Z1.910
;TYPE:WALL-OUTER
G1 F1200 X101.283 Y101.104 E12.60484
G1 X101.704 Y100.876 E12.61676
G1 X101.915 Y100.822 E12.62218
G1 X100.642 Y103.432 E12.69443
G1 X100.551 Y103.178 E12.70115
G1 X100.495 Y102.908 E12.70801
G1 X100.482 Y102.588 E12.71598
G1 X100.530 Y102.237 E12.72479
G1 X100.677 Y101.819 E12.73582
G1 X100.864 Y101.514 E12.74472
G1 X101.039 Y101.310 E12.75141
G1 F3000 E9.25141
G0 F3600 X102.835 Y100.792
G1 F3000 E12.75141
G1 F1200 X103.148 Y100.892 E12.75958
G1 X103.278 Y100.954 E12.76317
G1 X103.654 Y101.203 E12.77439
G1 X103.758 Y101.299 E12.77791
G1 X103.879 Y101.441 E12.78255
G1 X102.453 Y100.745 E12.82204
G1 X102.835 Y100.792 E12.83161
G1 F3000 E9.33161
G0 F3600 X104.196 Y101.966
G1 F3000 E12.83161
G1 F1200 X104.315 Y102.432 E12.84358
G1 X104.327 Y102.744 E12.85135
G1 X104.279 Y103.097 E12.86021
G1 X104.132 Y103.516 E12.87126
G1 X104.037 Y103.686 E12.87611
G1 X103.772 Y104.022 E12.88676
G1 X103.526 Y104.230 E12.89477
G1 X103.105 Y104.459 E12.90670
G1 X102.893 Y104.513 E12.91214
G1 X104.164 Y101.907 E12.98429
G1 X104.196 Y101.966 E12.98596
G1 F3000 E9.48596
G0 F3600 X101.975 Y104.542
G1 F3000 E12.98596
G1 F1200 X101.564 Y104.397 E12.99680
G1 X101.161 Y104.134 E13.00878
G1 X100.923 Y103.890 E13.01726
G1 X102.356 Y104.589 E13.05693
G1 X101.975 Y104.542 E13.06648
G1 F3000 E9.56648
G0 F3600 X100.625 Y102.274
;TYPE:FILL
G1 F3000 E13.06648
G1 F1500 X101.541 Y101.358 E13.09872
;LAYER:12
M117 Nb = 13 / 53
G0 F3600 X101.468 Y100.987 Z2.060
;TYPE:WALL-OUTER
G1 F1200 X101.697 Y100.878 E13.10503
G1 X101.915 Y100.822 E13.11063
G1 X100.645 Y103.427 E13.18274
G1 X100.513 Y103.009 E13.19365
G1 X100.482 Y102.749 E13.20016
G1 X100.521 Y102.274 E13.21202
G1 X100.675 Y101.822 E13.22390
G1 X100.837 Y101.552 E13.23174
G1 X101.078 Y101.275 E13.24087
G1 X101.468 Y100.987 E13.25294
G0 F3600 X102.953 Y100.822
G1 F1200 X103.295 Y100.963 E13.26214
G1 X103.558 Y101.129 E13.26988
G1 X103.797 Y101.342 E13.27785
G1 X103.876 Y101.440 E13.28098
G1 X102.453 Y100.745 E13.32039
G1 X102.953 Y100.822 E13.33297
G1 F3000 E9.83297
G0 F3600 X104.296 Y102.325
G1 F3000 E13.33297
G1 F1200 X104.327 Y102.585 E13.33949
G1 X104.288 Y103.060 E13.35135
G1 X104.134 Y103.511 E13.36321
G1 X103.941 Y103.823 E13.37233
G1 X103.732 Y104.058 E13.38016
G1 X103.347 Y104.343 E13.39208
G1 X102.953 Y104.512 E13.40275
G1 X102.887 Y104.526 E13.40443
G1 X104.164 Y101.907 E13.47693
G1 X104.296 Y102.325 E13.48783
G1 F3000 E9.98783
G0 F3600 X101.855 Y104.512
G1 F3000 E13.48783
G1 F1200 X101.517 Y104.374 E13.49692
G1 X101.251 Y104.205 E13.50476
G1 X100.927 Y103.891 E13.51599
G1 X102.356 Y104.589 E13.55556
G1 X101.855 Y104.512 E13.56817
G1 F3000 E10.06817
G0 F3600 X100.625 Y102.274
;TYPE:FILL
G1 F3000 E13.56817
G1 F1500 X101.543 Y101.356 E13.60048
;LAYER:13
M117 Nb = 14 / 53
G0 F3600 X101.422 Y101.013 Z2.210
;TYPE:WALL-OUTER
G1 F1200 X101.757 Y100.856 E13.60968
G1 X101.918 Y100.817 E13.61380
G1 X100.643 Y103.430 E13.68615
G1 X100.614 Y103.370 E13.68781
G1 X100.495 Y102.902 E13.69982
G1 X100.482 Y102.590 E13.70759
G1 X100.535 Y102.215 E13.71702
G1 X100.610 Y101.973 E13.72332
G1 X100.781 Y101.639 E13.73266
G1 X101.085 Y101.268 E13.74459
G1 X101.422 Y101.013 E13.75511
G0 F3600 X102.857 Y100.797
G1 F1200 X103.105 Y100.874 E13.76157
G1 X103.290 Y100.960 E13.76665
G1 X103.689 Y101.238 E13.77875
G1 X103.868 Y101.436 E13.78539
G1 X102.453 Y100.745 E13.82457
G1 X102.857 Y100.797 E13.83471
G1 F3000 E10.33471
G0 F3600 X104.194 Y101.959
G1 F3000 E13.83471
G1 F1200 X104.315 Y102.432 E13.84686
G1 X104.327 Y102.743 E13.85460
G1 X104.274 Y103.119 E13.86405
G1 X104.199 Y103.361 E13.87035
G1 X103.972 Y103.783 E13.88228
G1 X103.651 Y104.132 E13.89408
G1 X103.249 Y104.396 E13.90604
G1 X102.890 Y104.519 E13.91548
G1 X104.168 Y101.899 E13.98802
G1 X104.194 Y101.959 E13.98965
G1 F3000 E10.48965
G0 F3600 X102.011 Y104.551
G1 F3000 E13.98965
G1 F1200 X101.707 Y104.461 E13.99754
G1 X101.375 Y104.291 E14.00682
G1 X101.045 Y104.029 E14.01730
G1 X100.945 Y103.901 E14.02134
G1 X102.332 Y104.577 E14.05974
G1 X102.011 Y104.551 E14.06775
G1 F3000 E10.56775
G0 F3600 X100.628 Y102.271
;TYPE:FILL
G1 F3000 E14.06775
G1 F1500 X101.539 Y101.360 E14.09981
G0 F3600 X101.580 Y101.275
;TYPE:SKIN
G1 F1500 X100.702 Y102.153 E14.13070
G0 F3600 X101.044 Y102.375
G1 F1500 X100.593 Y102.827 E14.14659
;LAYER:14
M117 Nb = 15 / 53
G0 F3600 X100.495 Y102.906 Z2.360
;TYPE:WALL-OUTER
G1 F1200 X100.482 Y102.584 E14.15461
G1 X100.519 Y102.278 E14.16228
G1 X100.675 Y101.823 E14.17425
G1 X100.878 Y101.498 E14.18378
G1 X101.047 Y101.302 E14.19022
G1 X101.150 Y101.207 E14.19371
G1 X101.564 Y100.936 E14.20602
G1 X101.852 Y100.823 E14.21372
G1 X101.922 Y100.808 E14.21550
G1 X100.643 Y103.430 E14.28809
G1 X100.561 Y103.220 E14.29370
G1 X100.495 Y102.906 E14.30169
G0 F3600 X101.046 Y104.031
G1 F1200 X100.922 Y103.889 E14.30638
G1 X102.356 Y104.589 E14.34608
G1 X102.322 Y104.590 E14.34693
G1 X102.016 Y104.553 E14.35460
G1 X101.560 Y104.397 E14.36659
G1 X101.286 Y104.233 E14.37454
G1 X101.046 Y104.031 E14.38234
G1 F3000 E10.88234
G0 F3600 X102.957 Y104.511
G1 F3000 E14.38234
G1 F1200 X102.887 Y104.526 E14.38412
G1 X104.162 Y101.912 E14.45649
G1 X104.250 Y102.121 E14.46214
G1 X104.288 Y102.271 E14.46599
G1 X104.327 Y102.581 E14.47376
G1 X104.288 Y103.060 E14.48572
G1 X104.133 Y103.515 E14.49768
G1 X103.979 Y103.776 E14.50522
G1 X103.761 Y104.033 E14.51360
G1 X103.659 Y104.127 E14.51706
G1 X103.245 Y104.398 E14.52937
G1 X102.957 Y104.511 E14.53707
G1 F3000 E11.03707
G0 F3600 X103.868 Y101.418
G1 F3000 E14.53707
G1 F1200 X103.887 Y101.445 E14.53789
G1 X102.453 Y100.745 E14.57759
G1 X102.487 Y100.744 E14.57844
G1 X102.792 Y100.781 E14.58609
G1 X103.108 Y100.875 E14.59429
G1 X103.299 Y100.965 E14.59954
G1 X103.528 Y101.104 E14.60621
G1 X103.693 Y101.238 E14.61150
G1 X103.868 Y101.418 E14.61774
G1 F3000 E11.11774
G0 F3600 X101.540 Y101.359
;TYPE:FILL
G1 F3000 E14.61774
G1 F1500 X100.626 Y102.273 E14.64991
;LAYER:15
M117 Nb = 16 / 53
G0 F3600 X100.494 Y102.432 Z2.510
;TYPE:WALL-OUTER
G1 F1200 X100.559 Y102.122 E14.65779
G1 X100.751 Y101.685 E14.66967
G1 X100.985 Y101.371 E14.67941
G1 X101.284 Y101.103 E14.68940
G1 X101.707 Y100.874 E14.70137
G1 X101.921 Y100.810 E14.70693
G1 X100.641 Y103.434 E14.77957
G1 X100.521 Y103.064 E14.78925
G1 X100.482 Y102.751 E14.79710
G1 X100.494 Y102.432 E14.80504
G1 F3000 E11.30504
G0 F3600 X101.044 Y104.028
G1 F3000 E14.80504
G1 F1200 X100.930 Y103.893 E14.80944
G1 X102.348 Y104.585 E14.84870
G1 X102.169 Y104.578 E14.85316
G1 X101.860 Y104.513 E14.86102
G1 X101.421 Y104.321 E14.87294
G1 X101.044 Y104.028 E14.88482
G1 F3000 E11.38482
G0 F3600 X102.956 Y104.512
G1 F3000 E14.88482
G1 F1200 X102.885 Y104.530 E14.88664
G1 X104.164 Y101.907 E14.95926
G1 X104.198 Y101.969 E14.96102
G1 X104.289 Y102.276 E14.96898
G1 X104.327 Y102.582 E14.97666
G1 X104.315 Y102.903 E14.98465
G1 X104.249 Y103.214 E14.99256
G1 X104.059 Y103.652 E15.00444
G1 X103.827 Y103.961 E15.01405
G1 X103.523 Y104.233 E15.02420
G1 X103.181 Y104.427 E15.03399
G1 X102.956 Y104.512 E15.03997
G1 F3000 E11.53997
G0 F3600 X103.577 Y101.143
G1 F3000 E15.03997
G1 F1200 X103.873 Y101.424 E15.05013
G1 X102.476 Y100.757 E15.08865
G1 X102.799 Y100.783 E15.09671
G1 X103.171 Y100.903 E15.10644
G1 X103.309 Y100.970 E15.11025
G1 X103.577 Y101.143 E15.11819
G1 F3000 E11.61819
G0 F3600 X101.541 Y101.358
;TYPE:FILL
G1 F3000 E15.11819
G1 F1500 X100.630 Y102.269 E15.15025
;LAYER:16
M117 Nb = 17 / 53
G0 F3600 X100.482 Y102.751 Z2.660
;TYPE:WALL-OUTER
G1 F1200 X100.494 Y102.436 E15.15809
G1 X100.613 Y101.965 E15.17018
G1 X100.752 Y101.682 E15.17803
G1 X100.934 Y101.425 E15.18586
G1 X101.161 Y101.197 E15.19387
G1 X101.280 Y101.105 E15.19761
G1 X101.559 Y100.938 E15.20570
G1 X101.856 Y100.821 E15.21364
G1 X101.924 Y100.804 E15.21539
G1 X100.645 Y103.427 E15.28800
G1 X100.611 Y103.365 E15.28976
G1 X100.520 Y103.059 E15.29771
G1 X100.482 Y102.751 E15.30543
G0 F3600 X101.105 Y104.084
G1 F1200 X100.938 Y103.897 E15.31167
G1 X102.348 Y104.585 E15.35070
G1 X102.173 Y104.578 E15.35506
G1 X101.702 Y104.459 E15.36715
G1 X101.421 Y104.321 E15.37494
G1 X101.105 Y104.084 E15.38477
G1 F3000 E11.88477
G0 F3600 X103.102 Y104.461
G1 F3000 E15.38477
G1 F1200 X102.888 Y104.524 E15.39032
G1 X104.164 Y101.907 E15.46277
G1 X104.198 Y101.969 E15.46453
G1 X104.289 Y102.276 E15.47249
G1 X104.327 Y102.582 E15.48017
G1 X104.315 Y102.899 E15.48806
G1 X104.196 Y103.369 E15.50012
G1 X104.060 Y103.650 E15.50789
G1 X103.872 Y103.912 E15.51591
G1 X103.648 Y104.137 E15.52381
G1 X103.532 Y104.227 E15.52747
G1 X103.102 Y104.461 E15.53965
G1 F3000 E12.03965
G0 F3600 X103.648 Y101.200
G1 F3000 E15.53965
G1 F1200 X103.864 Y101.434 E15.54757
G1 X102.462 Y100.750 E15.58639
G1 X102.641 Y100.757 E15.59085
G1 X102.953 Y100.822 E15.59878
G1 X103.242 Y100.935 E15.60650
G1 X103.648 Y101.200 E15.61856
G1 F3000 E12.11856
G0 F3600 X101.541 Y101.358
;TYPE:FILL
G1 F3000 E15.61856
G1 F1500 X100.642 Y102.257 E15.65020
;LAYER:17
M117 Nb = 18 / 53
G0 F3600 X100.482 Y102.591 Z2.810
;TYPE:WALL-OUTER
G1 F1200 X100.560 Y102.120 E15.66208
G1 X100.751 Y101.684 E15.67392
G1 X101.048 Y101.301 E15.68598
G1 X101.419 Y101.014 E15.69765
G1 X101.702 Y100.876 E15.70549
G1 X101.921 Y100.810 E15.71118
G1 X100.643 Y103.430 E15.78371
G1 X100.561 Y103.220 E15.78932
G1 X100.495 Y102.906 E15.79731
G1 X100.482 Y102.591 E15.80515
G1 F3000 E12.30515
G0 F3600 X101.223 Y104.184
G1 F3000 E15.80515
G1 F1200 X100.937 Y103.910 E15.81501
G1 X102.356 Y104.589 E15.85415
G1 X101.858 Y104.512 E15.86669
G1 X101.418 Y104.319 E15.87864
G1 X101.223 Y104.184 E15.88454
G1 F3000 E12.38454
G0 F3600 X102.957 Y104.511
G1 F3000 E15.88454
G1 F1200 X102.887 Y104.526 E15.88633
G1 X104.166 Y101.903 E15.95894
G1 X104.289 Y102.276 E15.96871
G1 X104.327 Y102.582 E15.97638
G1 X104.315 Y102.903 E15.98438
G1 X104.249 Y103.214 E15.99229
G1 X104.060 Y103.649 E16.00409
G1 X103.761 Y104.033 E16.01620
G1 X103.387 Y104.322 E16.02796
G1 X103.253 Y104.395 E16.03176
G1 X102.957 Y104.511 E16.03967
G1 F3000 E12.53967
G0 F3600 X103.519 Y101.098
G1 F3000 E16.03967
G1 F1200 X103.888 Y101.445 E16.05227
G1 X102.462 Y100.750 E16.09175
G1 X102.641 Y100.757 E16.09620
G1 X102.953 Y100.822 E16.10413
G1 X103.247 Y100.937 E16.11199
G1 X103.519 Y101.098 E16.11985
G1 F3000 E12.61985
G0 F3600 X101.540 Y101.359
;TYPE:FILL
G1 F3000 E16.11985
G1 F1500 X100.637 Y102.262 E16.15163
;LAYER:18
M117 Nb = 19 / 53
G0 F3600 X100.482 Y102.584 Z2.960
;TYPE:WALL-OUTER
G1 F1200 X100.519 Y102.278 E16.15930
G1 X100.674 Y101.827 E16.17116
G1 X100.940 Y101.419 E16.18328
G1 X101.154 Y101.204 E16.19083
G1 X101.564 Y100.936 E16.20302
G1 X101.852 Y100.823 E16.21072
G1 X101.922 Y100.808 E16.21250
G1 X100.643 Y103.430 E16.28509
G1 X100.562 Y103.225 E16.29058
G1 X100.495 Y102.906 E16.29869
G1 X100.482 Y102.584 E16.30670
G1 F3000 E12.80670
G0 F3600 X101.048 Y104.033
G1 F3000 E16.30670
G1 F1200 X100.945 Y103.901 E16.31087
G1 X102.356 Y104.589 E16.34993
G1 X102.322 Y104.590 E16.35078
G1 X102.016 Y104.553 E16.35845
G1 X101.560 Y104.397 E16.37044
G1 X101.286 Y104.233 E16.37839
G1 X101.048 Y104.033 E16.38612
G1 F3000 E12.88612
G0 F3600 X102.953 Y104.512
G1 F3000 E16.38612
G1 F1200 X102.887 Y104.526 E16.38780
G1 X104.166 Y101.903 E16.46041
G1 X104.289 Y102.276 E16.47019
G1 X104.327 Y102.582 E16.47786
G1 X104.314 Y102.911 E16.48605
G1 X104.291 Y103.053 E16.48963
G1 X104.133 Y103.514 E16.50176
G1 X103.975 Y103.780 E16.50945
G1 X103.648 Y104.136 E16.52148
G1 X103.393 Y104.318 E16.52928
G1 X102.953 Y104.512 E16.54124
G1 F3000 E13.04124
G0 F3600 X103.650 Y101.201
G1 F3000 E16.54124
G1 F1200 X103.872 Y101.423 E16.54906
G1 X102.453 Y100.745 E16.58819
G1 X102.891 Y100.806 E16.59919
G1 X103.245 Y100.937 E16.60858
G1 X103.650 Y101.201 E16.62061
G1 F3000 E13.12061
G0 F3600 X101.540 Y101.359
;TYPE:FILL
G1 F3000 E16.62061
G1 F1500 X100.626 Y102.273 E16.65278
;LAYER:19
M117 Nb = 20 / 53
G0 F3600 X100.494 Y102.432 Z3.110
;TYPE:WALL-OUTER
G1 F1200 X100.559 Y102.122 E16.66066
G1 X100.751 Y101.684 E16.67256
G1 X101.048 Y101.301 E16.68462
G1 X101.419 Y101.014 E16.69629
G1 X101.702 Y100.876 E16.70412
G1 X101.921 Y100.810 E16.70981
G1 X100.643 Y103.430 E16.78235
G1 X100.612 Y103.367 E16.78410
G1 X100.520 Y103.059 E16.79210
G1 X100.482 Y102.751 E16.79982
G1 X100.494 Y102.432 E16.80776
G1 F3000 E13.30776
G0 F3600 X101.167 Y104.141
G1 F3000 E16.80776
G1 F1200 X100.937 Y103.911 E16.81585
G1 X102.348 Y104.585 E16.85476
G1 X102.169 Y104.578 E16.85922
G1 X101.860 Y104.513 E16.86708
G1 X101.417 Y104.319 E16.87911
G1 X101.167 Y104.141 E16.88675
G1 F3000 E13.38675
G0 F3600 X103.104 Y104.460
G1 F3000 E16.88675
G1 F1200 X102.888 Y104.524 E16.89235
G1 X104.166 Y101.903 E16.96491
G1 X104.289 Y102.276 E16.97468
G1 X104.327 Y102.582 E16.98236
G1 X104.315 Y102.903 E16.99035
G1 X104.249 Y103.214 E16.99826
G1 X104.060 Y103.649 E17.01006
G1 X103.761 Y104.033 E17.02217
G1 X103.392 Y104.319 E17.03379
G1 X103.104 Y104.460 E17.04177
G1 F3000 E13.54177
G0 F3600 X103.519 Y101.098
G1 F3000 E17.04177
G1 F1200 X103.888 Y101.445 E17.05437
G1 X102.462 Y100.750 E17.09384
G1 X102.641 Y100.757 E17.09830
G1 X102.953 Y100.822 E17.10623
G1 X103.247 Y100.937 E17.11409
G1 X103.519 Y101.098 E17.12195
G1 F3000 E13.62195
G0 F3600 X101.541 Y101.358
;TYPE:FILL
G1 F3000 E17.12195
G1 F1500 X100.630 Y102.269 E17.15401
;LAYER:20
M117 Nb = 21 / 53
G0 F3600 X100.482 Y102.591 Z3.260
;TYPE:WALL-OUTER
G1 F1200 X100.560 Y102.120 E17.16589
G1 X100.753 Y101.680 E17.17784
G1 X100.934 Y101.425 E17.18563
G1 X101.161 Y101.197 E17.19363
G1 X101.277 Y101.107 E17.19728
G1 X101.707 Y100.874 E17.20945
G1 X101.921 Y100.810 E17.21501
G1 X100.643 Y103.430 E17.28755
G1 X100.561 Y103.220 E17.29316
G1 X100.495 Y102.906 E17.30114
G1 X100.482 Y102.591 E17.30898
G1 F3000 E13.80898
G0 F3600 X101.164 Y104.138
G1 F3000 E17.30898
G1 F1200 X100.945 Y103.900 E17.31703
G1 X102.356 Y104.589 E17.35610
G1 X101.857 Y104.512 E17.36867
G1 X101.556 Y104.395 E17.37670
G1 X101.426 Y104.324 E17.38039
G1 X101.164 Y104.138 E17.38838
G1 F3000 E13.88838
G0 F3600 X102.957 Y104.511
G1 F3000 E17.38838
G1 F1200 X102.887 Y104.526 E17.39017
G1 X104.168 Y101.899 E17.46289
G1 X104.289 Y102.276 E17.47274
G1 X104.327 Y102.582 E17.48041
G1 X104.315 Y102.903 E17.48841
G1 X104.250 Y103.213 E17.49629
G1 X104.132 Y103.515 E17.50436
G1 X103.975 Y103.780 E17.51202
G1 X103.767 Y104.027 E17.52006
G1 X103.522 Y104.233 E17.52802
G1 X103.250 Y104.396 E17.53591
G1 X102.957 Y104.511 E17.54374
G1 F3000 E14.04374
G0 F3600 X103.648 Y101.200
G1 F3000 E17.54374
G1 F1200 X103.864 Y101.434 E17.55167
G1 X102.462 Y100.750 E17.59048
G1 X102.641 Y100.757 E17.59494
G1 X102.953 Y100.822 E17.60287
G1 X103.242 Y100.935 E17.61059
G1 X103.648 Y101.200 E17.62266
G1 F3000 E14.12266
G0 F3600 X101.541 Y101.358
;TYPE:FILL
G1 F3000 E17.62266
G1 F1500 X100.637 Y102.262 E17.65447
;LAYER:21
M117 Nb = 22 / 53
G0 F3600 X100.560 Y102.119 Z3.410
;TYPE:WALL-OUTER
G1 F1200 X100.673 Y101.827 E17.66226
G1 X100.942 Y101.416 E17.67448
G1 X101.037 Y101.312 E17.67799
G1 X101.287 Y101.101 E17.68613
G1 X101.559 Y100.938 E17.69402
G1 X101.852 Y100.823 E17.70185
G1 X101.922 Y100.808 E17.70363
G1 X100.643 Y103.430 E17.77622
G1 X100.561 Y103.220 E17.78183
G1 X100.495 Y102.906 E17.78981
G1 X100.482 Y102.591 E17.79766
G1 X100.560 Y102.119 E17.80956
G1 F3000 E14.30956
G0 F3600 X101.163 Y104.137
G1 F3000 E17.80956
G1 F1200 X100.918 Y103.887 E17.81827
G1 X102.356 Y104.589 E17.85809
G1 X101.857 Y104.512 E17.87065
G1 X101.556 Y104.395 E17.87869
G1 X101.426 Y104.324 E17.88237
G1 X101.163 Y104.137 E17.89040
G1 F3000 E14.39040
G0 F3600 X102.957 Y104.511
G1 F3000 E17.89040
G1 F1200 X102.887 Y104.526 E17.89219
G1 X104.160 Y101.916 E17.96444
G1 X104.249 Y102.118 E17.96994
G1 X104.315 Y102.428 E17.97782
G1 X104.327 Y102.742 E17.98564
G1 X104.249 Y103.215 E17.99757
G1 X104.132 Y103.515 E18.00558
G1 X103.975 Y103.780 E18.01325
G1 X103.767 Y104.027 E18.02128
G1 X103.522 Y104.233 E18.02925
G1 X103.250 Y104.396 E18.03714
G1 X102.957 Y104.511 E18.04497
G1 F3000 E14.54497
G0 F3600 X103.647 Y101.198
G1 F3000 E18.04497
G1 F1200 X103.872 Y101.423 E18.05289
G1 X102.453 Y100.745 E18.09202
G1 X102.955 Y100.823 E18.10466
G1 X103.254 Y100.939 E18.11264
G1 X103.343 Y100.987 E18.11516
G1 X103.647 Y101.198 E18.12436
G1 F3000 E14.62436
G0 F3600 X101.540 Y101.359
;TYPE:FILL
G1 F3000 E18.12436
G1 F1500 X100.637 Y102.262 E18.15614
;LAYER:22
M117 Nb = 23 / 53
G0 F3600 X100.519 Y102.279 Z3.560
;TYPE:WALL-OUTER
G1 F1200 X100.612 Y101.968 E18.16422
G1 X100.752 Y101.682 E18.17214
G1 X100.934 Y101.425 E18.17998
G1 X101.157 Y101.201 E18.18784
G1 X101.416 Y101.017 E18.19575
G1 X101.851 Y100.823 E18.20760
G1 X101.922 Y100.808 E18.20940
G1 X100.643 Y103.430 E18.28199
G1 X100.614 Y103.370 E18.28365
G1 X100.495 Y102.902 E18.29567
G1 X100.482 Y102.584 E18.30359
G1 X100.519 Y102.279 E18.31123
G1 F3000 E14.81123
G0 F3600 X101.167 Y104.141
G1 F3000 E18.31123
G1 F1200 X100.937 Y103.911 E18.31933
G1 X102.356 Y104.589 E18.35846
G1 X102.322 Y104.590 E18.35930
G1 X102.017 Y104.553 E18.36695
G1 X101.705 Y104.460 E18.37505
G1 X101.423 Y104.322 E18.38286
G1 X101.167 Y104.141 E18.39066
G1 F3000 E14.89066
G0 F3600 X103.107 Y104.458
G1 F3000 E18.39066
G1 F1200 X102.893 Y104.513 E18.39616
G1 X104.168 Y101.899 E18.46853
G1 X104.194 Y101.959 E18.47016
G1 X104.315 Y102.432 E18.48231
G1 X104.327 Y102.742 E18.49002
G1 X104.288 Y103.061 E18.49802
G1 X104.197 Y103.366 E18.50594
G1 X104.060 Y103.650 E18.51379
G1 X103.872 Y103.912 E18.52181
G1 X103.652 Y104.133 E18.52957
G1 X103.392 Y104.319 E18.53752
G1 X103.107 Y104.458 E18.54541
G1 F3000 E15.04541
G0 F3600 X103.764 Y101.306
G1 F3000 E18.54541
G1 F1200 X103.879 Y101.441 E18.54983
G1 X102.453 Y100.745 E18.58931
G1 X102.487 Y100.744 E18.59016
G1 X102.792 Y100.781 E18.59780
G1 X103.105 Y100.874 E18.60593
G1 X103.364 Y101.000 E18.61309
G1 X103.515 Y101.095 E18.61753
G1 X103.764 Y101.306 E18.62565
G1 F3000 E15.12565
G0 F3600 X101.540 Y101.359
;TYPE:FILL
G1 F3000 E18.62565
G1 F1500 X100.624 Y102.275 E18.65789
;LAYER:23
M117 Nb = 24 / 53
G0 F3600 X100.520 Y102.275 Z3.710
;TYPE:WALL-OUTER
G1 F1200 X100.557 Y102.126 E18.66171
G1 X100.676 Y101.822 E18.66983
G1 X100.839 Y101.548 E18.67776
G1 X101.040 Y101.310 E18.68552
G1 X101.287 Y101.101 E18.69357
G1 X101.559 Y100.938 E18.70146
G1 X101.852 Y100.823 E18.70929
G1 X101.922 Y100.808 E18.71107
G1 X100.643 Y103.430 E18.78366
G1 X100.561 Y103.220 E18.78927
G1 X100.495 Y102.906 E18.79725
G1 X100.482 Y102.584 E18.80527
G1 X100.520 Y102.275 E18.81302
G1 F3000 E15.31302
G0 F3600 X101.048 Y104.032
G1 F3000 E18.81302
G1 F1200 X100.930 Y103.893 E18.81756
G1 X102.356 Y104.589 E18.85704
G1 X102.322 Y104.590 E18.85789
G1 X102.013 Y104.552 E18.86563
G1 X101.864 Y104.515 E18.86945
G1 X101.560 Y104.396 E18.87758
G1 X101.286 Y104.233 E18.88551
G1 X101.048 Y104.032 E18.89326
G1 F3000 E15.39326
G0 F3600 X102.957 Y104.511
G1 F3000 E18.89326
G1 F1200 X102.887 Y104.526 E18.89504
G1 X104.166 Y101.903 E18.96766
G1 X104.289 Y102.276 E18.97743
G1 X104.327 Y102.582 E18.98510
G1 X104.315 Y102.903 E18.99309
G1 X104.250 Y103.213 E19.00098
G1 X104.132 Y103.515 E19.00904
G1 X103.975 Y103.780 E19.01671
G1 X103.767 Y104.027 E19.02474
G1 X103.522 Y104.233 E19.03271
G1 X103.250 Y104.396 E19.04060
G1 X102.957 Y104.511 E19.04843
G1 F3000 E15.54843
G0 F3600 X103.641 Y101.192
G1 F3000 E19.04843
G1 F1200 X103.891 Y101.447 E19.05732
G1 X102.453 Y100.745 E19.09713
G1 X102.487 Y100.744 E19.09798
G1 X102.796 Y100.782 E19.10573
G1 X102.950 Y100.820 E19.10967
G1 X103.253 Y100.939 E19.11777
G1 X103.358 Y100.995 E19.12073
G1 X103.641 Y101.192 E19.12931
G1 F3000 E15.62931
G0 F3600 X101.540 Y101.359
;TYPE:FILL
G1 F3000 E19.12931
G1 F1500 X100.622 Y102.278 E19.16164
;LAYER:24
M117 Nb = 25 / 53
G0 F3600 X100.559 Y102.121 Z3.860
;TYPE:WALL-OUTER
G1 F1200 X100.676 Y101.822 E19.16963
G1 X100.839 Y101.548 E19.17756
G1 X101.044 Y101.304 E19.18549
G1 X101.266 Y101.115 E19.19274
G1 X101.558 Y100.938 E19.20124
G1 X101.856 Y100.821 E19.20921
G1 X101.924 Y100.804 E19.21095
G1 X100.643 Y103.430 E19.28365
G1 X100.559 Y103.216 E19.28937
G1 X100.521 Y103.064 E19.29327
G1 X100.482 Y102.751 E19.30112
G1 X100.494 Y102.432 E19.30906
G1 X100.559 Y102.121 E19.31697
G1 F3000 E15.81697
G0 F3600 X101.184 Y104.154
G1 F3000 E19.31697
G1 F1200 X100.918 Y103.887 E19.32635
G1 X102.348 Y104.585 E19.36594
G1 X102.169 Y104.578 E19.37040
G1 X101.859 Y104.513 E19.37828
G1 X101.556 Y104.395 E19.38637
G1 X101.281 Y104.230 E19.39435
G1 X101.184 Y104.154 E19.39742
G1 F3000 E15.89742
G0 F3600 X102.953 Y104.513
G1 F3000 E19.39742
G1 F1200 X102.885 Y104.530 E19.39916
G1 X104.166 Y101.903 E19.47189
G1 X104.289 Y102.276 E19.48166
G1 X104.327 Y102.582 E19.48933
G1 X104.315 Y102.903 E19.49732
G1 X104.250 Y103.213 E19.50521
G1 X104.132 Y103.515 E19.51327
G1 X103.975 Y103.780 E19.52094
G1 X103.761 Y104.033 E19.52918
G1 X103.543 Y104.219 E19.53631
G1 X103.251 Y104.396 E19.54481
G1 X102.953 Y104.513 E19.55278
G1 F3000 E16.05278
G0 F3600 X103.625 Y101.180
G1 F3000 E19.55278
G1 F1200 X103.888 Y101.445 E19.56207
G1 X102.474 Y100.755 E19.60122
G1 X102.781 Y100.779 E19.60888
G1 X103.103 Y100.873 E19.61722
G1 X103.376 Y101.005 E19.62477
G1 X103.625 Y101.180 E19.63234
G1 F3000 E16.13234
G0 F3600 X101.541 Y101.358
;TYPE:FILL
G1 F3000 E19.63234
G1 F1500 X100.630 Y102.269 E19.66440
;LAYER:25
M117 Nb = 26 / 53
G0 F3600 X100.559 Y102.121 Z4.010
;TYPE:WALL-OUTER
G1 F1200 X100.676 Y101.822 E19.67239
G1 X100.839 Y101.548 E19.68032
G1 X101.040 Y101.310 E19.68807
G1 X101.287 Y101.101 E19.69613
G1 X101.559 Y100.938 E19.70402
G1 X101.852 Y100.823 E19.71185
G1 X101.922 Y100.808 E19.71363
G1 X100.643 Y103.430 E19.78622
G1 X100.559 Y103.216 E19.79194
G1 X100.521 Y103.064 E19.79584
G1 X100.482 Y102.751 E19.80369
G1 X100.494 Y102.432 E19.81163
G1 X100.559 Y102.121 E19.81954
G1 F3000 E16.31954
G0 F3600 X101.048 Y104.032
G1 F3000 E19.81954
G1 F1200 X100.930 Y103.893 E19.82407
G1 X102.356 Y104.589 E19.86356
G1 X101.867 Y104.515 E19.87586
G1 X101.561 Y104.397 E19.88402
G1 X101.286 Y104.233 E19.89199
G1 X101.048 Y104.032 E19.89974
G1 F3000 E16.39974
G0 F3600 X102.957 Y104.511
G1 F3000 E19.89974
G1 F1200 X102.887 Y104.526 E19.90152
G1 X104.166 Y101.903 E19.97414
G1 X104.289 Y102.276 E19.98391
G1 X104.327 Y102.582 E19.99158
G1 X104.315 Y102.903 E19.99958
G1 X104.250 Y103.213 E20.00746
G1 X104.132 Y103.515 E20.01552
G1 X103.975 Y103.780 E20.02319
G1 X103.767 Y104.027 E20.03122
G1 X103.522 Y104.233 E20.03919
G1 X103.250 Y104.396 E20.04708
G1 X102.957 Y104.511 E20.05491
G1 F3000 E16.55491
G0 F3600 X103.644 Y101.195
G1 F3000 E20.05491
G1 F1200 X103.891 Y101.447 E20.06369
G1 X102.453 Y100.745 E20.10351
G1 X102.941 Y100.819 E20.11579
G1 X103.259 Y100.942 E20.12427
G1 X103.375 Y101.004 E20.12755
G1 X103.644 Y101.195 E20.13576
G1 F3000 E16.63576
G0 F3600 X101.540 Y101.359
;TYPE:FILL
G1 F3000 E20.13576
G1 F1500 X100.630 Y102.269 E20.16778
G0 F3600 X100.642 Y102.213
;TYPE:SKIN
G1 F1500 X101.582 Y101.273 E20.20086
G0 F3600 X101.046 Y102.374
G1 F1500 X100.591 Y102.828 E20.21685
G1 F3000 E16.71685
G0 F3600 X103.196 Y104.173
G1 F3000 E20.21685
G1 F1500 X104.131 Y103.239 E20.24974
G0 F3600 X103.680 Y103.125
G1 F1500 X104.225 Y102.580 E20.26891
;LAYER:26
M117 Nb = 27 / 53
G0 F3600 X104.327 Y102.582 Z4.160
;TYPE:WALL-OUTER
G1 F1200 X104.315 Y102.903 E20.27691
G1 X104.250 Y103.213 E20.28479
G1 X104.132 Y103.515 E20.29286
G1 X103.975 Y103.780 E20.30052
G1 X103.767 Y104.027 E20.30856
G1 X103.522 Y104.233 E20.31652
G1 X103.250 Y104.396 E20.32441
G1 X102.957 Y104.511 E20.33224
G1 X102.887 Y104.526 E20.33402
G1 X104.166 Y101.903 E20.40664
G1 X104.289 Y102.276 E20.41641
G1 X104.327 Y102.582 E20.42408
G1 F3000 E16.92408
G0 F3600 X103.646 Y101.197
G1 F3000 E20.42408
G1 F1200 X103.891 Y101.447 E20.43279
G1 X102.453 Y100.745 E20.47261
G1 X102.487 Y100.744 E20.47346
G1 X102.792 Y100.781 E20.48110
G1 X103.104 Y100.874 E20.48920
G1 X103.385 Y101.010 E20.49697
G1 X103.646 Y101.197 E20.50496
G1 F3000 E17.00496
G0 F3600 X101.852 Y100.823
G1 F3000 E20.50496
G1 F1200 X101.922 Y100.808 E20.50674
G1 X100.643 Y103.430 E20.57933
G1 X100.612 Y103.367 E20.58108
G1 X100.520 Y103.059 E20.58908
G1 X100.482 Y102.751 E20.59680
G1 X100.494 Y102.432 E20.60474
G1 X100.559 Y102.121 E20.61265
G1 X100.676 Y101.822 E20.62064
G1 X100.839 Y101.548 E20.62857
G1 X101.040 Y101.310 E20.63632
G1 X101.287 Y101.101 E20.64437
G1 X101.559 Y100.938 E20.65226
G1 X101.852 Y100.823 E20.66009
G1 F3000 E17.16009
G0 F3600 X101.163 Y104.137
G1 F3000 E20.66009
G1 F1200 X100.937 Y103.911 E20.66805
G1 X102.356 Y104.589 E20.70718
G1 X102.322 Y104.590 E20.70803
G1 X102.017 Y104.553 E20.71567
G1 X101.705 Y104.460 E20.72377
G1 X101.422 Y104.322 E20.73161
G1 X101.163 Y104.137 E20.73953
G1 F3000 E17.23953
G0 F3600 X100.630 Y102.269
;TYPE:FILL
G1 F3000 E20.73953
G1 F1500 X101.540 Y101.359 E20.77155
G0 F3600 X101.573 Y101.292
;TYPE:SKIN
G1 F1500 X101.261 Y101.262 E20.77694
G1 X101.296 Y101.861 E20.78693
G1 X100.769 Y101.898 E20.79903
G1 X100.926 Y102.620 E20.81101
G1 X100.588 Y102.563 E20.81954
G1 F3000 E17.31954
G0 F3600 X103.220 Y104.067
G1 F3000 E20.81954
G1 F1500 X103.522 Y104.087 E20.82452
G1 X103.497 Y103.498 E20.83426
G1 X104.026 Y103.462 E20.84633
G1 X103.867 Y102.739 E20.85838
G1 X104.218 Y102.808 E20.86728
;LAYER:27
M117 Nb = 28 / 53
G0 F3600 X104.327 Y102.753 Z4.310
;TYPE:WALL-OUTER
G1 F1200 X104.289 Y103.060 E20.87498
G1 X104.195 Y103.371 E20.88306
G1 X104.055 Y103.658 E20.89101
G1 X103.872 Y103.912 E20.89880
G1 X103.655 Y104.130 E20.90645
G1 X103.240 Y104.401 E20.91878
G1 X102.952 Y104.512 E20.92646
G1 X102.887 Y104.526 E20.92812
G1 X104.168 Y101.900 E21.00082
G1 X104.248 Y102.117 E21.00658
G1 X104.315 Y102.428 E21.01449
G1 X104.327 Y102.753 E21.02258
G1 F3000 E17.52258
G0 F3600 X103.650 Y101.201
G1 F3000 E21.02258
G1 F1200 X103.892 Y101.447 E21.03117
G1 X102.453 Y100.745 E21.07101
G1 X102.492 Y100.744 E21.07198
G1 X102.798 Y100.782 E21.07965
G1 X103.101 Y100.873 E21.08753
G1 X103.393 Y101.016 E21.09562
G1 X103.650 Y101.201 E21.10350
G1 F3000 E17.60350
G0 F3600 X101.860 Y100.821
G1 F3000 E21.10350
G1 F1200 X101.922 Y100.808 E21.10507
G1 X100.643 Y103.430 E21.17766
G1 X100.560 Y103.215 E21.18340
G1 X100.495 Y102.906 E21.19125
G1 X100.482 Y102.580 E21.19937
G1 X100.520 Y102.274 E21.20704
G1 X100.617 Y101.953 E21.21539
G1 X100.672 Y101.827 E21.21881
G1 X100.839 Y101.548 E21.22690
G1 X101.048 Y101.301 E21.23495
G1 X101.156 Y101.201 E21.23861
G1 X101.423 Y101.012 E21.24675
G1 X101.557 Y100.939 E21.25055
G1 X101.860 Y100.821 E21.25864
G1 F3000 E17.75864
G0 F3600 X101.159 Y104.133
G1 F3000 E21.25864
G1 F1200 X100.920 Y103.888 E21.26716
G1 X102.356 Y104.589 E21.30692
G1 X102.318 Y104.590 E21.30787
G1 X102.012 Y104.552 E21.31554
G1 X101.703 Y104.459 E21.32357
G1 X101.416 Y104.318 E21.33152
G1 X101.159 Y104.133 E21.33940
G1 F3000 E17.83940
G0 F3600 X100.623 Y102.276
;TYPE:FILL
G1 F3000 E21.33940
G1 F1500 X101.541 Y101.358 E21.37171
G0 F3600 X101.582 Y101.273
;TYPE:SKIN
G1 F1500 X100.642 Y102.213 E21.40479
G0 F3600 X101.045 Y102.374
G1 F1500 X100.593 Y102.827 E21.42071
G1 F3000 E17.92071
G0 F3600 X103.207 Y104.163
G1 F3000 E21.42071
G1 F1500 X104.127 Y103.242 E21.45310
G0 F3600 X103.682 Y103.123
G1 F1500 X104.219 Y102.586 E21.47200
;LAYER:28
M117 Nb = 29 / 53
G0 F3600 X104.327 Y102.747 Z4.460
;TYPE:WALL-OUTER
G1 F1200 X104.286 Y103.073 E21.48017
G1 X104.194 Y103.376 E21.48805
G1 X104.132 Y103.515 E21.49184
G1 X103.964 Y103.796 E21.49999
G1 X103.759 Y104.034 E21.50780
G1 X103.387 Y104.323 E21.51952
G1 X103.244 Y104.398 E21.52354
G1 X102.885 Y104.529 E21.53305
G1 X104.160 Y101.915 E21.60542
G1 X104.249 Y102.118 E21.61093
G1 X104.315 Y102.428 E21.61882
G1 X104.327 Y102.747 E21.62676
G1 F3000 E18.12676
G0 F3600 X103.654 Y101.204
G1 F3000 E21.62676
G1 F1200 X103.889 Y101.446 E21.63516
G1 X102.453 Y100.745 E21.67492
G1 X102.486 Y100.744 E21.67574
G1 X102.806 Y100.784 E21.68377
G1 X103.101 Y100.873 E21.69143
G1 X103.401 Y101.021 E21.69976
G1 X103.654 Y101.204 E21.70753
G1 F3000 E18.20753
G0 F3600 X101.719 Y100.869
G1 F3000 E21.70753
G1 F1200 X101.924 Y100.805 E21.71287
G1 X100.644 Y103.429 E21.78552
G1 X100.555 Y103.198 E21.79168
G1 X100.496 Y102.914 E21.79889
G1 X100.482 Y102.586 E21.80706
G1 X100.523 Y102.261 E21.81521
G1 X100.615 Y101.958 E21.82309
G1 X100.679 Y101.813 E21.82704
G1 X100.843 Y101.542 E21.83492
G1 X101.053 Y101.297 E21.84295
G1 X101.299 Y101.093 E21.85090
G1 X101.427 Y101.010 E21.85470
G1 X101.719 Y100.869 E21.86276
G1 F3000 E18.36276
G0 F3600 X101.155 Y104.130
G1 F3000 E21.86276
G1 F1200 X100.922 Y103.889 E21.87111
G1 X102.356 Y104.589 E21.91081
G1 X102.324 Y104.590 E21.91161
G1 X101.999 Y104.549 E21.91976
G1 X101.697 Y104.457 E21.92762
G1 X101.410 Y104.315 E21.93558
G1 X101.155 Y104.130 E21.94342
G1 F3000 E18.44342
G0 F3600 X100.622 Y102.277
;TYPE:FILL
G1 F3000 E21.94342
G1 F1500 X101.543 Y101.356 E21.97583
G0 F3600 X101.575 Y101.293
;TYPE:SKIN
G1 F1500 X101.260 Y101.261 E21.98140
G1 X101.296 Y101.861 E21.99137
G1 X100.768 Y101.897 E22.00348
G1 X100.927 Y102.620 E22.01549
G1 X100.585 Y102.560 E22.02413
G1 F3000 E18.52413
G0 F3600 X103.220 Y104.067
G1 F3000 E22.02413
G1 F1500 X103.524 Y104.088 E22.02924
G1 X103.497 Y103.498 E22.03900
G1 X104.026 Y103.462 E22.05103
G1 X103.867 Y102.739 E22.06313
G1 X104.219 Y102.809 E22.07206
;LAYER:29
M117 Nb = 30 / 53
G0 F3600 X104.314 Y102.422 Z4.610
;TYPE:WALL-OUTER
G1 F1200 X104.327 Y102.746 E22.08013
G1 X104.285 Y103.076 E22.08841
G1 X104.132 Y103.516 E22.10000
G1 X104.050 Y103.666 E22.10425
G1 X103.860 Y103.926 E22.11226
G1 X103.634 Y104.147 E22.12013
G1 X103.371 Y104.331 E22.12812
G1 X103.236 Y104.402 E22.13191
G1 X102.890 Y104.520 E22.14101
G1 X104.166 Y101.903 E22.21345
G1 X104.289 Y102.276 E22.22323
G1 X104.314 Y102.422 E22.22691
G0 F3600 X103.663 Y101.212
G1 F1200 X103.884 Y101.438 E22.23478
G1 X102.453 Y100.745 E22.27434
G1 X102.485 Y100.744 E22.27514
G1 X102.814 Y100.786 E22.28339
G1 X103.103 Y100.874 E22.29091
G1 X103.405 Y101.024 E22.29930
G1 X103.663 Y101.212 E22.30724
G1 F3000 E18.80724
G0 F3600 X101.704 Y100.875
G1 F3000 E22.30724
G1 F1200 X101.921 Y100.810 E22.31288
G1 X100.645 Y103.426 E22.38530
G1 X100.520 Y103.057 E22.39500
G1 X100.496 Y102.914 E22.39860
G1 X100.482 Y102.587 E22.40675
G1 X100.524 Y102.258 E22.41500
G1 X100.676 Y101.820 E22.42654
G1 X100.849 Y101.536 E22.43481
G1 X101.059 Y101.292 E22.44282
G1 X101.300 Y101.092 E22.45062
G1 X101.704 Y100.875 E22.46203
G1 F3000 E18.96203
G0 F3600 X101.030 Y104.012
G1 F3000 E22.46203
G1 F1200 X100.931 Y103.894 E22.46586
G1 X102.356 Y104.589 E22.50531
G1 X101.996 Y104.548 E22.51432
G1 X101.558 Y104.396 E22.52586
G1 X101.274 Y104.223 E22.53414
G1 X101.030 Y104.012 E22.54216
G1 F3000 E19.04216
G0 F3600 X100.623 Y102.276
;TYPE:FILL
G1 F3000 E22.54216
G1 F1500 X101.541 Y101.358 E22.57447
G0 F3600 X101.583 Y101.272
;TYPE:SKIN
G1 F1500 X100.646 Y102.210 E22.60746
G0 F3600 X101.046 Y102.374
G1 F1500 X100.593 Y102.827 E22.62340
G1 F3000 E19.12340
G0 F3600 X103.190 Y104.179
G1 F3000 E22.62340
G1 F1500 X104.116 Y103.253 E22.65598
G0 F3600 X103.679 Y103.126
G1 F1500 X104.219 Y102.587 E22.67497
;LAYER:30
M117 Nb = 31 / 53
G0 F3600 X104.327 Y102.746 Z4.760
;TYPE:WALL-OUTER
G1 F1200 X104.283 Y103.085 E22.68347
G1 X104.187 Y103.390 E22.69143
G1 X104.059 Y103.652 E22.69869
G1 X103.875 Y103.907 E22.70651
G1 X103.625 Y104.154 E22.71525
G1 X103.369 Y104.332 E22.72301
G1 X102.925 Y104.518 E22.73499
G1 X102.887 Y104.527 E22.73596
G1 X104.159 Y101.917 E22.80821
G1 X104.255 Y102.145 E22.81436
G1 X104.315 Y102.428 E22.82156
G1 X104.327 Y102.746 E22.82948
G1 F3000 E19.32948
G0 F3600 X103.649 Y101.199
G1 F3000 E22.82948
G1 F1200 X103.891 Y101.447 E22.83810
G1 X102.453 Y100.745 E22.87792
G1 X102.485 Y100.744 E22.87872
G1 X102.826 Y100.789 E22.88728
G1 X103.100 Y100.872 E22.89440
G1 X103.387 Y101.012 E22.90235
G1 X103.649 Y101.199 E22.91036
G1 F3000 E19.41036
G0 F3600 X101.733 Y100.865
G1 F3000 E22.91036
G1 F1200 X101.921 Y100.811 E22.91522
G1 X100.650 Y103.417 E22.98737
G1 X100.554 Y103.188 E22.99355
G1 X100.495 Y102.907 E23.00069
G1 X100.482 Y102.587 E23.00866
G1 X100.526 Y102.249 E23.01714
G1 X100.624 Y101.939 E23.02523
G1 X100.750 Y101.685 E23.03229
G1 X100.931 Y101.429 E23.04009
G1 X101.183 Y101.181 E23.04889
G1 X101.443 Y101.001 E23.05675
G1 X101.733 Y100.865 E23.06472
G1 F3000 E19.56472
G0 F3600 X101.160 Y104.135
G1 F3000 E23.06472
G1 F1200 X100.918 Y103.887 E23.07335
G1 X102.356 Y104.589 E23.11316
G1 X101.987 Y104.546 E23.12241
G1 X101.676 Y104.448 E23.13052
G1 X101.425 Y104.324 E23.13749
G1 X101.160 Y104.135 E23.14559
G1 F3000 E19.64559
G0 F3600 X100.622 Y102.277
;TYPE:FILL
G1 F3000 E23.14559
G1 F1500 X101.541 Y101.358 E23.17793
G0 F3600 X101.574 Y101.293
;TYPE:SKIN
G1 F1500 X101.265 Y101.266 E23.18334
G1 X101.296 Y101.861 E23.19311
G1 X100.768 Y101.897 E23.20529
G1 X100.927 Y102.620 E23.21725
G1 X100.585 Y102.561 E23.22588
G1 F3000 E19.72588
G0 F3600 X103.220 Y104.067
G1 F3000 E23.22588
G1 F1500 X103.520 Y104.085 E23.23093
G1 X103.497 Y103.498 E23.24045
G1 X104.026 Y103.462 E23.25252
G1 X103.867 Y102.739 E23.26457
G1 X104.217 Y102.807 E23.27344
;LAYER:31
M117 Nb = 32 / 53
G0 F3600 X104.327 Y102.742 Z4.910
;TYPE:WALL-OUTER
G1 F1200 X104.288 Y103.061 E23.28144
G1 X104.197 Y103.366 E23.28936
G1 X104.061 Y103.648 E23.29715
G1 X103.765 Y104.028 E23.30913
G1 X103.526 Y104.230 E23.31692
G1 X103.096 Y104.464 E23.32910
G1 X102.887 Y104.526 E23.33453
G1 X104.162 Y101.912 E23.40689
G1 X104.208 Y102.002 E23.40941
G1 X104.315 Y102.424 E23.42024
G1 X104.327 Y102.742 E23.42816
G1 F3000 E19.92816
G0 F3600 X103.766 Y101.308
G1 F3000 E23.42816
G1 F1200 X103.875 Y101.439 E23.43240
G1 X102.453 Y100.745 E23.47177
G1 X102.487 Y100.744 E23.47262
G1 X102.792 Y100.781 E23.48026
G1 X103.104 Y100.874 E23.48837
G1 X103.385 Y101.011 E23.49614
G1 X103.766 Y101.308 E23.50817
G1 F3000 E20.00817
G0 F3600 X101.852 Y100.823
G1 F3000 E23.50817
G1 F1200 X101.922 Y100.808 E23.50995
G1 X100.645 Y103.427 E23.58245
G1 X100.608 Y103.359 E23.58437
G1 X100.495 Y102.906 E23.59599
G1 X100.482 Y102.584 E23.60401
G1 X100.519 Y102.279 E23.61166
G1 X100.612 Y101.968 E23.61973
G1 X100.750 Y101.685 E23.62757
G1 X100.958 Y101.400 E23.63635
G1 X101.287 Y101.100 E23.64743
G1 X101.559 Y100.938 E23.65530
G1 X101.852 Y100.823 E23.66314
G1 F3000 E20.16314
G0 F3600 X101.041 Y104.026
G1 F3000 E23.66314
G1 F1200 X100.918 Y103.887 E23.66775
G1 X102.356 Y104.589 E23.70757
G1 X102.322 Y104.590 E23.70842
G1 X102.017 Y104.553 E23.71606
G1 X101.705 Y104.460 E23.72416
G1 X101.424 Y104.323 E23.73194
G1 X101.041 Y104.026 E23.74400
G1 F3000 E20.24400
G0 F3600 X100.624 Y102.275
;TYPE:FILL
G1 F3000 E23.74400
G1 F1500 X101.541 Y101.358 E23.77627
G0 F3600 X101.582 Y101.273
;TYPE:SKIN
G1 F1500 X100.643 Y102.212 E23.80931
G0 F3600 X101.046 Y102.374
G1 F1500 X100.592 Y102.828 E23.82529
G1 F3000 E20.32529
G0 F3600 X103.204 Y104.166
G1 F3000 E23.82529
G1 F1500 X104.128 Y103.241 E23.85782
G0 F3600 X103.681 Y103.124
G1 F1500 X104.219 Y102.586 E23.87675
;LAYER:32
M117 Nb = 33 / 53
G0 F3600 X104.258 Y102.156 Z5.060
;TYPE:WALL-OUTER
G1 F1200 X104.315 Y102.428 E23.88367
G1 X104.327 Y102.744 E23.89154
G1 X104.279 Y103.098 E23.90043
G1 X104.131 Y103.516 E23.91146
G1 X103.975 Y103.780 E23.91909
G1 X103.734 Y104.056 E23.92821
G1 X103.486 Y104.257 E23.93615
G1 X103.213 Y104.412 E23.94396
G1 X102.954 Y104.512 E23.95087
G1 X102.887 Y104.526 E23.95257
G1 X104.164 Y101.908 E24.02505
G1 X104.212 Y102.009 E24.02784
G1 X104.258 Y102.156 E24.03167
G0 F3600 X103.675 Y101.223
G1 F1200 X103.872 Y101.423 E24.03865
G1 X102.453 Y100.745 E24.07779
G1 X102.843 Y100.793 E24.08756
G1 X103.096 Y100.870 E24.09414
G1 X103.526 Y101.104 E24.10633
G1 X103.675 Y101.223 E24.11107
G1 F3000 E20.61107
G0 F3600 X101.858 Y100.822
G1 F3000 E24.11107
G1 F1200 X101.922 Y100.808 E24.11270
G1 X100.645 Y103.427 E24.18520
G1 X100.598 Y103.325 E24.18800
G1 X100.495 Y102.906 E24.19873
G1 X100.482 Y102.588 E24.20665
G1 X100.530 Y102.238 E24.21544
G1 X100.699 Y101.778 E24.22764
G1 X100.835 Y101.553 E24.23418
G1 X101.071 Y101.282 E24.24312
G1 X101.459 Y100.994 E24.25514
G1 X101.858 Y100.822 E24.26596
G1 F3000 E20.76596
G0 F3600 X101.255 Y104.209
G1 F3000 E24.26596
G1 F1200 X100.920 Y103.888 E24.27750
G1 X102.356 Y104.589 E24.31726
G1 X101.976 Y104.542 E24.32679
G1 X101.519 Y104.373 E24.33891
G1 X101.255 Y104.209 E24.34665
G1 F3000 E20.84665
G0 F3600 X100.626 Y102.273
;TYPE:FILL
G1 F3000 E24.34665
G1 F1500 X101.543 Y101.356 E24.37892
G0 F3600 X101.575 Y101.293
;TYPE:SKIN
G1 F1500 X101.266 Y101.267 E24.38416
G1 X101.296 Y101.861 E24.39406
G1 X100.772 Y101.901 E24.40622
G1 X100.926 Y102.620 E24.41787
G1 X100.586 Y102.562 E24.42645
G1 F3000 E20.92645
G0 F3600 X103.220 Y104.067
G1 F3000 E24.42645
G1 F1500 X103.522 Y104.087 E24.43147
G1 X103.498 Y103.498 E24.44117
G1 X104.023 Y103.460 E24.45322
G1 X103.867 Y102.739 E24.46509
G1 X104.216 Y102.806 E24.47393
;LAYER:33
M117 Nb = 34 / 53
G0 F3600 X103.527 Y102.687 Z5.210
;TYPE:WALL-INNER
G1 F1320 X103.475 Y103.000 E24.48183
G1 X103.405 Y103.172 E24.48645
G1 X103.229 Y103.427 E24.49416
G1 X103.118 Y103.533 E24.49798
G1 X102.903 Y103.670 E24.50432
G1 X102.614 Y103.770 E24.51193
G1 X102.475 Y103.788 E24.51542
G1 X102.162 Y103.762 E24.52323
G1 X101.960 Y103.699 E24.52850
G1 X101.852 Y103.645 E24.53150
G1 X101.597 Y103.446 E24.53955
G1 X101.504 Y103.337 E24.54312
G1 X101.362 Y103.076 E24.55051
G1 X101.289 Y102.784 E24.55800
G1 X101.283 Y102.644 E24.56149
G1 X101.334 Y102.337 E24.56923
G1 X101.413 Y102.144 E24.57442
G1 X101.503 Y102.001 E24.57862
G1 X101.676 Y101.815 E24.58494
G1 X101.911 Y101.662 E24.59192
G1 X102.195 Y101.564 E24.59940
G1 X102.334 Y101.546 E24.60288
G1 X102.654 Y101.573 E24.61088
G1 X102.811 Y101.619 E24.61495
G1 X102.961 Y101.692 E24.61910
G1 X103.210 Y101.886 E24.62695
G1 X103.307 Y102.000 E24.63068
G1 X103.448 Y102.260 E24.63804
G1 X103.521 Y102.548 E24.64543
G1 X103.527 Y102.687 E24.64889
G0 F3600 X103.927 Y102.717
G1 F1320 X103.862 Y103.108 E24.65875
G1 X103.759 Y103.362 E24.66557
G1 X103.533 Y103.687 E24.67542
G1 X103.362 Y103.850 E24.68130
G1 X103.076 Y104.033 E24.68975
G1 X102.706 Y104.161 E24.69949
G1 X102.483 Y104.189 E24.70508
G1 X102.084 Y104.156 E24.71505
G1 X101.811 Y104.070 E24.72217
G1 X101.639 Y103.984 E24.72695
G1 X101.321 Y103.737 E24.73697
G1 X101.171 Y103.561 E24.74273
G1 X100.989 Y103.225 E24.75224
G1 X100.891 Y102.840 E24.76212
G1 X100.882 Y102.620 E24.76760
G1 X100.947 Y102.226 E24.77754
G1 X101.055 Y101.964 E24.78459
G1 X101.184 Y101.759 E24.79061
G1 X101.420 Y101.507 E24.79920
G1 X101.736 Y101.300 E24.80860
G1 X102.103 Y101.173 E24.81827
G1 X102.327 Y101.145 E24.82389
G1 X102.729 Y101.178 E24.83392
G1 X102.956 Y101.245 E24.83981
G1 X103.172 Y101.351 E24.84580
G1 X103.489 Y101.597 E24.85578
G1 X103.638 Y101.774 E24.86154
G1 X103.822 Y102.112 E24.87111
G1 X103.917 Y102.486 E24.88072
G1 X103.927 Y102.717 E24.88647
G0 F3600 X104.327 Y102.742
;TYPE:WALL-OUTER
G1 F1200 X104.248 Y103.217 E24.89845
G1 X104.113 Y103.551 E24.90742
G1 X103.836 Y103.951 E24.91952
G1 X103.613 Y104.162 E24.92716
G1 X103.251 Y104.395 E24.93787
G1 X102.795 Y104.552 E24.94987
G1 X102.491 Y104.590 E24.95750
G1 X102.012 Y104.551 E24.96946
G1 X101.656 Y104.439 E24.97874
G1 X101.425 Y104.323 E24.98517
G1 X101.044 Y104.028 E24.99716
G1 X100.842 Y103.789 E25.00495
G1 X100.613 Y103.368 E25.01687
G1 X100.495 Y102.902 E25.02884
G1 X100.482 Y102.591 E25.03658
G1 X100.560 Y102.117 E25.04853
G1 X100.699 Y101.778 E25.05765
G1 X100.867 Y101.513 E25.06546
G1 X101.157 Y101.202 E25.07604
G1 X101.560 Y100.938 E25.08803
G1 X102.014 Y100.782 E25.09997
G1 X102.319 Y100.744 E25.10762
G1 X102.798 Y100.783 E25.11958
G1 X103.104 Y100.874 E25.12752
G1 X103.385 Y101.011 E25.13530
G1 X103.765 Y101.307 E25.14729
G1 X103.967 Y101.545 E25.15505
G1 X104.196 Y101.966 E25.16698
G1 X104.315 Y102.432 E25.17895
G1 X104.327 Y102.742 E25.18667
G0 F3600 X103.399 Y102.842
;TYPE:SKIN
G1 F1500 X102.566 Y103.675 E25.21598
G0 F3600 X102.053 Y103.623
G1 F1500 X103.358 Y102.319 E25.26188
G0 F3600 X103.145 Y101.967
G1 F1500 X101.707 Y103.405 E25.31249
G0 F3600 X101.476 Y103.072
G1 F1500 X102.816 Y101.732 E25.35964
G0 F3600 X102.338 Y101.646
G1 F1500 X101.393 Y102.591 E25.39289
;LAYER:34
M117 Nb = 35 / 53
G0 F3600 X101.317 Y102.381 Z5.360
;TYPE:WALL-INNER
G1 F1320 X101.344 Y102.289 E25.39528
G1 X101.464 Y102.054 E25.40185
G1 X101.540 Y101.950 E25.40505
G1 X101.701 Y101.794 E25.41063
G1 X101.907 Y101.663 E25.41670
G1 X102.195 Y101.564 E25.42428
G1 X102.334 Y101.546 E25.42777
G1 X102.654 Y101.573 E25.43576
G1 X102.805 Y101.617 E25.43967
G1 X103.019 Y101.727 E25.44566
G1 X103.118 Y101.799 E25.44871
G1 X103.292 Y101.980 E25.45495
G1 X103.363 Y102.081 E25.45803
G1 X103.459 Y102.286 E25.46366
G1 X103.521 Y102.543 E25.47024
G1 X103.527 Y102.702 E25.47420
G1 X103.492 Y102.953 E25.48050
G1 X103.460 Y103.059 E25.48326
G1 X103.373 Y103.239 E25.48823
G1 X103.269 Y103.384 E25.49267
G1 X103.108 Y103.540 E25.49825
G1 X102.876 Y103.688 E25.50510
G1 X102.530 Y103.783 E25.51403
G1 X102.367 Y103.790 E25.51809
G1 X102.126 Y103.756 E25.52414
G1 X102.013 Y103.721 E25.52708
G1 X101.799 Y103.611 E25.53307
G1 X101.622 Y103.476 E25.53861
G1 X101.504 Y103.337 E25.54315
G1 X101.362 Y103.076 E25.55054
G1 X101.289 Y102.784 E25.55803
G1 X101.282 Y102.629 E25.56189
G1 X101.317 Y102.381 E25.56812
G0 F3600 X100.926 Y102.295
G1 F1320 X100.978 Y102.129 E25.57245
G1 X101.125 Y101.841 E25.58050
G1 X101.236 Y101.689 E25.58518
G1 X101.456 Y101.476 E25.59280
G1 X101.731 Y101.301 E25.60091
G1 X102.103 Y101.173 E25.61070
G1 X102.327 Y101.145 E25.61632
G1 X102.729 Y101.178 E25.62635
G1 X102.950 Y101.244 E25.63209
G1 X103.231 Y101.388 E25.63995
G1 X103.379 Y101.495 E25.64449
G1 X103.601 Y101.726 E25.65247
G1 X103.711 Y101.882 E25.65722
G1 X103.837 Y102.152 E25.66463
G1 X103.917 Y102.483 E25.67310
G1 X103.927 Y102.726 E25.67915
G1 X103.883 Y103.038 E25.68699
G1 X103.829 Y103.212 E25.69153
G1 X103.714 Y103.448 E25.69806
G1 X103.574 Y103.643 E25.70403
G1 X103.353 Y103.858 E25.71171
G1 X103.062 Y104.043 E25.72029
G1 X102.932 Y104.097 E25.72379
G1 X102.585 Y104.180 E25.73267
G1 X102.350 Y104.191 E25.73852
G1 X102.038 Y104.147 E25.74636
G1 X101.861 Y104.092 E25.75097
G1 X101.585 Y103.950 E25.75870
G1 X101.336 Y103.755 E25.76657
G1 X101.171 Y103.561 E25.77290
G1 X100.989 Y103.225 E25.78241
G1 X100.891 Y102.840 E25.79230
G1 X100.881 Y102.612 E25.79797
G1 X100.926 Y102.295 E25.80594
G0 F3600 X100.535 Y102.212
;TYPE:WALL-OUTER
G1 F1200 X100.608 Y101.976 E25.81209
G1 X100.784 Y101.632 E25.82170
G1 X100.934 Y101.426 E25.82804
G1 X101.203 Y101.165 E25.83737
G1 X101.558 Y100.939 E25.84784
G1 X102.014 Y100.782 E25.85984
G1 X102.319 Y100.744 E25.86749
G1 X102.798 Y100.783 E25.87945
G1 X103.102 Y100.873 E25.88734
G1 X103.439 Y101.046 E25.89676
G1 X103.646 Y101.197 E25.90314
G1 X103.907 Y101.467 E25.91248
G1 X104.058 Y101.682 E25.91902
G1 X104.216 Y102.020 E25.92830
G1 X104.315 Y102.428 E25.93875
G1 X104.327 Y102.743 E25.94659
G1 X104.274 Y103.122 E25.95612
G1 X104.200 Y103.360 E25.96232
G1 X104.060 Y103.650 E25.97033
G1 X103.874 Y103.910 E25.97829
G1 X103.606 Y104.169 E25.98756
G1 X103.246 Y104.398 E25.99818
G1 X103.053 Y104.478 E26.00338
G1 X102.644 Y104.577 E26.01385
G1 X102.328 Y104.590 E26.02172
G1 X101.951 Y104.537 E26.03119
G1 X101.710 Y104.462 E26.03747
G1 X101.368 Y104.287 E26.04703
G1 X101.118 Y104.097 E26.05484
G1 X101.050 Y104.035 E26.05713
G1 X100.842 Y103.789 E26.06515
G1 X100.613 Y103.368 E26.07707
G1 X100.495 Y102.902 E26.08903
G1 X100.482 Y102.590 E26.09680
G1 X100.535 Y102.212 E26.10630
G0 F3600 X101.450 Y102.297
;TYPE:SKIN
G1 F1500 X102.766 Y103.613 E26.15261
G0 F3600 X103.113 Y103.395
G1 F1500 X101.674 Y101.957 E26.20323
G0 F3600 X102.013 Y101.732
G1 F1500 X103.345 Y103.064 E26.25010
G0 F3600 X103.422 Y102.576
G1 F1500 X102.507 Y101.661 E26.28230
G0 F3600 X101.398 Y102.809
G1 F1500 X102.261 Y103.673 E26.31269
;LAYER:35
M117 Nb = 36 / 53
G0 F3600 X102.180 Y103.769 Z5.510
;TYPE:WALL-INNER
G1 F1320 X102.015 Y103.720 E26.31697
G1 X101.757 Y103.580 E26.32427
G1 X101.552 Y103.391 E26.33121
G1 X101.385 Y103.138 E26.33876
G1 X101.329 Y102.993 E26.34262
G1 X101.289 Y102.806 E26.34738
G1 X101.281 Y102.618 E26.35206
G1 X101.303 Y102.442 E26.35648
G1 X101.352 Y102.278 E26.36074
G1 X101.493 Y102.018 E26.36810
G1 X101.682 Y101.812 E26.37505
G1 X101.931 Y101.649 E26.38246
G1 X102.078 Y101.591 E26.38639
G1 X102.267 Y101.551 E26.39120
G1 X102.453 Y101.543 E26.39583
G1 X102.630 Y101.565 E26.40027
G1 X102.794 Y101.614 E26.40453
G1 X103.052 Y101.754 E26.41183
G1 X103.276 Y101.960 E26.41940
G1 X103.357 Y102.072 E26.42284
G1 X103.487 Y102.368 E26.43089
G1 X103.520 Y102.527 E26.43493
G1 X103.528 Y102.707 E26.43941
G1 X103.504 Y102.898 E26.44420
G1 X103.457 Y103.057 E26.44833
G1 X103.317 Y103.316 E26.45565
G1 X103.128 Y103.522 E26.46261
G1 X102.878 Y103.685 E26.47003
G1 X102.731 Y103.743 E26.47397
G1 X102.542 Y103.783 E26.47877
G1 X102.356 Y103.791 E26.48341
G1 X102.180 Y103.769 E26.48782
G0 F3600 X102.095 Y104.160
G1 F1320 X101.866 Y104.092 E26.49376
G1 X101.521 Y103.906 E26.50352
G1 X101.244 Y103.651 E26.51289
G1 X101.032 Y103.327 E26.52252
G1 X100.943 Y103.101 E26.52856
G1 X100.892 Y102.855 E26.53481
G1 X100.881 Y102.604 E26.54107
G1 X100.911 Y102.359 E26.54721
G1 X100.981 Y102.126 E26.55326
G1 X101.165 Y101.784 E26.56293
G1 X101.420 Y101.506 E26.57231
G1 X101.745 Y101.294 E26.58197
G1 X101.971 Y101.205 E26.58801
G1 X102.216 Y101.154 E26.59424
G1 X102.467 Y101.143 E26.60049
G1 X102.715 Y101.174 E26.60671
G1 X102.943 Y101.242 E26.61263
G1 X103.288 Y101.428 E26.62238
G1 X103.576 Y101.693 E26.63212
G1 X103.705 Y101.873 E26.63763
G1 X103.868 Y102.244 E26.64771
G1 X103.917 Y102.475 E26.65359
G1 X103.927 Y102.727 E26.65986
G1 X103.896 Y102.981 E26.66623
G1 X103.829 Y103.207 E26.67210
G1 X103.644 Y103.551 E26.68182
G1 X103.389 Y103.827 E26.69117
G1 X103.064 Y104.040 E26.70083
G1 X102.838 Y104.129 E26.70688
G1 X102.593 Y104.180 E26.71311
G1 X102.342 Y104.191 E26.71936
G1 X102.095 Y104.160 E26.72555
G0 F3600 X102.017 Y104.553
;TYPE:WALL-OUTER
G1 F1200 X101.710 Y104.462 E26.73352
G1 X101.288 Y104.233 E26.74547
G1 X100.937 Y103.911 E26.75732
G1 X100.675 Y103.512 E26.76920
G1 X100.561 Y103.220 E26.77700
G1 X100.495 Y102.906 E26.78498
G1 X100.482 Y102.584 E26.79300
G1 X100.519 Y102.279 E26.80064
G1 X100.610 Y101.973 E26.80859
G1 X100.838 Y101.552 E26.82050
G1 X101.161 Y101.200 E26.83239
G1 X101.564 Y100.936 E26.84437
G1 X101.852 Y100.823 E26.85207
G1 X102.166 Y100.757 E26.86006
G1 X102.487 Y100.744 E26.86805
G1 X102.792 Y100.781 E26.87570
G1 X103.099 Y100.872 E26.88366
G1 X103.521 Y101.101 E26.89561
G1 X103.873 Y101.424 E26.90750
G1 X104.056 Y101.679 E26.91531
G1 X104.249 Y102.118 E26.92724
G1 X104.315 Y102.428 E26.93513
G1 X104.327 Y102.742 E26.94295
G1 X104.288 Y103.061 E26.95094
G1 X104.198 Y103.364 E26.95881
G1 X103.972 Y103.783 E26.97065
G1 X103.651 Y104.132 E26.98245
G1 X103.245 Y104.398 E26.99453
G1 X102.957 Y104.511 E27.00223
G1 X102.644 Y104.577 E27.01019
G1 X102.322 Y104.590 E27.01821
G1 X102.017 Y104.553 E27.02585
G0 F3600 X102.051 Y103.625
;TYPE:SKIN
G1 F1500 X103.356 Y102.321 E27.07176
G0 F3600 X103.141 Y101.971
G1 F1500 X101.710 Y103.402 E27.12211
G0 F3600 X101.469 Y103.079
G1 F1500 X102.811 Y101.737 E27.16934
G0 F3600 X102.336 Y101.648
G1 F1500 X101.384 Y102.600 E27.20284
G0 F3600 X102.566 Y103.675
G1 F1500 X103.410 Y102.831 E27.23254
;LAYER:36
M117 Nb = 37 / 53
G0 F3600 X103.520 Y102.802 Z5.660
;TYPE:WALL-INNER
G1 F1320 X103.486 Y102.968 E27.23675
G1 X103.359 Y103.258 E27.24463
G1 X103.263 Y103.392 E27.24873
G1 X103.145 Y103.510 E27.25288
G1 X102.878 Y103.685 E27.26083
G1 X102.653 Y103.765 E27.26677
G1 X102.451 Y103.791 E27.27184
G1 X102.270 Y103.783 E27.27635
G1 X102.098 Y103.747 E27.28072
G1 X101.854 Y103.646 E27.28729
G1 X101.758 Y103.587 E27.29009
G1 X101.605 Y103.458 E27.29507
G1 X101.439 Y103.244 E27.30181
G1 X101.364 Y103.096 E27.30594
G1 X101.304 Y102.897 E27.31111
G1 X101.281 Y102.713 E27.31573
G1 X101.289 Y102.532 E27.32023
G1 X101.328 Y102.345 E27.32499
G1 X101.389 Y102.186 E27.32923
G1 X101.529 Y101.963 E27.33578
G1 X101.590 Y101.893 E27.33809
G1 X101.838 Y101.700 E27.34591
G1 X102.053 Y101.601 E27.35180
G1 X102.171 Y101.567 E27.35485
G1 X102.356 Y101.544 E27.35949
G1 X102.544 Y101.552 E27.36417
G1 X102.774 Y101.604 E27.37004
G1 X103.071 Y101.764 E27.37843
G1 X103.184 Y101.860 E27.38212
G1 X103.378 Y102.107 E27.38994
G1 X103.451 Y102.257 E27.39409
G1 X103.505 Y102.438 E27.39879
G1 X103.528 Y102.621 E27.40338
G1 X103.520 Y102.802 E27.40789
G0 F3600 X103.917 Y102.858
G1 F1320 X103.869 Y103.088 E27.41373
G1 X103.708 Y103.457 E27.42375
G1 X103.571 Y103.648 E27.42960
G1 X103.398 Y103.821 E27.43569
G1 X103.064 Y104.040 E27.44563
G1 X102.830 Y104.132 E27.45188
G1 X102.726 Y104.158 E27.45455
G1 X102.474 Y104.190 E27.46087
G1 X102.214 Y104.180 E27.46735
G1 X101.980 Y104.131 E27.47329
G1 X101.677 Y104.005 E27.48146
G1 X101.522 Y103.910 E27.48598
G1 X101.325 Y103.743 E27.49241
G1 X101.208 Y103.610 E27.49682
G1 X101.095 Y103.448 E27.50173
G1 X100.988 Y103.233 E27.50771
G1 X100.913 Y102.980 E27.51427
G1 X100.882 Y102.735 E27.52042
G1 X100.892 Y102.477 E27.52684
G1 X100.944 Y102.230 E27.53312
G1 X101.030 Y102.008 E27.53905
G1 X101.205 Y101.729 E27.54724
G1 X101.316 Y101.601 E27.55146
G1 X101.628 Y101.358 E27.56130
G1 X101.918 Y101.224 E27.56925
G1 X102.089 Y101.175 E27.57367
G1 X102.341 Y101.143 E27.57999
G1 X102.586 Y101.154 E27.58610
G1 X102.934 Y101.237 E27.59500
G1 X103.298 Y101.434 E27.60530
G1 X103.471 Y101.580 E27.61093
G1 X103.720 Y101.899 E27.62100
G1 X103.825 Y102.112 E27.62691
G1 X103.896 Y102.353 E27.63316
G1 X103.927 Y102.598 E27.63931
G1 X103.917 Y102.858 E27.64578
G0 F3600 X104.315 Y102.903
;TYPE:WALL-OUTER
G1 F1200 X104.249 Y103.214 E27.65369
G1 X104.059 Y103.651 E27.66555
G1 X103.872 Y103.912 E27.67354
G1 X103.655 Y104.130 E27.68119
G1 X103.245 Y104.398 E27.69338
G1 X102.953 Y104.513 E27.70119
G1 X102.801 Y104.551 E27.70509
G1 X102.490 Y104.590 E27.71289
G1 X102.169 Y104.578 E27.72088
G1 X101.859 Y104.513 E27.72876
G1 X101.494 Y104.361 E27.73860
G1 X101.286 Y104.233 E27.74468
G1 X101.046 Y104.031 E27.75248
G1 X100.891 Y103.853 E27.75835
G1 X100.752 Y103.654 E27.76439
G1 X100.615 Y103.376 E27.77211
G1 X100.520 Y103.059 E27.78034
G1 X100.482 Y102.751 E27.78806
G1 X100.494 Y102.432 E27.79601
G1 X100.559 Y102.121 E27.80391
G1 X100.674 Y101.826 E27.81179
G1 X100.888 Y101.484 E27.82183
G1 X101.037 Y101.312 E27.82749
G1 X101.419 Y101.015 E27.83953
G1 X101.780 Y100.848 E27.84943
G1 X102.008 Y100.783 E27.85533
G1 X102.320 Y100.744 E27.86315
G1 X102.641 Y100.757 E27.87114
G1 X102.957 Y100.823 E27.87918
G1 X103.094 Y100.869 E27.88277
G1 X103.523 Y101.102 E27.89492
G1 X103.760 Y101.303 E27.90265
G1 X104.060 Y101.686 E27.91476
G1 X104.196 Y101.964 E27.92246
G1 X104.289 Y102.276 E27.93056
G1 X104.327 Y102.582 E27.93823
G1 X104.315 Y102.903 E27.94623
G0 F3600 X103.420 Y102.575
;TYPE:SKIN
G1 F1500 X102.496 Y101.650 E27.97876
G0 F3600 X102.012 Y101.730
G1 F1500 X103.337 Y103.056 E28.02540
G0 F3600 X103.114 Y103.397
G1 F1500 X101.672 Y101.955 E28.07615
G0 F3600 X101.452 Y102.299
G1 F1500 X102.768 Y103.615 E28.12246
G0 F3600 X102.268 Y103.679
G1 F1500 X101.392 Y102.803 E28.15328
;LAYER:37
M117 Nb = 38 / 53
G0 F3600 X101.281 Y102.713 Z5.810
;TYPE:WALL-INNER
G1 F1320 X101.288 Y102.553 E28.15727
G1 X101.366 Y102.242 E28.16524
G1 X101.434 Y102.104 E28.16907
G1 X101.586 Y101.901 E28.17538
G1 X101.711 Y101.785 E28.17963
G1 X101.903 Y101.664 E28.18527
G1 X102.195 Y101.564 E28.19295
G1 X102.356 Y101.544 E28.19699
G1 X102.520 Y101.551 E28.20107
G1 X102.811 Y101.624 E28.20854
G1 X103.052 Y101.754 E28.21535
G1 X103.276 Y101.960 E28.22293
G1 X103.357 Y102.072 E28.22637
G1 X103.487 Y102.368 E28.23441
G1 X103.520 Y102.527 E28.23845
G1 X103.527 Y102.687 E28.24244
G1 X103.477 Y102.988 E28.25003
G1 X103.367 Y103.240 E28.25687
G1 X103.185 Y103.474 E28.26425
G1 X103.074 Y103.568 E28.26786
G1 X102.795 Y103.719 E28.27576
G1 X102.633 Y103.768 E28.27997
G1 X102.451 Y103.791 E28.28453
G1 X102.290 Y103.784 E28.28854
G1 X101.998 Y103.710 E28.29604
G1 X101.711 Y103.553 E28.30418
G1 X101.494 Y103.318 E28.31214
G1 X101.353 Y103.058 E28.31950
G1 X101.304 Y102.897 E28.32369
G1 X101.281 Y102.713 E28.32830
G0 F3600 X100.882 Y102.735
G1 F1320 X100.892 Y102.493 E28.33433
G1 X100.990 Y102.102 E28.34436
G1 X101.092 Y101.895 E28.35010
G1 X101.288 Y101.633 E28.35824
G1 X101.466 Y101.469 E28.36426
G1 X101.732 Y101.301 E28.37209
G1 X102.103 Y101.173 E28.38186
G1 X102.341 Y101.143 E28.38783
G1 X102.576 Y101.153 E28.39368
G1 X102.956 Y101.249 E28.40343
G1 X103.288 Y101.428 E28.41282
G1 X103.576 Y101.693 E28.42256
G1 X103.705 Y101.873 E28.42807
G1 X103.868 Y102.244 E28.43815
G1 X103.917 Y102.475 E28.44402
G1 X103.927 Y102.717 E28.45005
G1 X103.863 Y103.101 E28.45974
G1 X103.713 Y103.445 E28.46908
G1 X103.475 Y103.751 E28.47872
G1 X103.298 Y103.901 E28.48450
G1 X102.950 Y104.090 E28.49435
G1 X102.717 Y104.159 E28.50040
G1 X102.474 Y104.190 E28.50649
G1 X102.230 Y104.180 E28.51257
G1 X101.853 Y104.085 E28.52224
G1 X101.498 Y103.893 E28.53228
G1 X101.440 Y103.848 E28.53411
G1 X101.165 Y103.550 E28.54420
G1 X100.982 Y103.213 E28.55374
G1 X100.913 Y102.980 E28.55979
G1 X100.882 Y102.735 E28.56593
G0 F3600 X100.482 Y102.751
;TYPE:WALL-OUTER
G1 F1200 X100.494 Y102.436 E28.57378
G1 X100.613 Y101.965 E28.58587
G1 X100.751 Y101.684 E28.59366
G1 X100.990 Y101.365 E28.60357
G1 X101.223 Y101.150 E28.61146
G1 X101.555 Y100.940 E28.62124
G1 X102.014 Y100.782 E28.63332
G1 X102.320 Y100.744 E28.64099
G1 X102.638 Y100.757 E28.64891
G1 X103.101 Y100.874 E28.66079
G1 X103.521 Y101.101 E28.67267
G1 X103.873 Y101.424 E28.68456
G1 X104.056 Y101.679 E28.69237
G1 X104.249 Y102.118 E28.70430
G1 X104.315 Y102.428 E28.71219
G1 X104.327 Y102.742 E28.72001
G1 X104.249 Y103.216 E28.73196
G1 X104.060 Y103.649 E28.74372
G1 X103.765 Y104.028 E28.75567
G1 X103.526 Y104.230 E28.76345
G1 X103.102 Y104.461 E28.77547
G1 X102.796 Y104.552 E28.78341
G1 X102.490 Y104.590 E28.79108
G1 X102.173 Y104.578 E28.79898
G1 X101.707 Y104.460 E28.81094
G1 X101.280 Y104.229 E28.82302
G1 X101.168 Y104.142 E28.82655
G1 X100.841 Y103.787 E28.83856
G1 X100.611 Y103.365 E28.85052
G1 X100.520 Y103.059 E28.85846
G1 X100.482 Y102.751 E28.86618
G0 F3600 X101.386 Y102.598
;TYPE:SKIN
G1 F1500 X102.337 Y101.647 E28.89965
G0 F3600 X102.811 Y101.737
G1 F1500 X101.476 Y103.072 E28.94662
G0 F3600 X101.709 Y103.403
G1 F1500 X103.141 Y101.971 E28.99702
G0 F3600 X103.356 Y102.321
G1 F1500 X102.056 Y103.621 E29.04276
G0 F3600 X102.566 Y103.675
G1 F1500 X103.399 Y102.842 E29.07207
;LAYER:38
M117 Nb = 39 / 53
G0 F3600 X103.520 Y102.802 Z5.960
;TYPE:WALL-INNER
G1 F1320 X103.481 Y102.990 E29.07685
G1 X103.416 Y103.158 E29.08133
G1 X103.281 Y103.374 E29.08767
G1 X103.079 Y103.568 E29.09464
G1 X102.915 Y103.666 E29.09940
G1 X102.614 Y103.770 E29.10732
G1 X102.451 Y103.791 E29.11141
G1 X102.270 Y103.783 E29.11592
G1 X102.104 Y103.749 E29.12013
G1 X101.826 Y103.627 E29.12769
G1 X101.614 Y103.467 E29.13430
G1 X101.493 Y103.324 E29.13896
G1 X101.406 Y103.178 E29.14319
G1 X101.302 Y102.877 E29.15111
G1 X101.281 Y102.713 E29.15523
G1 X101.289 Y102.532 E29.15973
G1 X101.328 Y102.345 E29.16449
G1 X101.424 Y102.114 E29.17071
G1 X101.547 Y101.941 E29.17599
G1 X101.730 Y101.766 E29.18229
G1 X101.894 Y101.668 E29.18705
G1 X102.195 Y101.564 E29.19497
G1 X102.356 Y101.544 E29.19901
G1 X102.544 Y101.552 E29.20369
G1 X102.791 Y101.609 E29.21000
G1 X102.978 Y101.701 E29.21518
G1 X103.113 Y101.797 E29.21931
G1 X103.331 Y102.033 E29.22730
G1 X103.402 Y102.152 E29.23075
G1 X103.507 Y102.458 E29.23880
G1 X103.528 Y102.621 E29.24289
G1 X103.520 Y102.802 E29.24740
G0 F3600 X103.917 Y102.858
G1 F1320 X103.866 Y103.103 E29.25362
G1 X103.776 Y103.334 E29.25979
G1 X103.577 Y103.642 E29.26892
G1 X103.380 Y103.840 E29.27587
G1 X103.085 Y104.030 E29.28460
G1 X102.706 Y104.161 E29.29457
G1 X102.474 Y104.190 E29.30039
G1 X102.214 Y104.180 E29.30687
G1 X101.986 Y104.132 E29.31266
G1 X101.621 Y103.972 E29.32258
G1 X101.335 Y103.755 E29.33151
G1 X101.164 Y103.553 E29.33810
G1 X101.042 Y103.348 E29.34404
G1 X100.911 Y102.969 E29.35401
G1 X100.882 Y102.735 E29.35988
G1 X100.892 Y102.477 E29.36630
G1 X100.944 Y102.230 E29.37259
G1 X101.037 Y101.991 E29.37897
G1 X101.085 Y101.902 E29.38148
G1 X101.241 Y101.683 E29.38817
G1 X101.429 Y101.494 E29.39481
G1 X101.507 Y101.433 E29.39727
G1 X101.724 Y101.304 E29.40355
G1 X102.103 Y101.173 E29.41353
G1 X102.341 Y101.143 E29.41950
G1 X102.586 Y101.154 E29.42560
G1 X102.948 Y101.242 E29.43487
G1 X103.183 Y101.356 E29.44137
G1 X103.378 Y101.496 E29.44734
G1 X103.650 Y101.790 E29.45731
G1 X103.768 Y101.988 E29.46305
G1 X103.898 Y102.366 E29.47299
G1 X103.927 Y102.598 E29.47881
G1 X103.917 Y102.858 E29.48528
G0 F3600 X104.315 Y102.903
;TYPE:WALL-OUTER
G1 F1200 X104.250 Y103.213 E29.49317
G1 X104.132 Y103.515 E29.50123
G1 X103.974 Y103.782 E29.50895
G1 X103.648 Y104.137 E29.52095
G1 X103.529 Y104.229 E29.52469
G1 X103.254 Y104.394 E29.53267
G1 X102.795 Y104.552 E29.54475
G1 X102.490 Y104.590 E29.55240
G1 X102.169 Y104.578 E29.56039
G1 X101.860 Y104.513 E29.56825
G1 X101.422 Y104.321 E29.58014
G1 X101.050 Y104.035 E29.59182
G1 X100.839 Y103.785 E29.59996
G1 X100.678 Y103.517 E29.60774
G1 X100.520 Y103.058 E29.61982
G1 X100.482 Y102.751 E29.62752
G1 X100.494 Y102.432 E29.63546
G1 X100.559 Y102.121 E29.64337
G1 X100.677 Y101.818 E29.65146
G1 X100.750 Y101.684 E29.65525
G1 X100.934 Y101.425 E29.66316
G1 X101.161 Y101.197 E29.67116
G1 X101.280 Y101.105 E29.67491
G1 X101.555 Y100.940 E29.68289
G1 X102.014 Y100.782 E29.69497
G1 X102.320 Y100.744 E29.70264
G1 X102.641 Y100.757 E29.71063
G1 X103.098 Y100.871 E29.72235
G1 X103.387 Y101.012 E29.73035
G1 X103.645 Y101.196 E29.73824
G1 X103.971 Y101.550 E29.75021
G1 X104.131 Y101.818 E29.75798
G1 X104.289 Y102.277 E29.77006
G1 X104.327 Y102.582 E29.77771
G1 X104.315 Y102.903 E29.78570
G0 F3600 X103.420 Y102.575
;TYPE:SKIN
G1 F1500 X102.495 Y101.650 E29.81825
G0 F3600 X102.013 Y101.732
G1 F1500 X103.345 Y103.063 E29.86510
G0 F3600 X103.112 Y103.395
G1 F1500 X101.674 Y101.957 E29.91571
G0 F3600 X101.453 Y102.300
G1 F1500 X102.764 Y103.611 E29.96184
G0 F3600 X102.268 Y103.680
G1 F1500 X101.393 Y102.804 E29.99265
;LAYER:39
M117 Nb = 40 / 53
G0 F3600 X101.289 Y102.806 Z6.110
;TYPE:WALL-INNER
G1 F1320 X101.281 Y102.618 E29.99733
G1 X101.301 Y102.459 E30.00132
G1 X101.405 Y102.155 E30.00931
G1 X101.487 Y102.017 E30.01331
G1 X101.610 Y101.872 E30.01804
G1 X101.748 Y101.755 E30.02254
G1 X101.916 Y101.655 E30.02741
G1 X102.078 Y101.591 E30.03174
G1 X102.267 Y101.551 E30.03655
G1 X102.453 Y101.543 E30.04118
G1 X102.630 Y101.565 E30.04562
G1 X102.811 Y101.619 E30.05032
G1 X102.978 Y101.701 E30.05495
G1 X103.113 Y101.797 E30.05907
G1 X103.331 Y102.033 E30.06706
G1 X103.413 Y102.171 E30.07106
G1 X103.482 Y102.347 E30.07576
G1 X103.520 Y102.527 E30.08034
G1 X103.528 Y102.707 E30.08482
G1 X103.506 Y102.880 E30.08916
G1 X103.405 Y103.177 E30.09697
G1 X103.319 Y103.320 E30.10112
G1 X103.201 Y103.461 E30.10569
G1 X103.061 Y103.579 E30.11025
G1 X102.893 Y103.679 E30.11512
G1 X102.731 Y103.743 E30.11945
G1 X102.542 Y103.783 E30.12426
G1 X102.356 Y103.791 E30.12889
G1 X102.197 Y103.771 E30.13288
G1 X101.916 Y103.675 E30.14027
G1 X101.682 Y103.522 E30.14722
G1 X101.481 Y103.304 E30.15460
G1 X101.393 Y103.156 E30.15888
G1 X101.329 Y102.993 E30.16324
G1 X101.289 Y102.806 E30.16800
G0 F3600 X100.892 Y102.855
G1 F1320 X100.881 Y102.604 E30.17425
G1 X100.910 Y102.372 E30.18007
G1 X101.041 Y101.988 E30.19017
G1 X101.164 Y101.782 E30.19614
G1 X101.326 Y101.589 E30.20241
G1 X101.519 Y101.426 E30.20869
G1 X101.733 Y101.299 E30.21488
G1 X101.971 Y101.205 E30.22125
G1 X102.216 Y101.154 E30.22748
G1 X102.467 Y101.143 E30.23373
G1 X102.715 Y101.174 E30.23995
G1 X102.956 Y101.245 E30.24620
G1 X103.183 Y101.356 E30.25249
G1 X103.378 Y101.496 E30.25846
G1 X103.650 Y101.790 E30.26843
G1 X103.772 Y101.996 E30.27438
G1 X103.866 Y102.235 E30.28077
G1 X103.917 Y102.475 E30.28688
G1 X103.927 Y102.727 E30.29315
G1 X103.898 Y102.967 E30.29917
G1 X103.767 Y103.349 E30.30922
G1 X103.648 Y103.550 E30.31503
G1 X103.484 Y103.744 E30.32135
G1 X103.290 Y103.908 E30.32767
G1 X103.076 Y104.035 E30.33386
G1 X102.838 Y104.129 E30.34023
G1 X102.593 Y104.180 E30.34646
G1 X102.342 Y104.191 E30.35271
G1 X102.110 Y104.162 E30.35853
G1 X101.738 Y104.035 E30.36831
G1 X101.422 Y103.828 E30.37771
G1 X101.158 Y103.542 E30.38739
G1 X101.037 Y103.339 E30.39327
G1 X100.943 Y103.101 E30.39964
G1 X100.892 Y102.855 E30.40589
G0 F3600 X100.495 Y102.906
;TYPE:WALL-OUTER
G1 F1200 X100.482 Y102.584 E30.41391
G1 X100.519 Y102.278 E30.42158
G1 X100.675 Y101.822 E30.43357
G1 X100.839 Y101.548 E30.44152
G1 X101.040 Y101.310 E30.44927
G1 X101.287 Y101.101 E30.45732
G1 X101.559 Y100.938 E30.46521
G1 X101.852 Y100.823 E30.47304
G1 X102.166 Y100.757 E30.48103
G1 X102.487 Y100.744 E30.48902
G1 X102.792 Y100.781 E30.49667
G1 X103.104 Y100.874 E30.50477
G1 X103.387 Y101.012 E30.51260
G1 X103.645 Y101.196 E30.52049
G1 X103.971 Y101.550 E30.53246
G1 X104.133 Y101.822 E30.54034
G1 X104.248 Y102.114 E30.54815
G1 X104.315 Y102.428 E30.55614
G1 X104.327 Y102.742 E30.56396
G1 X104.288 Y103.060 E30.57193
G1 X104.133 Y103.514 E30.58387
G1 X103.975 Y103.780 E30.59156
G1 X103.767 Y104.027 E30.59960
G1 X103.522 Y104.233 E30.60756
G1 X103.250 Y104.396 E30.61545
G1 X102.957 Y104.511 E30.62329
G1 X102.644 Y104.577 E30.63125
G1 X102.322 Y104.590 E30.63926
G1 X102.016 Y104.553 E30.64693
G1 X101.565 Y104.398 E30.65880
G1 X101.161 Y104.134 E30.67081
G1 X100.838 Y103.784 E30.68266
G1 X100.676 Y103.513 E30.69052
G1 X100.561 Y103.220 E30.69835
G1 X100.495 Y102.906 E30.70633
G0 F3600 X101.384 Y102.600
;TYPE:SKIN
G1 F1500 X102.336 Y101.648 E30.73983
G0 F3600 X102.815 Y101.733
G1 F1500 X101.470 Y103.078 E30.78716
G0 F3600 X101.710 Y103.403
G1 F1500 X103.139 Y101.973 E30.83747
G0 F3600 X103.361 Y102.316
G1 F1500 X102.058 Y103.618 E30.88330
G0 F3600 X102.566 Y103.675
G1 F1500 X103.411 Y102.830 E30.91304
;LAYER:40
M117 Nb = 41 / 53
G0 F3600 X103.520 Y102.802 Z6.260
;TYPE:WALL-INNER
G1 F1320 X103.481 Y102.990 E30.91781
G1 X103.416 Y103.158 E30.92229
G1 X103.319 Y103.320 E30.92699
G1 X103.213 Y103.446 E30.93109
G1 X102.963 Y103.641 E30.93898
G1 X102.816 Y103.713 E30.94305
G1 X102.633 Y103.768 E30.94781
G1 X102.451 Y103.791 E30.95237
G1 X102.270 Y103.783 E30.95688
G1 X102.104 Y103.749 E30.96110
G1 X101.828 Y103.628 E30.96860
G1 X101.630 Y103.478 E30.97478
G1 X101.488 Y103.315 E30.98016
G1 X101.393 Y103.156 E30.98476
G1 X101.329 Y102.993 E30.98912
G1 X101.289 Y102.806 E30.99388
G1 X101.281 Y102.618 E30.99856
G1 X101.321 Y102.362 E31.00501
G1 X101.394 Y102.173 E31.01005
G1 X101.488 Y102.016 E31.01460
G1 X101.596 Y101.888 E31.01877
G1 X101.845 Y101.694 E31.02663
G1 X101.997 Y101.620 E31.03083
G1 X102.176 Y101.566 E31.03548
G1 X102.356 Y101.544 E31.04000
G1 X102.544 Y101.552 E31.04468
G1 X102.774 Y101.604 E31.05055
G1 X103.098 Y101.781 E31.05973
G1 X103.359 Y102.070 E31.06942
G1 X103.451 Y102.257 E31.07461
G1 X103.505 Y102.438 E31.07931
G1 X103.528 Y102.621 E31.08390
G1 X103.520 Y102.802 E31.08841
G0 F3600 X103.917 Y102.858
G1 F1320 X103.866 Y103.103 E31.09463
G1 X103.776 Y103.334 E31.10080
G1 X103.648 Y103.550 E31.10705
G1 X103.491 Y103.735 E31.11309
G1 X103.176 Y103.981 E31.12303
G1 X102.960 Y104.087 E31.12902
G1 X102.717 Y104.159 E31.13532
G1 X102.474 Y104.190 E31.14142
G1 X102.214 Y104.180 E31.14789
G1 X101.986 Y104.132 E31.15369
G1 X101.624 Y103.973 E31.16353
G1 X101.357 Y103.772 E31.17185
G1 X101.161 Y103.548 E31.17925
G1 X101.037 Y103.339 E31.18530
G1 X100.943 Y103.102 E31.19164
G1 X100.892 Y102.855 E31.19792
G1 X100.881 Y102.604 E31.20417
G1 X100.913 Y102.350 E31.21054
G1 X100.941 Y102.238 E31.21341
G1 X101.032 Y102.003 E31.21968
G1 X101.164 Y101.782 E31.22609
G1 X101.319 Y101.598 E31.23208
G1 X101.634 Y101.353 E31.24201
G1 X101.848 Y101.248 E31.24794
G1 X102.095 Y101.174 E31.25435
G1 X102.341 Y101.143 E31.26052
G1 X102.586 Y101.154 E31.26662
G1 X102.934 Y101.237 E31.27553
G1 X103.311 Y101.441 E31.28619
G1 X103.369 Y101.486 E31.28802
G1 X103.661 Y101.802 E31.29873
G1 X103.708 Y101.873 E31.30084
G1 X103.825 Y102.112 E31.30747
G1 X103.896 Y102.353 E31.31372
G1 X103.927 Y102.598 E31.31986
G1 X103.917 Y102.858 E31.32634
G0 F3600 X104.315 Y102.903
;TYPE:WALL-OUTER
G1 F1200 X104.250 Y103.213 E31.33422
G1 X104.132 Y103.515 E31.34229
G1 X103.975 Y103.780 E31.34995
G1 X103.767 Y104.025 E31.35795
G1 X103.390 Y104.320 E31.36986
G1 X103.104 Y104.460 E31.37778
G1 X102.796 Y104.552 E31.38578
G1 X102.490 Y104.590 E31.39345
G1 X102.169 Y104.578 E31.40145
G1 X101.860 Y104.513 E31.40930
G1 X101.422 Y104.321 E31.42120
G1 X101.084 Y104.065 E31.43175
G1 X100.838 Y103.785 E31.44103
G1 X100.676 Y103.513 E31.44890
G1 X100.561 Y103.220 E31.45674
G1 X100.495 Y102.906 E31.46472
G1 X100.482 Y102.584 E31.47274
G1 X100.520 Y102.275 E31.48049
G1 X100.557 Y102.126 E31.48431
G1 X100.676 Y101.822 E31.49243
G1 X100.839 Y101.548 E31.50036
G1 X101.039 Y101.310 E31.50810
G1 X101.421 Y101.013 E31.52014
G1 X101.702 Y100.876 E31.52792
G1 X102.013 Y100.782 E31.53600
G1 X102.320 Y100.744 E31.54370
G1 X102.641 Y100.757 E31.55169
G1 X102.957 Y100.823 E31.55972
G1 X103.094 Y100.869 E31.56332
G1 X103.529 Y101.105 E31.57563
G1 X103.641 Y101.192 E31.57916
G1 X103.974 Y101.553 E31.59138
G1 X104.056 Y101.678 E31.59510
G1 X104.196 Y101.964 E31.60303
G1 X104.289 Y102.276 E31.61113
G1 X104.327 Y102.582 E31.61880
G1 X104.315 Y102.903 E31.62679
G0 F3600 X103.420 Y102.575
;TYPE:SKIN
G1 F1500 X102.496 Y101.650 E31.65933
G0 F3600 X102.007 Y101.726
G1 F1500 X103.345 Y103.063 E31.70639
G0 F3600 X103.113 Y103.396
G1 F1500 X101.671 Y101.954 E31.75714
G0 F3600 X101.452 Y102.299
G1 F1500 X102.772 Y103.619 E31.80359
G0 F3600 X102.268 Y103.680
G1 F1500 X101.389 Y102.801 E31.83452
;LAYER:41
M117 Nb = 42 / 53
G0 F3600 X101.304 Y102.897 Z6.410
;TYPE:WALL-INNER
G1 F1320 X101.281 Y102.713 E31.83913
G1 X101.289 Y102.532 E31.84364
G1 X101.328 Y102.345 E31.84839
G1 X101.394 Y102.173 E31.85298
G1 X101.476 Y102.036 E31.85695
G1 X101.694 Y101.798 E31.86498
G1 X101.893 Y101.664 E31.87095
G1 X102.078 Y101.591 E31.87590
G1 X102.267 Y101.551 E31.88071
G1 X102.428 Y101.545 E31.88472
G1 X102.774 Y101.604 E31.89345
G1 X103.071 Y101.764 E31.90184
G1 X103.196 Y101.870 E31.90592
G1 X103.322 Y102.018 E31.91076
G1 X103.413 Y102.171 E31.91519
G1 X103.482 Y102.347 E31.91989
G1 X103.520 Y102.527 E31.92447
G1 X103.528 Y102.707 E31.92895
G1 X103.504 Y102.898 E31.93374
G1 X103.450 Y103.080 E31.93847
G1 X103.381 Y103.222 E31.94239
G1 X103.162 Y103.499 E31.95118
G1 X102.878 Y103.685 E31.95963
G1 X102.731 Y103.743 E31.96356
G1 X102.542 Y103.783 E31.96837
G1 X102.356 Y103.791 E31.97300
G1 X102.180 Y103.769 E31.97741
G1 X102.015 Y103.720 E31.98170
G1 X101.719 Y103.560 E31.99007
G1 X101.694 Y103.540 E31.99087
G1 X101.548 Y103.394 E31.99600
G1 X101.440 Y103.244 E32.00060
G1 X101.358 Y103.076 E32.00525
G1 X101.304 Y102.897 E32.00991
G0 F3600 X100.913 Y102.980
G1 F1320 X100.882 Y102.735 E32.01605
G1 X100.892 Y102.477 E32.02248
G1 X100.944 Y102.231 E32.02873
G1 X101.032 Y102.003 E32.03481
G1 X101.158 Y101.793 E32.04091
G1 X101.429 Y101.497 E32.05089
G1 X101.635 Y101.350 E32.05719
G1 X101.721 Y101.303 E32.05963
G1 X101.971 Y101.205 E32.06631
G1 X102.216 Y101.154 E32.07254
G1 X102.452 Y101.144 E32.07841
G1 X102.860 Y101.212 E32.08871
G1 X102.934 Y101.237 E32.09065
G1 X103.298 Y101.434 E32.10095
G1 X103.481 Y101.589 E32.10692
G1 X103.643 Y101.780 E32.11315
G1 X103.772 Y101.996 E32.11941
G1 X103.866 Y102.235 E32.12580
G1 X103.917 Y102.475 E32.13190
G1 X103.927 Y102.727 E32.13818
G1 X103.896 Y102.981 E32.14455
G1 X103.825 Y103.220 E32.15075
G1 X103.720 Y103.436 E32.15673
G1 X103.467 Y103.761 E32.16698
G1 X103.410 Y103.814 E32.16891
G1 X103.064 Y104.040 E32.17920
G1 X102.838 Y104.129 E32.18524
G1 X102.593 Y104.180 E32.19147
G1 X102.342 Y104.191 E32.19772
G1 X102.095 Y104.160 E32.20391
G1 X101.866 Y104.092 E32.20986
G1 X101.498 Y103.893 E32.22027
G1 X101.241 Y103.651 E32.22905
G1 X101.098 Y103.451 E32.23517
G1 X100.984 Y103.220 E32.24158
G1 X100.913 Y102.980 E32.24780
G0 F3600 X100.520 Y103.059
;TYPE:WALL-OUTER
G1 F1200 X100.482 Y102.751 E32.25553
G1 X100.494 Y102.432 E32.26347
G1 X100.559 Y102.121 E32.27138
G1 X100.676 Y101.822 E32.27936
G1 X100.834 Y101.556 E32.28706
G1 X101.164 Y101.196 E32.29922
G1 X101.556 Y100.939 E32.31088
G1 X101.852 Y100.823 E32.31879
G1 X102.166 Y100.757 E32.32677
G1 X102.481 Y100.744 E32.33462
G1 X102.959 Y100.823 E32.34667
G1 X103.094 Y100.869 E32.35022
G1 X103.523 Y101.102 E32.36237
G1 X103.764 Y101.306 E32.37023
G1 X103.970 Y101.549 E32.37815
G1 X104.133 Y101.822 E32.38606
G1 X104.248 Y102.114 E32.39387
G1 X104.315 Y102.428 E32.40186
G1 X104.327 Y102.742 E32.40968
G1 X104.288 Y103.061 E32.41768
G1 X104.197 Y103.366 E32.42560
G1 X104.061 Y103.648 E32.43339
G1 X103.761 Y104.033 E32.44553
G1 X103.659 Y104.127 E32.44898
G1 X103.245 Y104.398 E32.46130
G1 X102.957 Y104.511 E32.46900
G1 X102.644 Y104.577 E32.47695
G1 X102.322 Y104.590 E32.48497
G1 X102.017 Y104.553 E32.49262
G1 X101.710 Y104.462 E32.50059
G1 X101.280 Y104.229 E32.51276
G1 X101.167 Y104.141 E32.51632
G1 X100.937 Y103.911 E32.52441
G1 X100.753 Y103.654 E32.53228
G1 X100.612 Y103.367 E32.54023
G1 X100.520 Y103.059 E32.54823
G0 F3600 X101.519 Y102.916
;LAYER:42
M117 Nb = 43 / 53
G0 X101.289 Y102.806 Z6.560
;TYPE:WALL-INNER
G1 F1320 X101.283 Y102.644 E32.55227
G1 X101.336 Y102.324 E32.56034
G1 X101.394 Y102.173 E32.56436
G1 X101.488 Y102.016 E32.56892
G1 X101.610 Y101.872 E32.57361
G1 X101.808 Y101.713 E32.57993
G1 X101.997 Y101.620 E32.58517
G1 X102.176 Y101.566 E32.58982
G1 X102.356 Y101.544 E32.59434
G1 X102.544 Y101.552 E32.59902
G1 X102.791 Y101.609 E32.60533
G1 X102.978 Y101.701 E32.61051
G1 X103.113 Y101.797 E32.61463
G1 X103.359 Y102.070 E32.62378
G1 X103.443 Y102.241 E32.62852
