;Gcode generated by Cura by Dagoma 2.2.1
;Printer: DiscoEasy200
;Object Name : LockMeca_TEST.stl
;Date: 18-11-2022
;Time: 23:30:16
;Print duration: 16 min
;Layer height: 0.2 mm
;Filling: 17.0 %
;Print speed: 60.0 mm/s
;Support: Everywhere
;Adhesion improvement: Nothing
;Filament:
;- Material: Other PLA type Generic
;- Temperature: 215.0 °C
;- Flow: 100.0 %
;- Retraction amount: 3.5 mm
;- Retraction speed: 50.0 mm/s
;- Length: 0.88 m
;- Weight: 3 g
;- Cost: 0.12 EUR
D131 E1 ;Disable filrunout 2, just in case the user has a bicolor printer
G90 ;absolute positioning
M106 S255 ;fan on for the sensor
G28 X Y
G1 X50
M109 R90 ;wait for cool down
G28
;Sensor activation
;No Sensor
M104 S215 ;start the heater
M107 ;start with the fan off
G1 X100 Y20 Z0.5 F3000
M109 S215
M82 ;set extruder to absolute mode
G92 E0 ;zero the extruded length
G1 F200 E10 ;extrude 10mm of feed stock
G92 E0 ;zero the extruded length again
G1 E-3.5 F5000 ;filament retract length
G1 F240 Z3
G1 F4500

;Layer count: 56
;LAYER:0
M117 Nb = 1 / 56
M107
G1 F3000 E-3.50000
G0 F4500 X93.355 Y93.419 Z0.260
;TYPE:WALL-INNER
G1 F3000 E0.00000
G1 F1020 X93.918 Y92.884 E0.03358
G1 X94.517 Y92.384 E0.06732
G1 X95.140 Y91.922 E0.10085
G1 X95.795 Y91.497 E0.13461
G1 X96.473 Y91.112 E0.16833
G1 X97.174 Y90.768 E0.20209
G1 X97.904 Y90.464 E0.23628
G1 X98.620 Y90.214 E0.26907
G1 X99.389 Y89.999 E0.30360
G1 X100.139 Y89.835 E0.33679
G1 X100.922 Y89.714 E0.37105
G1 X101.679 Y89.643 E0.40392
G1 X102.472 Y89.616 E0.43823
G1 X103.246 Y89.637 E0.47171
G1 X104.040 Y89.709 E0.50618
G1 X104.790 Y89.821 E0.53897
G1 X105.572 Y89.988 E0.57355
G1 X106.312 Y90.191 E0.60672
G1 X107.038 Y90.442 E0.63994
G1 X107.775 Y90.745 E0.67439
G1 X108.479 Y91.086 E0.70822
G1 X109.160 Y91.468 E0.74198
G1 X109.805 Y91.884 E0.77516
G1 X110.445 Y92.354 E0.80950
G1 X111.043 Y92.851 E0.84312
G1 X111.604 Y93.378 E0.87640
G1 X112.160 Y93.968 E0.91145
G1 X112.646 Y94.550 E0.94424
G1 X113.109 Y95.178 E0.97797
G1 X113.537 Y95.841 E1.01209
G1 X113.921 Y96.522 E1.04590
G1 X114.257 Y97.211 E1.07904
G1 X114.562 Y97.950 E1.11361
G1 X114.815 Y98.679 E1.14697
G1 X115.022 Y99.427 E1.18053
G1 X115.189 Y100.207 E1.21502
G1 X115.303 Y100.951 E1.24757
G1 X115.374 Y101.739 E1.28177
G1 X115.397 Y102.528 E1.31590
G1 X115.374 Y103.321 E1.35021
G1 X115.304 Y104.080 E1.38316
G1 X115.185 Y104.858 E1.41719
G1 X115.024 Y105.605 E1.45023
G1 X114.808 Y106.376 E1.48486
G1 X114.552 Y107.113 E1.51859
G1 X114.252 Y107.834 E1.55235
G1 X113.908 Y108.536 E1.58616
G1 X113.522 Y109.217 E1.62000
G1 X113.097 Y109.872 E1.65376
G1 X112.994 Y110.010 E1.66121
G1 X111.360 Y110.033 E1.73187
G1 X111.095 Y110.035 E1.74333
G1 X111.101 Y106.944 E1.87698
G1 X95.636 Y106.914 E2.54565
G1 X94.900 Y106.919 E2.57748
G1 X94.900 Y110.001 E2.71074
G1 X94.337 Y110.020 E2.73510
G1 X93.824 Y110.008 E2.75728
G1 X93.148 Y109.965 E2.78657
G1 X92.164 Y110.000 E2.82914
G1 X92.001 Y110.003 E2.83619
G1 X91.904 Y109.872 E2.84324
G1 X91.480 Y109.221 E2.87683
G1 X91.096 Y108.542 E2.91056
G1 X90.752 Y107.842 E2.94429
G1 X90.452 Y107.123 E2.97797
G1 X90.197 Y106.391 E3.01149
G1 X89.980 Y105.619 E3.04616
G1 X89.821 Y104.883 E3.07872
G1 X89.699 Y104.097 E3.11311
G1 X89.628 Y103.341 E3.14594
G1 X89.602 Y102.549 E3.18021
G1 X89.623 Y101.766 E3.21407
G1 X89.691 Y100.987 E3.24788
G1 X89.805 Y100.232 E3.28090
G1 X89.968 Y99.462 E3.31493
G1 X90.174 Y98.716 E3.34839
G1 X90.425 Y97.978 E3.38210
G1 X90.724 Y97.252 E3.41605
G1 X91.060 Y96.557 E3.44942
G1 X91.442 Y95.875 E3.48322
G1 X91.866 Y95.213 E3.51721
G1 X92.325 Y94.586 E3.55081
G1 X92.813 Y93.999 E3.58382
G1 X93.355 Y93.419 E3.61814
G0 F4500 X98.014 Y98.404
G1 F1020 X97.441 Y98.915 E3.65134
G1 X96.947 Y99.484 E3.68392
G1 X96.538 Y100.108 E3.71618
G1 X96.231 Y100.761 E3.74738
G1 X96.108 Y101.118 E3.76371
G1 X96.013 Y101.479 E3.77985
G1 X95.913 Y102.169 E3.80999
G1 X95.901 Y102.540 E3.82604
G1 X95.916 Y102.913 E3.84218
G1 X96.026 Y103.615 E3.87291
G1 X96.242 Y104.298 E3.90388
G1 X96.395 Y104.646 E3.92032
G1 X96.723 Y105.262 E3.95049
G1 X97.123 Y105.272 E3.96779
G1 X108.273 Y105.271 E4.44990
G1 X108.605 Y104.645 E4.48054
G1 X108.753 Y104.309 E4.49641
G1 X108.879 Y103.955 E4.51266
G1 X109.038 Y103.276 E4.54281
G1 X109.084 Y102.903 E4.55906
G1 X109.100 Y102.529 E4.57525
G1 X109.052 Y101.839 E4.60515
G1 X108.984 Y101.469 E4.62142
G1 X108.889 Y101.106 E4.63764
G1 X108.635 Y100.449 E4.66810
G1 X108.264 Y99.784 E4.70103
G1 X107.827 Y99.205 E4.73239
G1 X107.554 Y98.911 E4.74974
G1 X106.992 Y98.409 E4.78232
G1 X106.349 Y97.963 E4.81616
G1 X105.652 Y97.593 E4.85028
G1 X104.915 Y97.304 E4.88451
G1 X104.510 Y97.181 E4.90281
G1 X103.730 Y97.012 E4.93731
G1 X102.913 Y96.926 E4.97284
G1 X102.500 Y96.915 E4.99070
G1 X102.084 Y96.926 E5.00869
G1 X101.283 Y97.010 E5.04352
G1 X100.487 Y97.180 E5.07871
G1 X99.729 Y97.431 E5.11323
G1 X99.344 Y97.595 E5.13133
G1 X98.655 Y97.961 E5.16506
G1 X98.014 Y98.404 E5.19875
G0 F4500 X101.101 Y94.535
G1 F1020 X101.412 Y94.752 E5.21515
G1 X101.756 Y94.912 E5.23155
G1 X102.122 Y95.010 E5.24794
G1 X102.502 Y95.043 E5.26443
G1 X102.868 Y95.009 E5.28032
G1 X103.241 Y94.913 E5.29698
G1 X103.588 Y94.752 E5.31352
G1 X103.899 Y94.535 E5.32991
G1 X104.168 Y94.266 E5.34636
G1 X104.384 Y93.955 E5.36273
G1 X104.546 Y93.612 E5.37913
G1 X104.644 Y93.245 E5.39556
G1 X104.677 Y92.866 E5.41201
G1 X104.644 Y92.489 E5.42837
G1 X104.546 Y92.120 E5.44488
G1 X104.384 Y91.777 E5.46128
G1 X104.168 Y91.466 E5.47765
G1 X103.899 Y91.198 E5.49407
G1 X103.588 Y90.980 E5.51049
G1 X103.244 Y90.819 E5.52692
G1 X102.879 Y90.721 E5.54326
G1 X102.512 Y90.688 E5.55919
G1 X102.123 Y90.721 E5.57607
G1 X101.756 Y90.819 E5.59249
G1 X101.412 Y90.980 E5.60892
G1 X101.101 Y91.198 E5.62534
G1 X100.832 Y91.466 E5.64176
G1 X100.616 Y91.777 E5.65813
G1 X100.454 Y92.120 E5.67453
G1 X100.356 Y92.488 E5.69100
G1 X100.323 Y92.865 E5.70736
G1 X100.356 Y93.243 E5.72377
G1 X100.454 Y93.612 E5.74027
G1 X100.616 Y93.955 E5.75667
G1 X100.832 Y94.266 E5.77305
G1 X101.101 Y94.535 E5.78950
G0 F4500 X101.359 Y94.227
;TYPE:WALL-OUTER
G1 F1020 X101.613 Y94.404 E5.80288
G1 X101.893 Y94.535 E5.81625
G1 X102.192 Y94.615 E5.82963
G1 X102.501 Y94.642 E5.84304
G1 X102.799 Y94.614 E5.85598
G1 X103.106 Y94.535 E5.86969
G1 X103.387 Y94.404 E5.88310
G1 X103.641 Y94.227 E5.89648
G1 X103.860 Y94.008 E5.90987
G1 X104.037 Y93.754 E5.92326
G1 X104.169 Y93.474 E5.93664
G1 X104.249 Y93.175 E5.95003
G1 X104.276 Y92.866 E5.96344
G1 X104.249 Y92.558 E5.97681
G1 X104.169 Y92.258 E5.99023
G1 X104.037 Y91.978 E6.00362
G1 X103.860 Y91.724 E6.01700
G1 X103.641 Y91.505 E6.03039
G1 X103.387 Y91.327 E6.04380
G1 X103.107 Y91.196 E6.05717
G1 X102.808 Y91.116 E6.07055
G1 X102.511 Y91.089 E6.08345
G1 X102.192 Y91.116 E6.09729
G1 X101.893 Y91.196 E6.11067
G1 X101.613 Y91.327 E6.12404
G1 X101.359 Y91.505 E6.13745
G1 X101.140 Y91.724 E6.15084
G1 X100.963 Y91.978 E6.16423
G1 X100.831 Y92.258 E6.17761
G1 X100.751 Y92.558 E6.19104
G1 X100.724 Y92.865 E6.20436
G1 X100.751 Y93.174 E6.21777
G1 X100.831 Y93.474 E6.23120
G1 X100.963 Y93.754 E6.24458
G1 X101.140 Y94.008 E6.25797
G1 X101.359 Y94.227 E6.27136
G0 F4500 X101.186 Y94.472
G0 X102.078 Y97.028
G0 X102.110 Y97.325
G1 F1020 X101.346 Y97.405 E6.30458
G1 X100.592 Y97.567 E6.33792
G1 X99.870 Y97.806 E6.37081
G1 X99.516 Y97.956 E6.38743
G1 X98.863 Y98.303 E6.41940
G1 X98.262 Y98.719 E6.45101
G1 X97.726 Y99.196 E6.48203
G1 X97.267 Y99.726 E6.51235
G1 X96.888 Y100.304 E6.54223
G1 X96.602 Y100.912 E6.57128
G1 X96.406 Y101.559 E6.60051
G1 X96.312 Y102.204 E6.62870
G1 X96.301 Y102.539 E6.64319
G1 X96.315 Y102.874 E6.65769
G1 X96.417 Y103.523 E6.68609
G1 X96.617 Y104.157 E6.71484
G1 X96.966 Y104.868 E6.74908
G1 X97.128 Y104.872 E6.75609
G1 X108.032 Y104.871 E7.22756
G1 X108.245 Y104.470 E7.24719
G1 X108.494 Y103.842 E7.27640
G1 X108.644 Y103.205 E7.30470
G1 X108.685 Y102.870 E7.31929
G1 X108.699 Y102.534 E7.33383
G1 X108.655 Y101.889 E7.36179
G1 X108.508 Y101.229 E7.39102
G1 X108.270 Y100.613 E7.41958
G1 X107.933 Y100.009 E7.44948
G1 X107.520 Y99.462 E7.47912
G1 X107.273 Y99.196 E7.49481
G1 X106.744 Y98.724 E7.52547
G1 X106.140 Y98.305 E7.55725
G1 X105.485 Y97.957 E7.58932
G1 X104.784 Y97.682 E7.62188
G1 X104.409 Y97.568 E7.63883
G1 X103.661 Y97.407 E7.67191
G1 X102.892 Y97.325 E7.70535
G1 X102.500 Y97.315 E7.72230
G1 X102.110 Y97.325 E7.73917
G0 F4500 X102.078 Y97.028
G0 X100.323 Y92.865
G0 X101.102 Y91.199
G0 X101.683 Y89.543
G0 X101.662 Y89.243
G1 F1020 X102.469 Y89.215 E7.77409
G1 X103.277 Y89.238 E7.80904
G1 X104.068 Y89.309 E7.84338
G1 X104.866 Y89.429 E7.87827
G1 X105.661 Y89.598 E7.91341
G1 X106.438 Y89.812 E7.94826
G1 X107.190 Y90.071 E7.98265
G1 X107.937 Y90.379 E8.01758
G1 X108.666 Y90.732 E8.05260
G1 X109.363 Y91.123 E8.08716
G1 X110.045 Y91.563 E8.12225
G1 X110.684 Y92.032 E8.15653
G1 X111.312 Y92.555 E8.19186
G1 X111.894 Y93.103 E8.22643
G1 X112.451 Y93.693 E8.26151
G1 X112.959 Y94.301 E8.29577
G1 X113.437 Y94.949 E8.33058
G1 X113.881 Y95.636 E8.36595
G1 X114.270 Y96.327 E8.40024
G1 X114.629 Y97.062 E8.43561
G1 X114.936 Y97.806 E8.47041
G1 X115.195 Y98.556 E8.50471
G1 X115.411 Y99.332 E8.53954
G1 X115.582 Y100.131 E8.57487
G1 X115.703 Y100.927 E8.60969
G1 X115.774 Y101.718 E8.64402
G1 X115.798 Y102.522 E8.67880
G1 X115.774 Y103.338 E8.71410
G1 X115.701 Y104.130 E8.74849
G1 X115.577 Y104.938 E8.78384
G1 X115.410 Y105.713 E8.81811
G1 X115.189 Y106.499 E8.85342
G1 X114.928 Y107.250 E8.88779
G1 X114.619 Y107.993 E8.92259
G1 X114.262 Y108.724 E8.95776
G1 X113.868 Y109.418 E8.99227
G1 X113.429 Y110.094 E9.02712
G1 X113.197 Y110.407 E9.04397
G1 X111.365 Y110.433 E9.12319
G1 X110.753 Y110.437 E9.14965
G1 X110.694 Y110.440 E9.15220
G1 X110.700 Y107.343 E9.28611
G1 X95.637 Y107.314 E9.93741
G1 X95.300 Y107.316 E9.95198
G1 X95.300 Y110.403 E10.08546
G1 X95.197 Y110.380 E10.09002
G1 X94.788 Y110.410 E10.10775
G1 X94.337 Y110.420 E10.12726
G1 X93.810 Y110.408 E10.15005
G1 X93.143 Y110.366 E10.17895
G1 X92.178 Y110.400 E10.22070
G1 X91.802 Y110.406 E10.23696
G1 X91.571 Y110.094 E10.25374
G1 X91.134 Y109.422 E10.28840
G1 X90.741 Y108.727 E10.32293
G1 X90.388 Y108.007 E10.35760
G1 X90.077 Y107.262 E10.39250
G1 X89.815 Y106.510 E10.42694
G1 X89.595 Y105.728 E10.46206
G1 X89.426 Y104.954 E10.49632
G1 X89.302 Y104.148 E10.53158
G1 X89.228 Y103.358 E10.56588
G1 X89.202 Y102.558 E10.60049
G1 X89.223 Y101.744 E10.63570
G1 X89.292 Y100.956 E10.66990
G1 X89.411 Y100.161 E10.70466
G1 X89.577 Y99.376 E10.73935
G1 X89.794 Y98.590 E10.77461
G1 X90.049 Y97.841 E10.80882
G1 X90.354 Y97.098 E10.84355
G1 X90.709 Y96.363 E10.87884
G1 X91.096 Y95.674 E10.91301
G1 X91.536 Y94.987 E10.94828
G1 X92.003 Y94.349 E10.98247
G1 X92.524 Y93.722 E11.01772
G1 X93.073 Y93.135 E11.05247
G1 X93.657 Y92.581 E11.08727
G1 X94.264 Y92.074 E11.12147
G1 X94.913 Y91.593 E11.15640
G1 X95.590 Y91.154 E11.19129
G1 X96.282 Y90.760 E11.22572
G1 X97.009 Y90.404 E11.26072
G1 X97.757 Y90.092 E11.29576
G1 X98.507 Y89.830 E11.33011
G1 X99.290 Y89.611 E11.36527
G1 X100.064 Y89.442 E11.39952
G1 X100.871 Y89.317 E11.43483
G1 X101.662 Y89.243 E11.46918
G0 F4500 X101.897 Y89.735
;TYPE:SKIN
G1 F1020 X102.773 Y90.610 E11.52272
G0 F4500 X102.209 Y90.612
G1 F1020 X101.369 Y89.772 E11.57408
G0 F4500 X100.857 Y89.826
G1 F1020 X101.748 Y90.717 E11.62856
G0 F4500 X101.359 Y90.894
G1 F1020 X100.366 Y89.901 E11.68928
G0 F4500 X99.891 Y89.992
G1 F1020 X101.027 Y91.128 E11.75875
G0 F4500 X100.746 Y91.412
G1 F1020 X99.426 Y90.093 E11.83943
G0 F4500 X98.985 Y90.216
G1 F1020 X100.517 Y91.749 E11.93314
G0 F4500 X100.344 Y92.142
G1 F1020 X98.548 Y90.345 E12.04299
G0 F4500 X98.128 Y90.491
G1 F1020 X100.245 Y92.608 E12.17244
G0 F4500 X100.248 Y93.177
G1 F1020 X97.720 Y90.649 E12.32703
G0 F4500 X97.321 Y90.816
G1 F1020 X100.569 Y94.064 E12.52563
G0 F4500 X101.307 Y94.801
G1 F1020 X103.379 Y96.873 E12.65233
G0 F4500 X102.761 Y96.821
G1 F1020 X96.936 Y90.996 E13.00852
G0 F4500 X96.556 Y91.182
G1 F1020 X102.196 Y96.822 E13.35340
G0 F4500 X101.675 Y96.867
G1 F1020 X96.194 Y91.385 E13.68858
G0 F4500 X95.834 Y91.591
G1 F1020 X101.172 Y96.930 E14.01502
G0 F4500 X100.706 Y97.029
G1 F1020 X95.491 Y91.814 E14.33390
G0 F4500 X95.150 Y92.039
G1 F1020 X100.259 Y97.148 E14.64631
G0 F4500 X102.187 Y95.116
G1 F1020 X104.050 Y96.979 E14.76023
G0 F4500 X104.802 Y97.165
G1 F1020 X102.756 Y95.120 E14.88531
G0 F4500 X103.222 Y95.020
G1 F1020 X105.714 Y97.512 E15.03769
G0 F4500 X107.481 Y98.713
G1 F1020 X103.617 Y94.849 E15.27396
G0 F4500 X103.953 Y94.619
G1 F1020 X114.923 Y105.590 E15.94479
G0 F4500 X114.800 Y106.032
G1 F1020 X107.840 Y99.072 E16.37038
G0 F4500 X104.236 Y94.337
G1 F1020 X115.024 Y105.124 E17.03001
G0 F4500 X115.114 Y104.649
G1 F1020 X104.470 Y94.004 E17.68090
G0 F4500 X104.646 Y93.615
G1 F1020 X115.189 Y104.158 E18.32559
G0 F4500 X115.243 Y103.647
G1 F1020 X104.750 Y93.154 E18.96721
G0 F4500 X104.752 Y92.589
G1 F1020 X115.279 Y103.117 E19.61095
G0 F4500 X115.295 Y102.567
G1 F1020 X104.484 Y91.757 E20.27199
G0 F4500 X103.606 Y90.878
G1 F1020 X102.444 Y89.717 E20.34301
G0 F4500 X103.025 Y89.731
G1 F1020 X115.281 Y101.987 E21.09244
G0 F4500 X115.240 Y101.381
G1 F1020 X103.632 Y89.772 E21.80228
G0 F4500 X104.270 Y89.845
G1 F1020 X115.169 Y100.744 E22.46873
G0 F4500 X115.054 Y100.064
G1 F1020 X104.949 Y89.958 E23.08666
G0 F4500 X105.677 Y90.121
G1 F1020 X114.892 Y99.336 E23.65014
G0 F4500 X114.660 Y98.538
G1 F1020 X106.474 Y90.351 E24.15073
G0 F4500 X107.377 Y90.689
G1 F1020 X114.325 Y97.637 E24.57558
G0 F4500 X113.840 Y96.587
G1 F1020 X108.424 Y91.170 E24.90679
G0 F4500 X109.887 Y92.068
G1 F1020 X112.947 Y95.128 E25.09391
G0 F4500 X108.798 Y100.596
G1 F1020 X114.670 Y106.467 E25.45294
G0 F4500 X114.523 Y106.886
G1 F1020 X109.078 Y101.441 E25.78589
G0 F4500 X109.168 Y102.097
G1 F1020 X114.366 Y107.295 E26.10374
G0 F4500 X114.200 Y107.695
G1 F1020 X109.192 Y102.686 E26.40999
G0 F4500 X109.146 Y103.206
G1 F1020 X114.019 Y108.079 E26.70797
G0 F4500 X113.833 Y108.459
G1 F1020 X109.047 Y103.673 E27.00062
G0 F4500 X108.925 Y104.117
G1 F1020 X113.630 Y108.822 E27.28832
G0 F4500 X113.424 Y109.182
G1 F1020 X111.199 Y106.956 E27.42441
G0 F4500 X111.086 Y106.843
G1 F1020 X108.766 Y104.523 E27.56627
G0 F4500 X108.579 Y104.902
G1 F1020 X110.520 Y106.843 E27.68496
G0 F4500 X109.953 Y106.842
G1 F1020 X108.383 Y105.272 E27.78096
G0 F4500 X107.916 Y105.370
G1 F1020 X109.387 Y106.841 E27.87091
G0 F4500 X108.820 Y106.840
G1 F1020 X107.350 Y105.370 E27.96080
G0 F4500 X106.785 Y105.370
G1 F1020 X108.253 Y106.839 E28.05060
G0 F4500 X107.687 Y106.838
G1 F1020 X106.219 Y105.370 E28.14036
G0 F4500 X105.653 Y105.370
G1 F1020 X107.121 Y106.838 E28.23013
G0 F4500 X106.553 Y106.836
G1 F1020 X105.088 Y105.370 E28.31974
G0 F4500 X104.522 Y105.370
G1 F1020 X105.987 Y106.836 E28.40935
G0 F4500 X105.421 Y106.835
G1 F1020 X103.956 Y105.370 E28.49893
G0 F4500 X103.391 Y105.370
G1 F1020 X104.854 Y106.834 E28.58842
G0 F4500 X104.287 Y106.833
G1 F1020 X102.825 Y105.370 E28.67785
G0 F4500 X102.259 Y105.370
G1 F1020 X103.721 Y106.832 E28.76725
G0 F4500 X103.154 Y106.831
G1 F1020 X101.693 Y105.370 E28.85659
G0 F4500 X101.128 Y105.370
G1 F1020 X102.588 Y106.831 E28.94589
G0 F4500 X102.021 Y106.829
G1 F1020 X100.562 Y105.370 E29.03511
G0 F4500 X99.996 Y105.370
G1 F1020 X101.454 Y106.828 E29.12426
G0 F4500 X100.888 Y106.828
G1 F1020 X99.431 Y105.370 E29.21339
G0 F4500 X98.865 Y105.370
G1 F1020 X100.322 Y106.827 E29.30248
G0 F4500 X111.042 Y107.003
G0 X111.198 Y107.521
G1 F1020 X113.202 Y109.525 E29.42502
G0 F4500 X112.976 Y109.865
G1 F1020 X111.197 Y108.086 E29.53380
G0 F4500 X111.196 Y108.651
G1 F1020 X112.462 Y109.916 E29.61119
G0 F4500 X111.904 Y109.924
G1 F1020 X111.195 Y109.215 E29.65454
G0 F4500 X111.194 Y109.780
G1 F1020 X111.347 Y109.933 E29.66389
G0 F4500 X111.042 Y107.003
G0 X99.755 Y106.826
G1 F1020 X98.299 Y105.370 E29.75293
G0 F4500 X97.734 Y105.370
G1 F1020 X99.188 Y106.825 E29.84187
G0 F4500 X98.622 Y106.824
G1 F1020 X97.168 Y105.370 E29.93078
G0 F4500 X96.163 Y104.366
G1 F1020 X90.337 Y98.540 E30.28702
G0 F4500 X90.481 Y98.118
G1 F1020 X95.915 Y103.552 E30.61930
G0 F4500 X95.815 Y102.886
G1 F1020 X90.641 Y97.712 E30.93568
G0 F4500 X90.806 Y97.312
G1 F1020 X95.808 Y102.314 E31.24154
G0 F4500 X95.864 Y101.804
G1 F1020 X90.989 Y96.929 E31.53964
G0 F4500 X91.176 Y96.550
G1 F1020 X95.950 Y101.324 E31.83156
G0 F4500 X96.081 Y100.889
G1 F1020 X91.379 Y96.187 E32.11908
G0 F4500 X91.588 Y95.830
G1 F1020 X96.247 Y100.490 E32.40400
G0 F4500 X96.428 Y100.105
G1 F1020 X91.808 Y95.485 E32.68650
G0 F4500 X92.035 Y95.146
G1 F1020 X96.647 Y99.758 E32.96852
G0 F4500 X96.872 Y99.417
G1 F1020 X92.274 Y94.820 E33.24964
G0 F4500 X92.522 Y94.502
G1 F1020 X97.135 Y99.115 E33.53172
G0 F4500 X97.401 Y98.815
G1 F1020 X92.779 Y94.193 E33.81435
G0 F4500 X93.046 Y93.894
G1 F1020 X97.699 Y98.548 E34.09890
G0 F4500 X98.004 Y98.287
G1 F1020 X93.319 Y93.602 E34.38538
G0 F4500 X93.603 Y93.320
G1 F1020 X98.339 Y98.056 E34.67497
G0 F4500 X98.680 Y97.832
G1 F1020 X93.893 Y93.044 E34.96772
G0 F4500 X94.195 Y92.781
G1 F1020 X99.050 Y97.635 E35.26456
G0 F4500 X99.429 Y97.449
G1 F1020 X94.504 Y92.524 E35.56572
G0 F4500 X94.825 Y92.279
G1 F1020 X99.834 Y97.289 E35.87204
G0 F4500 X97.442 Y98.916
G0 X96.109 Y101.118
G0 X96.028 Y103.614
G0 X96.740 Y105.235
G0 X98.055 Y106.824
G1 F1020 X90.205 Y98.973 E36.35208
G0 F4500 X90.083 Y99.417
G1 F1020 X97.488 Y106.822 E36.80488
G0 F4500 X96.922 Y106.821
G1 F1020 X89.981 Y99.880 E37.22931
G0 F4500 X89.888 Y100.353
G1 F1020 X96.356 Y106.821 E37.62482
G0 F4500 X95.789 Y106.820
G1 F1020 X89.813 Y100.844 E37.99024
G0 F4500 X89.758 Y101.355
G1 F1020 X95.222 Y106.819 E38.32435
G0 F4500 X94.800 Y106.962
G1 F1020 X89.719 Y101.882 E38.63501
G0 F4500 X89.704 Y102.432
G1 F1020 X94.800 Y107.528 E38.94662
G0 F4500 X94.800 Y108.093
G1 F1020 X89.717 Y103.010 E39.25744
G0 F4500 X89.753 Y103.613
G1 F1020 X94.800 Y108.659 E39.56602
G0 F4500 X94.800 Y109.225
G1 F1020 X89.824 Y104.249 E39.87029
G0 F4500 X89.929 Y104.920
G1 F1020 X94.800 Y109.791 E40.16815
G0 F4500 X94.361 Y109.918
G1 F1020 X90.086 Y105.642 E40.42958
G0 F4500 X90.321 Y106.443
G1 F1020 X93.781 Y109.903 E40.64116
G0 F4500 X93.177 Y109.865
G1 F1020 X90.651 Y107.339 E40.79562
G0 F4500 X91.129 Y108.382
G1 F1020 X92.628 Y109.882 E40.88731
G0 F4500 X92.081 Y109.900
G1 F1020 X91.969 Y109.788 E40.89416
;LAYER:1
M117 Nb = 2 / 56
M106 S81
G0 F4500 X91.915 Y109.885 Z0.460
;TYPE:WALL-INNER
G1 F1620 X91.488 Y109.231 E40.92013
G1 X91.114 Y108.573 E40.94531
G1 X90.768 Y107.871 E40.97134
G1 X90.465 Y107.153 E40.99726
G1 X90.208 Y106.419 E41.02312
G1 X89.997 Y105.677 E41.04878
G1 X89.827 Y104.910 E41.07491
G1 X89.704 Y104.132 E41.10111
G1 X89.632 Y103.376 E41.12637
G1 X89.603 Y102.567 E41.15329
G1 X89.602 Y102.532 E41.15446
G1 X89.622 Y101.803 E41.17871
G1 X89.687 Y101.035 E41.20435
G1 X89.802 Y100.252 E41.23067
G1 X89.958 Y99.506 E41.25602
G1 X90.165 Y98.744 E41.28228
G1 X90.413 Y98.015 E41.30789
G1 X90.708 Y97.289 E41.33396
G1 X91.048 Y96.581 E41.36008
G1 X91.425 Y95.904 E41.38585
G1 X91.842 Y95.249 E41.41168
G1 X92.312 Y94.604 E41.43822
G1 X92.795 Y94.019 E41.46345
G1 X93.329 Y93.444 E41.48955
G1 X93.885 Y92.915 E41.51508
G1 X94.498 Y92.398 E41.54175
G1 X95.105 Y91.947 E41.56690
G1 X95.766 Y91.514 E41.59318
G1 X96.448 Y91.123 E41.61933
G1 X97.135 Y90.786 E41.64478
G1 X97.862 Y90.479 E41.67103
G1 X98.600 Y90.219 E41.69705
G1 X99.333 Y90.012 E41.72239
G1 X100.107 Y89.840 E41.74876
G1 X100.885 Y89.717 E41.77496
G1 X101.642 Y89.645 E41.80025
G1 X102.452 Y89.615 E41.82721
G1 X102.491 Y89.614 E41.82850
G1 X103.228 Y89.636 E41.85303
G1 X103.262 Y89.637 E41.85416
G1 X103.990 Y89.703 E41.87847
G1 X104.768 Y89.816 E41.90462
G1 X105.521 Y89.975 E41.93022
G1 X106.282 Y90.182 E41.95645
G1 X107.014 Y90.431 E41.98216
G1 X107.742 Y90.730 E42.00834
G1 X108.434 Y91.062 E42.03387
G1 X109.128 Y91.450 E42.06031
G1 X109.783 Y91.870 E42.08619
G1 X110.407 Y92.324 E42.11186
G1 X111.017 Y92.828 E42.13818
G1 X111.593 Y93.366 E42.16439
G1 X112.124 Y93.927 E42.19008
G1 X112.617 Y94.514 E42.21558
G1 X113.096 Y95.159 E42.24230
G1 X113.511 Y95.798 E42.26764
G1 X113.896 Y96.476 E42.29358
G1 X114.272 Y97.241 E42.32193
G1 X114.546 Y97.907 E42.34588
G1 X114.808 Y98.661 E42.37243
G1 X115.019 Y99.412 E42.39837
G1 X115.179 Y100.157 E42.42372
G1 X115.302 Y100.940 E42.45008
G1 X115.371 Y101.691 E42.47516
G1 X115.397 Y102.509 E42.50238
G1 X115.375 Y103.281 E42.52807
G1 X115.308 Y104.043 E42.55351
G1 X115.192 Y104.814 E42.57945
G1 X115.025 Y105.592 E42.60591
G1 X114.818 Y106.341 E42.63176
G1 X114.571 Y107.060 E42.65704
G1 X114.265 Y107.801 E42.68371
G1 X113.927 Y108.496 E42.70941
G1 X113.535 Y109.192 E42.73598
G1 X113.121 Y109.833 E42.76136
G1 X112.654 Y110.466 E42.78752
G1 X112.136 Y111.088 E42.81445
G1 X111.620 Y111.633 E42.83941
G1 X111.043 Y112.177 E42.86578
G1 X110.454 Y112.668 E42.89129
G1 X109.804 Y113.145 E42.91810
G1 X109.173 Y113.551 E42.94306
G1 X108.483 Y113.941 E42.96942
G1 X107.860 Y114.243 E42.99245
G1 X105.900 Y114.242 E43.05764
G1 X105.900 Y115.413 E43.09659
G1 X99.100 Y115.413 E43.32276
G1 X99.100 Y114.232 E43.36204
G1 X98.430 Y114.243 E43.38432
G1 X97.137 Y114.242 E43.42733
G1 X96.551 Y113.959 E43.44897
G1 X95.890 Y113.590 E43.47415
G1 X95.227 Y113.167 E43.50031
G1 X94.609 Y112.716 E43.52575
G1 X93.999 Y112.214 E43.55203
G1 X93.429 Y111.683 E43.57794
G1 X92.888 Y111.114 E43.60405
G1 X92.391 Y110.525 E43.62969
G1 X91.915 Y109.885 E43.65621
G0 F4500 X94.900 Y111.114
G1 F1620 X111.100 Y111.114 E44.19503
G1 X111.100 Y106.914 E44.33472
G1 X94.900 Y106.914 E44.87354
G1 X94.900 Y111.114 E45.01323
G0 F4500 X94.959 Y106.973
G0 X96.711 Y105.268
G1 F1620 X97.322 Y105.271 E45.03355
G1 X108.273 Y105.270 E45.39778
G1 X108.611 Y104.634 E45.42174
G1 X108.868 Y103.983 E45.44502
G1 X108.974 Y103.605 E45.45807
G1 X109.083 Y102.920 E45.48114
G1 X109.100 Y102.522 E45.49439
G1 X109.052 Y101.843 E45.51703
G1 X108.981 Y101.450 E45.53032
G1 X108.781 Y100.790 E45.55325
G1 X108.629 Y100.435 E45.56610
G1 X108.270 Y99.790 E45.59065
G1 X108.048 Y99.477 E45.60341
G1 X107.567 Y98.922 E45.62784
G1 X107.277 Y98.647 E45.64113
G1 X106.685 Y98.180 E45.66621
G1 X106.022 Y97.776 E45.69203
G1 X105.633 Y97.584 E45.70646
G1 X104.914 Y97.302 E45.73215
G1 X104.134 Y97.088 E45.75905
G1 X103.337 Y96.959 E45.78590
G1 X102.920 Y96.925 E45.79982
G1 X102.501 Y96.913 E45.81376
G1 X102.090 Y96.924 E45.82744
G1 X101.270 Y97.012 E45.85487
G1 X100.871 Y97.085 E45.86836
G1 X100.114 Y97.291 E45.89445
G1 X99.702 Y97.440 E45.90902
G1 X99.005 Y97.761 E45.93455
G1 X98.324 Y98.173 E45.96102
G1 X97.723 Y98.646 E45.98646
G1 X97.182 Y99.192 E46.01202
G1 X96.735 Y99.784 E46.03669
G1 X96.374 Y100.426 E46.06119
G1 X96.110 Y101.107 E46.08548
G1 X95.954 Y101.803 E46.10921
G1 X95.912 Y102.181 E46.12186
G1 X95.901 Y102.540 E46.13380
G1 X95.916 Y102.912 E46.14619
G1 X96.025 Y103.607 E46.16958
G1 X96.243 Y104.301 E46.19378
G1 X96.711 Y105.268 E46.22951
G0 F4500 X95.901 Y102.539
G0 X96.375 Y100.427
G0 X98.325 Y98.174
G0 X101.412 Y94.750
G1 F1620 X101.756 Y94.910 E46.24213
G1 X102.122 Y95.008 E46.25473
G1 X102.500 Y95.041 E46.26735
G1 X102.878 Y95.008 E46.27997
G1 X103.244 Y94.910 E46.29257
G1 X103.588 Y94.750 E46.30519
G1 X103.899 Y94.533 E46.31780
G1 X104.168 Y94.264 E46.33046
G1 X104.384 Y93.953 E46.34305
G1 X104.546 Y93.610 E46.35567
G1 X104.644 Y93.243 E46.36830
G1 X104.677 Y92.864 E46.38095
G1 X104.644 Y92.486 E46.39358
G1 X104.546 Y92.119 E46.40621
G1 X104.384 Y91.776 E46.41883
G1 X104.168 Y91.465 E46.43142
G1 X103.899 Y91.197 E46.44405
G1 X103.588 Y90.979 E46.45668
G1 X103.244 Y90.818 E46.46931
G1 X102.879 Y90.720 E46.48188
G1 X102.527 Y90.688 E46.49364
G1 X102.125 Y90.719 E46.50705
G1 X101.756 Y90.818 E46.51976
G1 X101.412 Y90.979 E46.53239
G1 X101.101 Y91.197 E46.54502
G1 X100.832 Y91.465 E46.55765
G1 X100.616 Y91.776 E46.57025
G1 X100.454 Y92.119 E46.58286
G1 X100.356 Y92.486 E46.59550
G1 X100.323 Y92.863 E46.60808
G1 X100.356 Y93.241 E46.62070
G1 X100.454 Y93.610 E46.63340
G1 X100.616 Y93.953 E46.64602
G1 X100.832 Y94.264 E46.65861
G1 X101.101 Y94.533 E46.67127
G1 X101.412 Y94.750 E46.68388
G0 F4500 X101.613 Y94.402
;TYPE:WALL-OUTER
G1 F1440 X101.893 Y94.533 E46.69416
G1 X102.192 Y94.613 E46.70445
G1 X102.500 Y94.640 E46.71474
G1 X102.808 Y94.613 E46.72502
G1 X103.107 Y94.533 E46.73532
G1 X103.387 Y94.402 E46.74560
G1 X103.641 Y94.225 E46.75589
G1 X103.860 Y94.006 E46.76620
G1 X104.037 Y93.752 E46.77649
G1 X104.169 Y93.472 E46.78679
G1 X104.249 Y93.173 E46.79708
G1 X104.276 Y92.864 E46.80740
G1 X104.249 Y92.556 E46.81768
G1 X104.169 Y92.257 E46.82798
G1 X104.037 Y91.977 E46.83827
G1 X103.860 Y91.723 E46.84857
G1 X103.641 Y91.504 E46.85887
G1 X103.387 Y91.326 E46.86919
G1 X103.107 Y91.195 E46.87947
G1 X102.808 Y91.115 E46.88976
G1 X102.524 Y91.089 E46.89925
G1 X102.193 Y91.115 E46.91029
G1 X101.893 Y91.195 E46.92062
G1 X101.613 Y91.326 E46.93090
G1 X101.359 Y91.504 E46.94122
G1 X101.140 Y91.723 E46.95152
G1 X100.963 Y91.977 E46.96181
G1 X100.831 Y92.257 E46.97211
G1 X100.751 Y92.556 E46.98240
G1 X100.724 Y92.863 E46.99266
G1 X100.751 Y93.172 E47.00297
G1 X100.831 Y93.472 E47.01330
G1 X100.963 Y93.752 E47.02359
G1 X101.140 Y94.006 E47.03389
G1 X101.359 Y94.225 E47.04419
G1 X101.613 Y94.402 E47.05449
G0 F4500 X101.442 Y94.648
G0 X102.084 Y97.024
G0 X102.112 Y97.323
G1 F1440 X101.333 Y97.407 E47.08055
G1 X100.960 Y97.476 E47.09317
G1 X100.235 Y97.673 E47.11815
G1 X99.854 Y97.811 E47.13163
G1 X99.192 Y98.115 E47.15586
G1 X98.552 Y98.502 E47.18074
G1 X97.990 Y98.945 E47.20454
G1 X97.485 Y99.455 E47.22841
G1 X97.070 Y100.003 E47.25127
G1 X96.737 Y100.597 E47.27392
G1 X96.494 Y101.224 E47.29629
G1 X96.349 Y101.869 E47.31827
G1 X96.311 Y102.210 E47.32969
G1 X96.301 Y102.538 E47.34060
G1 X96.315 Y102.873 E47.35175
G1 X96.416 Y103.516 E47.37340
G1 X96.616 Y104.153 E47.39561
G1 X96.962 Y104.869 E47.42206
G1 X108.032 Y104.871 E47.79025
G1 X108.247 Y104.466 E47.80550
G1 X108.489 Y103.855 E47.82736
G1 X108.583 Y103.520 E47.83893
G1 X108.684 Y102.880 E47.86048
G1 X108.699 Y102.527 E47.87223
G1 X108.655 Y101.893 E47.89337
G1 X108.592 Y101.544 E47.90516
G1 X108.404 Y100.927 E47.92661
G1 X108.267 Y100.606 E47.93822
G1 X107.935 Y100.009 E47.96094
G1 X107.733 Y99.724 E47.97256
G1 X107.278 Y99.199 E47.99567
G1 X107.015 Y98.950 E48.00771
G1 X106.456 Y98.509 E48.03140
G1 X105.829 Y98.127 E48.05582
G1 X105.471 Y97.950 E48.06910
G1 X104.788 Y97.682 E48.09350
G1 X104.049 Y97.479 E48.11899
G1 X103.288 Y97.356 E48.14463
G1 X102.898 Y97.324 E48.15765
G1 X102.500 Y97.313 E48.17089
G1 X102.112 Y97.323 E48.18380
G0 F4500 X102.084 Y97.024
G0 X100.323 Y92.863
G0 X101.102 Y91.198
G0 X101.645 Y89.545
G0 X101.624 Y89.245
G1 F1440 X102.437 Y89.215 E48.21086
G1 X102.497 Y89.214 E48.21285
G1 X103.237 Y89.236 E48.23748
G1 X104.030 Y89.304 E48.26395
G1 X104.830 Y89.421 E48.29084
G1 X105.620 Y89.587 E48.31769
G1 X106.401 Y89.800 E48.34461
G1 X107.150 Y90.055 E48.37093
G1 X107.906 Y90.365 E48.39811
G1 X108.620 Y90.707 E48.42444
G1 X109.334 Y91.107 E48.45166
G1 X110.002 Y91.535 E48.47805
G1 X110.662 Y92.016 E48.50521
G1 X111.273 Y92.520 E48.53155
G1 X111.871 Y93.079 E48.55878
G1 X112.424 Y93.663 E48.58553
G1 X112.934 Y94.270 E48.61190
G1 X113.420 Y94.924 E48.63900
G1 X113.457 Y94.975 E48.64109
G1 X113.854 Y95.592 E48.66550
G1 X114.251 Y96.291 E48.69223
G1 X114.638 Y97.079 E48.72143
G1 X114.918 Y97.758 E48.74586
G1 X115.186 Y98.530 E48.77304
G1 X115.417 Y99.347 E48.80128
G1 X115.572 Y100.080 E48.82620
G1 X115.698 Y100.888 E48.85340
G1 X115.771 Y101.678 E48.87978
G1 X115.797 Y102.495 E48.90697
G1 X115.799 Y102.548 E48.90874
G1 X115.775 Y103.297 E48.93366
G1 X115.773 Y103.348 E48.93536
G1 X115.705 Y104.090 E48.96014
G1 X115.585 Y104.886 E48.98691
G1 X115.414 Y105.685 E49.01409
G1 X115.200 Y106.461 E49.04086
G1 X114.941 Y107.213 E49.06732
G1 X114.634 Y107.957 E49.09409
G1 X114.278 Y108.689 E49.12116
G1 X113.887 Y109.384 E49.14768
G1 X113.451 Y110.059 E49.17441
G1 X112.973 Y110.708 E49.20122
G1 X112.428 Y111.362 E49.22953
G1 X111.907 Y111.913 E49.25476
G1 X111.317 Y112.470 E49.28174
G1 X110.693 Y112.989 E49.30874
G1 X110.043 Y113.466 E49.33555
G1 X109.373 Y113.899 E49.36209
G1 X108.678 Y114.291 E49.38863
G1 X107.953 Y114.643 E49.41543
G1 X106.300 Y114.642 E49.47041
G1 X106.300 Y115.813 E49.50936
G1 X98.700 Y115.814 E49.76213
G1 X98.700 Y114.639 E49.80121
G1 X98.437 Y114.643 E49.80996
G1 X97.046 Y114.642 E49.85623
G1 X96.363 Y114.312 E49.88146
G1 X95.686 Y113.934 E49.90725
G1 X95.003 Y113.498 E49.93420
G1 X94.354 Y113.025 E49.96091
G1 X93.733 Y112.514 E49.98766
G1 X93.154 Y111.974 E50.01399
G1 X92.592 Y111.383 E50.04111
G1 X92.074 Y110.769 E50.06783
G1 X91.578 Y110.103 E50.09545
G1 X91.155 Y109.452 E50.12127
G1 X91.135 Y109.422 E50.12247
G1 X90.757 Y108.754 E50.14800
G1 X90.401 Y108.033 E50.17475
G1 X90.095 Y107.304 E50.20104
G1 X89.825 Y106.536 E50.22812
G1 X89.605 Y105.763 E50.25485
G1 X89.435 Y104.991 E50.28114
G1 X89.308 Y104.185 E50.30828
G1 X89.232 Y103.395 E50.33468
G1 X89.201 Y102.545 E50.36297
G1 X89.222 Y101.781 E50.38839
G1 X89.289 Y100.992 E50.41472
G1 X89.405 Y100.198 E50.44141
G1 X89.569 Y99.412 E50.46812
G1 X89.783 Y98.626 E50.49521
G1 X90.037 Y97.876 E50.52155
G1 X90.339 Y97.132 E50.54826
G1 X90.687 Y96.407 E50.57500
G1 X91.078 Y95.705 E50.60173
G1 X91.509 Y95.028 E50.62842
G1 X92.026 Y94.318 E50.65763
G1 X92.499 Y93.750 E50.68222
G1 X93.038 Y93.170 E50.70855
G1 X93.629 Y92.607 E50.73570
G1 X94.244 Y92.089 E50.76245
G1 X94.879 Y91.616 E50.78878
G1 X95.551 Y91.176 E50.81550
G1 X96.259 Y90.771 E50.84263
G1 X96.970 Y90.421 E50.86898
G1 X97.710 Y90.109 E50.89569
G1 X98.479 Y89.838 E50.92281
G1 X99.241 Y89.622 E50.94916
G1 X100.026 Y89.448 E50.97590
G1 X100.832 Y89.321 E51.00304
G1 X101.624 Y89.245 E51.02950
G0 F4500 X101.645 Y89.545
G0 X100.358 Y92.487
G0 X96.111 Y101.107
G0 X96.026 Y103.606
G0 X95.300 Y107.014
G0 X95.300 Y107.314
G1 F1440 X95.300 Y110.714 E51.14258
G1 X110.700 Y110.714 E51.65479
G1 X110.700 Y107.314 E51.76787
G1 X95.300 Y107.314 E52.28008
G0 F4500 X95.418 Y106.814
;TYPE:SKIN
G1 F1620 X96.865 Y105.366 E52.34817
G0 F4500 X96.534 Y105.132
G1 F1620 X94.852 Y106.814 E52.42728
G0 F4500 X94.799 Y106.867
G1 F1620 X91.935 Y109.731 E52.56200
G0 F4500 X92.171 Y110.061
G1 F1620 X94.799 Y107.432 E52.68563
G0 F4500 X94.799 Y107.998
G1 F1620 X92.412 Y110.385 E52.79791
G0 F4500 X92.667 Y110.696
G1 F1620 X94.799 Y108.564 E52.89819
G0 F4500 X94.799 Y109.129
G1 F1620 X92.925 Y111.003 E52.98634
G0 F4500 X93.199 Y111.295
G1 F1620 X94.799 Y109.695 E53.06160
G0 F4500 X94.799 Y110.261
G1 F1620 X93.475 Y111.585 E53.12388
G0 F4500 X93.765 Y111.860
G1 F1620 X94.799 Y110.826 E53.17251
G0 F4500 X94.979 Y111.213
G1 F1620 X94.058 Y112.133 E53.21581
G0 F4500 X94.369 Y112.388
G1 F1620 X95.544 Y111.213 E53.27108
G0 F4500 X96.110 Y111.213
G1 F1620 X94.680 Y112.643 E53.33834
G0 F4500 X95.007 Y112.881
G1 F1620 X96.676 Y111.213 E53.41682
G0 F4500 X97.242 Y111.213
G1 F1620 X95.337 Y113.117 E53.50640
G0 F4500 X95.682 Y113.337
G1 F1620 X97.807 Y111.213 E53.60633
G0 F4500 X98.373 Y111.213
G1 F1620 X96.032 Y113.554 E53.71645
G0 F4500 X96.394 Y113.757
G1 F1620 X98.939 Y111.213 E53.83613
G0 F4500 X99.504 Y111.213
G1 F1620 X96.765 Y113.952 E53.96497
G0 F4500 X97.147 Y114.136
G1 F1620 X100.070 Y111.213 E54.10246
G0 F4500 X100.636 Y111.213
G1 F1620 X97.706 Y114.142 E54.24025
G0 F4500 X98.272 Y114.142
G1 F1620 X101.201 Y111.213 E54.37802
G0 F4500 X101.767 Y111.213
G1 F1620 X98.844 Y114.136 E54.51551
G0 F4500 X99.200 Y114.346
G1 F1620 X102.333 Y111.213 E54.66288
G0 F4500 X102.898 Y111.213
G1 F1620 X99.200 Y114.911 E54.83682
G0 F4500 X99.365 Y115.312
G1 F1620 X103.464 Y111.213 E55.02963
G0 F4500 X104.030 Y111.213
G1 F1620 X99.931 Y115.312 E55.22243
G0 F4500 X94.959 Y111.055
G0 X94.959 Y106.973
G0 X99.943 Y106.814
G1 F1620 X101.390 Y105.367 E55.29049
G0 F4500 X101.956 Y105.367
G1 F1620 X100.509 Y106.814 E55.35855
G0 F4500 X101.075 Y106.814
G1 F1620 X102.521 Y105.368 E55.42657
G0 F4500 X103.086 Y105.368
G1 F1620 X101.640 Y106.814 E55.49459
G0 F4500 X102.206 Y106.814
G1 F1620 X103.652 Y105.368 E55.56260
G0 F4500 X104.218 Y105.368
G1 F1620 X102.772 Y106.814 E55.63062
G0 F4500 X103.337 Y106.814
G1 F1620 X104.784 Y105.368 E55.69865
G0 F4500 X105.349 Y105.368
G1 F1620 X103.903 Y106.814 E55.76667
G0 F4500 X104.469 Y106.814
G1 F1620 X105.914 Y105.368 E55.83466
G0 F4500 X106.480 Y105.368
G1 F1620 X105.035 Y106.814 E55.90265
G0 F4500 X105.600 Y106.814
G1 F1620 X107.046 Y105.368 E55.97067
G0 F4500 X107.611 Y105.368
G1 F1620 X106.166 Y106.814 E56.03866
G0 F4500 X106.732 Y106.814
G1 F1620 X108.177 Y105.368 E56.10665
G0 F4500 X108.509 Y105.036
G1 F1620 X114.742 Y98.803 E56.39983
G0 F4500 X114.602 Y98.378
G1 F1620 X108.960 Y104.019 E56.66519
G0 F4500 X109.124 Y103.289
G1 F1620 X114.456 Y97.958 E56.91597
G0 F4500 X114.292 Y97.556
G1 F1620 X109.194 Y102.654 E57.15577
G0 F4500 X109.170 Y102.112
G1 F1620 X114.120 Y97.162 E57.38860
G0 F4500 X113.934 Y96.783
G1 F1620 X109.110 Y101.607 E57.61550
G0 F4500 X108.995 Y101.156
G1 F1620 X113.741 Y96.410 E57.83874
G0 F4500 X113.536 Y96.049
G1 F1620 X108.861 Y100.725 E58.05866
G0 F4500 X108.687 Y100.333
G1 F1620 X113.323 Y95.697 E58.27673
G0 F4500 X113.101 Y95.354
G1 F1620 X108.484 Y99.970 E58.49387
G0 F4500 X108.270 Y99.618
G1 F1620 X112.867 Y95.021 E58.71010
G0 F4500 X112.626 Y94.697
G1 F1620 X108.025 Y99.298 E58.92652
G0 F4500 X107.762 Y98.995
G1 F1620 X112.374 Y94.383 E59.14345
G0 F4500 X112.117 Y94.074
G1 F1620 X107.484 Y98.707 E59.36137
G0 F4500 X107.181 Y98.445
G1 F1620 X111.846 Y93.780 E59.58080
G0 F4500 X111.571 Y93.489
G1 F1620 X106.865 Y98.195 E59.80216
G0 F4500 X106.527 Y97.968
G1 F1620 X111.282 Y93.212 E60.02584
G0 F4500 X110.990 Y92.939
G1 F1620 X106.175 Y97.753 E60.25230
G0 F4500 X105.805 Y97.558
G1 F1620 X110.682 Y92.681 E60.48170
G0 F4500 X110.372 Y92.425
G1 F1620 X105.409 Y97.389 E60.71517
G0 F4500 X105.002 Y97.230
G1 F1620 X110.046 Y92.186 E60.95242
G0 F4500 X109.718 Y91.947
G1 F1620 X104.564 Y97.102 E61.19487
G0 F4500 X104.116 Y96.984
G1 F1620 X109.374 Y91.726 E61.44219
G0 F4500 X109.027 Y91.508
G1 F1620 X103.629 Y96.906 E61.69610
G0 F4500 X103.127 Y96.842
G1 F1620 X108.664 Y91.305 E61.95654
G0 F4500 X108.296 Y91.107
G1 F1620 X102.588 Y96.815 E62.22503
G0 F4500 X102.005 Y96.832
G1 F1620 X107.915 Y90.923 E62.50299
G0 F4500 X107.524 Y90.748
G1 F1620 X104.644 Y93.628 E62.63846
G0 F4500 X104.770 Y92.936
G1 F1620 X107.123 Y90.583 E62.74914
G0 F4500 X106.709 Y90.431
G1 F1620 X104.728 Y92.413 E62.84234
G0 F4500 X104.592 Y91.983
G1 F1620 X106.287 Y90.288 E62.92207
G0 F4500 X105.843 Y90.166
G1 F1620 X104.394 Y91.615 E62.99023
G0 F4500 X104.143 Y91.300
G1 F1620 X105.393 Y90.050 E63.04902
G0 F4500 X104.926 Y89.951
G1 F1620 X103.842 Y91.035 E63.10001
G0 F4500 X103.490 Y90.822
G1 F1620 X104.443 Y89.869 E63.14484
G0 F4500 X103.948 Y89.799
G1 F1620 X103.077 Y90.670 E63.18581
G0 F4500 X102.587 Y90.593
G1 F1620 X103.429 Y89.752 E63.22539
G0 F4500 X102.889 Y89.726
G1 F1620 X101.954 Y90.660 E63.26934
G0 F4500 X101.743 Y89.741
G1 F1620 X89.726 Y101.758 E63.83459
G0 F4500 X89.707 Y102.342
G1 F1620 X102.330 Y89.719 E64.42833
G0 F4500 X101.124 Y89.794
G1 F1620 X89.779 Y101.139 E64.96197
G0 F4500 X89.869 Y100.484
G1 F1620 X100.468 Y89.884 E65.46054
G0 F4500 X100.295 Y92.320
G1 F1620 X89.715 Y102.900 E65.95819
G0 F4500 X89.738 Y103.442
G1 F1620 X100.229 Y92.952 E66.45163
G0 F4500 X100.305 Y93.442
G1 F1620 X89.788 Y103.958 E66.94629
G0 F4500 X89.857 Y104.455
G1 F1620 X100.457 Y93.855 E67.44488
G0 F4500 X100.670 Y94.208
G1 F1620 X89.936 Y104.941 E67.94975
G0 F4500 X90.039 Y105.404
G1 F1620 X100.935 Y94.509 E68.46224
G0 F4500 X101.250 Y94.759
G1 F1620 X90.152 Y105.857 E68.98426
G0 F4500 X90.278 Y106.297
G1 F1620 X96.397 Y100.178 E69.27208
G0 F4500 X95.999 Y101.141
G1 F1620 X90.421 Y106.720 E69.53447
G0 F4500 X90.568 Y107.138
G1 F1620 X95.846 Y101.860 E69.78274
G0 F4500 X95.803 Y102.469
G1 F1620 X90.735 Y107.536 E70.02110
G0 F4500 X90.908 Y107.929
G1 F1620 X95.830 Y103.007 E70.25261
G0 F4500 X95.907 Y103.497
G1 F1620 X91.095 Y108.308 E70.47893
G0 F4500 X91.291 Y108.678
G1 F1620 X96.025 Y103.943 E70.70163
G0 F4500 X96.165 Y104.369
G1 F1620 X91.495 Y109.040 E70.92131
G0 F4500 X91.711 Y109.389
G1 F1620 X96.349 Y104.751 E71.13947
G0 F4500 X97.431 Y105.366
G1 F1620 X95.984 Y106.814 E71.20756
G0 F4500 X96.549 Y106.814
G1 F1620 X97.997 Y105.366 E71.27566
G0 F4500 X98.562 Y105.366
G1 F1620 X97.115 Y106.814 E71.34375
G0 F4500 X97.681 Y106.814
G1 F1620 X99.128 Y105.366 E71.41184
G0 F4500 X99.693 Y105.367
G1 F1620 X98.246 Y106.814 E71.47990
G0 F4500 X98.812 Y106.814
G1 F1620 X100.259 Y105.367 E71.54796
G0 F4500 X100.824 Y105.367
G1 F1620 X99.378 Y106.814 E71.61600
G0 F4500 X111.041 Y106.973
G0 X111.041 Y111.055
G0 X104.595 Y111.213
G1 F1620 X100.496 Y115.312 E71.80880
G0 F4500 X101.062 Y115.312
G1 F1620 X105.161 Y111.213 E72.00161
G0 F4500 X105.727 Y111.213
G1 F1620 X101.628 Y115.312 E72.19441
G0 F4500 X102.193 Y115.312
G1 F1620 X106.292 Y111.213 E72.38722
G0 F4500 X106.858 Y111.213
G1 F1620 X102.759 Y115.312 E72.58002
G0 F4500 X103.325 Y115.312
G1 F1620 X107.424 Y111.213 E72.77283
G0 F4500 X107.990 Y111.213
G1 F1620 X103.890 Y115.312 E72.96565
G0 F4500 X104.456 Y115.312
G1 F1620 X108.555 Y111.213 E73.15846
G0 F4500 X109.121 Y111.213
G1 F1620 X106.192 Y114.141 E73.29621
G0 F4500 X105.800 Y114.534
G1 F1620 X105.022 Y115.312 E73.33280
G0 F4500 X105.588 Y115.312
G1 F1620 X105.800 Y115.100 E73.34277
G0 F4500 X106.758 Y114.141
G1 F1620 X109.687 Y111.213 E73.48052
G0 F4500 X110.252 Y111.213
G1 F1620 X107.323 Y114.142 E73.61829
G0 F4500 X107.937 Y114.093
G1 F1620 X110.818 Y111.213 E73.75378
G0 F4500 X111.200 Y110.831
G1 F1620 X114.078 Y107.952 E73.88918
G0 F4500 X114.496 Y106.969
G1 F1620 X111.200 Y110.265 E74.04421
G0 F4500 X111.200 Y109.699
G1 F1620 X114.772 Y106.127 E74.21223
G0 F4500 X114.969 Y105.364
G1 F1620 X111.200 Y109.134 E74.38953
G0 F4500 X111.200 Y108.568
G1 F1620 X115.113 Y104.655 E74.57359
G0 F4500 X115.211 Y103.992
G1 F1620 X111.200 Y108.002 E74.76223
G0 F4500 X111.200 Y107.437
G1 F1620 X115.265 Y103.371 E74.95346
G0 F4500 X115.287 Y102.784
G1 F1620 X111.200 Y106.871 E75.14570
G0 F4500 X110.691 Y106.814
G1 F1620 X115.286 Y102.219 E75.36183
G0 F4500 X115.268 Y101.672
G1 F1620 X110.126 Y106.814 E75.60370
G0 F4500 X109.560 Y106.814
G1 F1620 X115.220 Y101.154 E75.86993
G0 F4500 X115.154 Y100.654
G1 F1620 X108.994 Y106.814 E76.15967
G0 F4500 X108.429 Y106.814
G1 F1620 X115.077 Y100.165 E76.47240
G0 F4500 X114.977 Y99.699
G1 F1620 X107.863 Y106.814 E76.80704
G0 F4500 X107.297 Y106.814
G1 F1620 X114.867 Y99.244 E77.16311
G0 F4500 X103.265 Y95.006
G1 F1620 X101.371 Y96.901 E77.25222
G0 F4500 X100.670 Y97.036
G1 F1620 X102.572 Y95.134 E77.34169
G0 F4500 X102.049 Y95.091
G1 F1620 X99.868 Y97.273 E77.44430
G0 F4500 X98.818 Y97.756
G1 F1620 X101.619 Y94.956 E77.57603
G0 F4500 X100.455 Y93.609
G0 X99.770 Y90.016
G1 F1620 X90.002 Y99.784 E78.03548
G0 F4500 X90.190 Y99.031
G1 F1620 X99.017 Y90.204 E78.45068
G0 F4500 X98.183 Y90.472
G1 F1620 X90.453 Y98.202 E78.81427
G0 F4500 X90.836 Y97.254
G1 F1620 X97.242 Y90.848 E79.11559
G0 F4500 X96.068 Y91.456
G1 F1620 X91.435 Y96.089 E79.33351
G0 F4500 X92.846 Y94.112
G1 F1620 X94.071 Y92.887 E79.39114
G0 F4500 X96.244 Y104.300
G0 X96.731 Y105.238
G0 X108.254 Y105.241
G0 X108.432 Y104.959
G0 X113.434 Y109.163
G1 F1620 X109.151 Y113.445 E79.59257
;LAYER:2
M117 Nb = 3 / 56
M106 S165
G0 F4500 X109.213 Y113.525 Z0.660
;TYPE:WALL-INNER
G1 F2280 X108.519 Y113.918 E79.61910
G1 X107.858 Y114.242 E79.64358
G1 X105.900 Y114.241 E79.70870
G1 X105.900 Y115.412 E79.74765
G1 X99.100 Y115.413 E79.97382
G1 X99.100 Y114.236 E80.01297
G1 X98.364 Y114.242 E80.03745
G1 X97.137 Y114.241 E80.07826
G1 X96.538 Y113.952 E80.10038
G1 X95.934 Y113.613 E80.12342
G1 X95.265 Y113.189 E80.14976
G1 X94.629 Y112.729 E80.17587
G1 X94.034 Y112.242 E80.20144
G1 X93.455 Y111.706 E80.22768
G1 X92.917 Y111.143 E80.25358
G1 X92.420 Y110.558 E80.27911
G1 X91.947 Y109.927 E80.30534
G1 X91.519 Y109.277 E80.33123
G1 X91.130 Y108.600 E80.35720
G1 X90.783 Y107.902 E80.38312
G1 X90.485 Y107.199 E80.40852
G1 X90.215 Y106.437 E80.43541
G1 X90.008 Y105.718 E80.46029
G1 X89.831 Y104.927 E80.48725
G1 X89.711 Y104.177 E80.51251
G1 X89.636 Y103.410 E80.53815
G1 X89.604 Y102.603 E80.56501
G1 X89.602 Y102.535 E80.56727
G1 X89.621 Y101.841 E80.59036
G1 X89.683 Y101.070 E80.61609
G1 X89.797 Y100.284 E80.64251
G1 X89.955 Y99.521 E80.66842
G1 X90.152 Y98.790 E80.69360
G1 X90.408 Y98.027 E80.72037
G1 X90.686 Y97.338 E80.74508
G1 X91.029 Y96.617 E80.77164
G1 X91.408 Y95.933 E80.79765
G1 X91.823 Y95.278 E80.82344
G1 X92.283 Y94.642 E80.84954
G1 X92.769 Y94.048 E80.87507
G1 X93.312 Y93.462 E80.90164
G1 X93.371 Y93.398 E80.90454
G1 X93.873 Y92.925 E80.92748
G1 X93.924 Y92.877 E80.92981
G1 X94.470 Y92.421 E80.95347
G1 X95.086 Y91.960 E80.97906
G1 X95.744 Y91.526 E81.00527
G1 X96.423 Y91.137 E81.03130
G1 X96.489 Y91.099 E81.03383
G1 X97.109 Y90.798 E81.05676
G1 X97.838 Y90.489 E81.08309
G1 X98.549 Y90.236 E81.10819
G1 X99.309 Y90.017 E81.13450
G1 X100.084 Y89.844 E81.16091
G1 X100.833 Y89.724 E81.18614
G1 X101.609 Y89.647 E81.21207
G1 X102.415 Y89.615 E81.23890
G1 X102.499 Y89.613 E81.24170
G1 X103.176 Y89.633 E81.26423
G1 X103.953 Y89.698 E81.29016
G1 X104.732 Y89.809 E81.31633
G1 X105.486 Y89.966 E81.34195
G1 X106.229 Y90.166 E81.36754
G1 X106.986 Y90.421 E81.39411
G1 X107.709 Y90.715 E81.42007
G1 X108.401 Y91.045 E81.44556
G1 X109.098 Y91.431 E81.47206
G1 X109.746 Y91.843 E81.49760
G1 X110.378 Y92.301 E81.52356
G1 X110.990 Y92.804 E81.54991
G1 X111.624 Y93.395 E81.57874
G1 X112.100 Y93.901 E81.60185
G1 X112.607 Y94.500 E81.62795
G1 X113.061 Y95.110 E81.65324
G1 X113.495 Y95.773 E81.67959
G1 X113.882 Y96.451 E81.70556
G1 X114.230 Y97.152 E81.73159
G1 X114.533 Y97.873 E81.75760
G1 X114.795 Y98.619 E81.78390
G1 X115.002 Y99.351 E81.80920
G1 X115.176 Y100.137 E81.83598
G1 X115.307 Y100.971 E81.86406
G1 X115.369 Y101.668 E81.88733
G1 X115.398 Y102.536 E81.91622
G1 X115.376 Y103.233 E81.93941
G1 X115.311 Y104.005 E81.96518
G1 X115.194 Y104.790 E81.99157
G1 X115.035 Y105.543 E82.01717
G1 X114.827 Y106.305 E82.04344
G1 X114.578 Y107.038 E82.06919
G1 X114.279 Y107.765 E82.09534
G1 X113.946 Y108.456 E82.12085
G1 X113.557 Y109.152 E82.14737
G1 X113.135 Y109.809 E82.17334
G1 X112.682 Y110.428 E82.19885
G1 X112.168 Y111.049 E82.22566
G1 X112.129 Y111.096 E82.22769
G1 X111.597 Y111.659 E82.25346
G1 X111.086 Y112.135 E82.27668
G1 X110.470 Y112.651 E82.30341
G1 X109.836 Y113.121 E82.32966
G1 X109.213 Y113.525 E82.35436
G0 F4500 X111.100 Y111.112
G1 F2280 X111.100 Y106.912 E82.49405
G1 X94.900 Y106.912 E83.03286
G1 X94.900 Y111.112 E83.17256
G1 X111.100 Y111.112 E83.71137
G0 F4500 X111.041 Y106.971
G0 X108.288 Y105.268
G1 F2280 X108.743 Y104.329 E83.74608
G1 X108.877 Y103.952 E83.75938
G1 X108.974 Y103.603 E83.77143
G1 X109.082 Y102.924 E83.79430
G1 X109.100 Y102.515 E83.80791
G1 X109.053 Y101.847 E83.83019
G1 X108.889 Y101.103 E83.85553
G1 X108.640 Y100.457 E83.87855
G1 X108.269 Y99.789 E83.90397
G1 X108.057 Y99.489 E83.91619
G1 X107.562 Y98.915 E83.94140
G1 X107.002 Y98.414 E83.96639
G1 X106.349 Y97.960 E83.99284
G1 X105.665 Y97.596 E84.01861
G1 X104.921 Y97.302 E84.04522
G1 X104.149 Y97.090 E84.07185
G1 X103.335 Y96.957 E84.09928
G1 X102.927 Y96.924 E84.11289
G1 X102.500 Y96.912 E84.12710
G1 X102.084 Y96.923 E84.14094
G1 X101.304 Y97.005 E84.16703
G1 X100.871 Y97.084 E84.18167
G1 X100.113 Y97.290 E84.20779
G1 X99.359 Y97.585 E84.23472
G1 X99.003 Y97.762 E84.24795
G1 X98.324 Y98.171 E84.27431
G1 X97.728 Y98.640 E84.29953
G1 X97.188 Y99.184 E84.32503
G1 X96.939 Y99.493 E84.33823
G1 X96.538 Y100.105 E84.36256
G1 X96.232 Y100.756 E84.38649
G1 X96.015 Y101.464 E84.41112
G1 X95.915 Y102.154 E84.43431
G1 X95.901 Y102.536 E84.44702
G1 X95.916 Y102.910 E84.45947
G1 X96.024 Y103.600 E84.48270
G1 X96.240 Y104.293 E84.50684
G1 X96.711 Y105.267 E84.54283
G1 X97.516 Y105.269 E84.56960
G1 X108.288 Y105.268 E84.92788
G0 F4500 X109.100 Y102.516
G0 X108.453 Y100.096
G0 X106.349 Y97.961
G0 X103.588 Y94.749
G1 F2280 X103.899 Y94.532 E84.94049
G1 X104.168 Y94.263 E84.95314
G1 X104.384 Y93.952 E84.96574
G1 X104.546 Y93.609 E84.97835
G1 X104.644 Y93.242 E84.99099
G1 X104.677 Y92.863 E85.00364
G1 X104.644 Y92.486 E85.01623
G1 X104.546 Y92.117 E85.02893
G1 X104.384 Y91.774 E85.04154
G1 X104.168 Y91.464 E85.05411
G1 X103.900 Y91.197 E85.06669
G1 X103.589 Y90.977 E85.07936
G1 X103.244 Y90.816 E85.09203
G1 X102.878 Y90.718 E85.10463
G1 X102.500 Y90.685 E85.11725
G1 X102.122 Y90.718 E85.12987
G1 X101.756 Y90.816 E85.14247
G1 X101.411 Y90.977 E85.15513
G1 X101.100 Y91.197 E85.16780
G1 X100.832 Y91.464 E85.18039
G1 X100.616 Y91.774 E85.19295
G1 X100.454 Y92.117 E85.20557
G1 X100.356 Y92.485 E85.21824
G1 X100.323 Y92.862 E85.23082
G1 X100.356 Y93.240 E85.24344
G1 X100.454 Y93.609 E85.25614
G1 X100.616 Y93.952 E85.26876
G1 X100.832 Y94.263 E85.28135
G1 X101.101 Y94.532 E85.29401
G1 X101.412 Y94.749 E85.30662
G1 X101.756 Y94.909 E85.31924
G1 X102.122 Y95.007 E85.33184
G1 X102.500 Y95.040 E85.34446
G1 X102.878 Y95.007 E85.35708
G1 X103.244 Y94.909 E85.36968
G1 X103.588 Y94.749 E85.38230
G0 F4500 X103.387 Y94.401
;TYPE:WALL-OUTER
G1 F1980 X103.641 Y94.224 E85.39260
G1 X103.860 Y94.005 E85.40290
G1 X104.037 Y93.751 E85.41319
G1 X104.169 Y93.471 E85.42349
G1 X104.249 Y93.172 E85.43379
G1 X104.276 Y92.863 E85.44410
G1 X104.249 Y92.555 E85.45439
G1 X104.169 Y92.255 E85.46471
G1 X104.037 Y91.975 E85.47501
G1 X103.860 Y91.722 E85.48528
G1 X103.641 Y91.504 E85.49556
G1 X103.388 Y91.324 E85.50588
G1 X103.107 Y91.193 E85.51619
G1 X102.808 Y91.113 E85.52649
G1 X102.500 Y91.086 E85.53677
G1 X102.192 Y91.113 E85.54706
G1 X101.893 Y91.193 E85.55735
G1 X101.612 Y91.324 E85.56766
G1 X101.359 Y91.504 E85.57799
G1 X101.140 Y91.722 E85.58827
G1 X100.963 Y91.975 E85.59854
G1 X100.831 Y92.255 E85.60883
G1 X100.751 Y92.555 E85.61916
G1 X100.724 Y92.862 E85.62941
G1 X100.751 Y93.171 E85.63973
G1 X100.831 Y93.471 E85.65005
G1 X100.963 Y93.751 E85.66035
G1 X101.140 Y94.005 E85.67065
G1 X101.359 Y94.224 E85.68095
G1 X101.613 Y94.401 E85.69124
G1 X101.893 Y94.532 E85.70152
G1 X102.192 Y94.612 E85.71182
G1 X102.500 Y94.639 E85.72210
G1 X102.808 Y94.612 E85.73239
G1 X103.107 Y94.532 E85.74268
G1 X103.387 Y94.401 E85.75296
G0 F4500 X103.557 Y94.648
G0 X102.908 Y97.023
G0 X102.905 Y97.323
G1 F1980 X102.500 Y97.312 E85.76644
G1 X102.110 Y97.322 E85.77941
G1 X101.361 Y97.401 E85.80446
G1 X100.960 Y97.475 E85.81803
G1 X100.238 Y97.671 E85.84291
G1 X99.521 Y97.951 E85.86851
G1 X99.196 Y98.113 E85.88059
G1 X98.552 Y98.501 E85.90560
G1 X97.995 Y98.939 E85.92916
G1 X97.487 Y99.451 E85.95315
G1 X97.263 Y99.729 E85.96503
G1 X96.888 Y100.301 E85.98778
G1 X96.606 Y100.901 E86.00983
G1 X96.406 Y101.552 E86.03248
G1 X96.314 Y102.190 E86.05392
G1 X96.301 Y102.535 E86.06540
G1 X96.315 Y102.871 E86.07658
G1 X96.415 Y103.509 E86.09806
G1 X96.613 Y104.146 E86.12025
G1 X96.962 Y104.868 E86.14692
G1 X108.037 Y104.868 E86.51528
G1 X108.374 Y104.174 E86.54094
G1 X108.583 Y103.518 E86.56384
G1 X108.683 Y102.884 E86.58518
G1 X108.699 Y102.520 E86.59730
G1 X108.656 Y101.897 E86.61807
G1 X108.590 Y101.540 E86.63015
G1 X108.508 Y101.226 E86.64094
G1 X108.275 Y100.621 E86.66251
G1 X107.934 Y100.008 E86.68584
G1 X107.742 Y99.736 E86.69691
G1 X107.276 Y99.196 E86.72063
G1 X106.753 Y98.729 E86.74395
G1 X106.140 Y98.302 E86.76880
G1 X105.497 Y97.960 E86.79302
G1 X104.794 Y97.682 E86.81817
G1 X104.058 Y97.480 E86.84355
G1 X103.659 Y97.403 E86.85707
G1 X102.905 Y97.323 E86.88229
G0 F4500 X102.908 Y97.023
G0 X104.677 Y92.863
G0 X103.899 Y91.197
G0 X103.182 Y89.532
G0 X103.201 Y89.233
G1 F1980 X103.993 Y89.299 E86.90872
G1 X104.789 Y89.413 E86.93547
G1 X105.586 Y89.579 E86.96254
G1 X106.352 Y89.785 E86.98893
G1 X107.126 Y90.046 E87.01609
G1 X107.867 Y90.347 E87.04269
G1 X108.586 Y90.690 E87.06919
G1 X109.297 Y91.084 E87.09623
G1 X109.981 Y91.519 E87.12319
G1 X110.622 Y91.984 E87.14953
G1 X111.254 Y92.503 E87.17673
G1 X111.909 Y93.113 E87.20650
G1 X112.397 Y93.633 E87.23021
G1 X112.918 Y94.248 E87.25702
G1 X113.392 Y94.885 E87.28343
G1 X113.833 Y95.558 E87.31019
G1 X114.238 Y96.267 E87.33735
G1 X114.591 Y96.979 E87.36378
G1 X114.903 Y97.721 E87.39055
G1 X115.174 Y98.492 E87.41774
G1 X115.393 Y99.265 E87.44446
G1 X115.584 Y100.132 E87.47399
G1 X115.706 Y100.939 E87.50113
G1 X115.768 Y101.639 E87.52451
G1 X115.799 Y102.532 E87.55422
G1 X115.776 Y103.259 E87.57842
G1 X115.709 Y104.050 E87.60482
G1 X115.591 Y104.847 E87.63162
G1 X115.425 Y105.635 E87.65840
G1 X115.209 Y106.424 E87.68561
G1 X114.954 Y107.174 E87.71196
G1 X114.649 Y107.919 E87.73873
G1 X114.299 Y108.644 E87.76551
G1 X113.900 Y109.358 E87.79271
G1 X113.467 Y110.032 E87.81936
G1 X112.997 Y110.675 E87.84585
G1 X112.425 Y111.365 E87.87566
G1 X111.882 Y111.940 E87.90196
G1 X111.348 Y112.438 E87.92625
G1 X110.732 Y112.955 E87.95300
G1 X110.075 Y113.442 E87.98020
G1 X109.410 Y113.873 E88.00655
G1 X108.710 Y114.270 E88.03332
G1 X107.952 Y114.641 E88.06139
G1 X107.867 Y114.642 E88.06422
G1 X106.300 Y114.641 E88.11633
G1 X106.300 Y115.812 E88.15528
G1 X98.700 Y115.813 E88.40806
G1 X98.700 Y114.639 E88.44711
G1 X98.367 Y114.642 E88.45818
G1 X97.046 Y114.641 E88.50212
G1 X96.352 Y114.306 E88.52775
G1 X95.725 Y113.954 E88.55167
G1 X95.035 Y113.517 E88.57883
G1 X94.394 Y113.053 E88.60515
G1 X93.763 Y112.536 E88.63228
G1 X93.174 Y111.990 E88.65899
G1 X92.618 Y111.410 E88.68572
G1 X92.106 Y110.806 E88.71205
G1 X91.617 Y110.153 E88.73919
G1 X91.176 Y109.483 E88.76586
G1 X90.779 Y108.792 E88.79237
G1 X90.418 Y108.066 E88.81934
G1 X90.110 Y107.338 E88.84563
G1 X89.838 Y106.570 E88.87273
G1 X89.615 Y105.799 E88.89942
G1 X89.425 Y104.944 E88.92855
G1 X89.314 Y104.223 E88.95282
G1 X89.236 Y103.431 E88.97929
G1 X89.204 Y102.619 E89.00631
G1 X89.201 Y102.544 E89.00881
G1 X89.221 Y101.819 E89.03293
G1 X89.285 Y101.029 E89.05929
G1 X89.402 Y100.224 E89.08635
G1 X89.564 Y99.438 E89.11304
G1 X89.770 Y98.672 E89.13942
G1 X90.029 Y97.900 E89.16651
G1 X90.325 Y97.166 E89.19283
G1 X90.676 Y96.429 E89.21998
G1 X91.059 Y95.737 E89.24629
G1 X91.495 Y95.048 E89.27341
G1 X91.959 Y94.407 E89.29973
G1 X92.475 Y93.777 E89.32681
G1 X93.092 Y93.112 E89.35698
G1 X93.600 Y92.632 E89.38023
G1 X94.213 Y92.114 E89.40692
G1 X94.853 Y91.634 E89.43353
G1 X95.527 Y91.190 E89.46037
G1 X95.613 Y91.135 E89.46377
G1 X96.308 Y90.742 E89.49033
G1 X96.945 Y90.432 E89.51389
G1 X97.686 Y90.118 E89.54066
G1 X98.435 Y89.852 E89.56709
G1 X99.208 Y89.629 E89.59385
G1 X100.001 Y89.452 E89.62087
G1 X100.783 Y89.327 E89.64721
G1 X101.586 Y89.247 E89.67405
G1 X102.399 Y89.215 E89.70112
G1 X102.500 Y89.212 E89.70448
G1 X103.201 Y89.233 E89.72780
G0 F4500 X103.182 Y89.532
G0 X104.544 Y92.118
G0 X108.981 Y101.454
G0 X110.700 Y107.012
G0 X110.700 Y107.312
G1 F1980 X95.300 Y107.312 E90.24001
G1 X95.300 Y110.712 E90.35309
G1 X110.700 Y110.712 E90.86530
G1 X110.700 Y107.312 E90.97838
G0 F4500 X111.198 Y107.521
;TYPE:SKIN
G1 F2280 X113.200 Y109.523 E91.07255
G0 F4500 X112.973 Y109.861
G1 F2280 X111.198 Y108.087 E91.15602
G0 F4500 X111.198 Y108.653
G1 F2280 X112.734 Y110.188 E91.22824
G0 F4500 X112.486 Y110.506
G1 F2280 X111.199 Y109.219 E91.28878
G0 F4500 X111.199 Y109.785
G1 F2280 X112.230 Y110.816 E91.33727
G0 F4500 X111.968 Y111.120
G1 F2280 X111.199 Y110.351 E91.37345
G0 F4500 X111.199 Y110.916
G1 F2280 X111.552 Y111.552 E91.39673
G1 X110.928 Y111.211 E91.42038
G0 F4500 X110.363 Y111.211
G1 F2280 X111.119 Y111.967 E91.45594
G0 F4500 X110.816 Y112.230
G1 F2280 X109.797 Y111.211 E91.50387
G0 F4500 X109.231 Y111.211
G1 F2280 X110.508 Y112.487 E91.56392
G0 F4500 X110.188 Y112.734
G1 F2280 X108.666 Y111.211 E91.63553
G0 F4500 X108.100 Y111.211
G1 F2280 X109.863 Y112.975 E91.71848
G0 F4500 X109.525 Y113.202
G1 F2280 X107.534 Y111.211 E91.81213
G0 F4500 X106.968 Y111.211
G1 F2280 X109.181 Y113.424 E91.91622
G0 F4500 X108.821 Y113.629
G1 F2280 X106.403 Y111.211 E92.02996
G0 F4500 X105.837 Y111.211
G1 F2280 X108.459 Y113.833 E92.15329
G0 F4500 X108.079 Y114.019
G1 F2280 X105.271 Y111.211 E92.28537
G0 F4500 X104.706 Y111.211
G1 F2280 X107.635 Y114.140 E92.42314
G0 F4500 X107.069 Y114.140
G1 F2280 X104.140 Y111.211 E92.56091
G0 F4500 X103.574 Y111.211
G1 F2280 X106.503 Y114.139 E92.69866
G0 F4500 X105.937 Y114.139
G1 F2280 X103.009 Y111.211 E92.83638
G0 F4500 X102.443 Y111.211
G1 F2280 X105.800 Y114.568 E92.99429
G0 F4500 X105.800 Y115.133
G1 F2280 X101.877 Y111.211 E93.17879
G0 F4500 X101.312 Y111.211
G1 F2280 X105.411 Y115.310 E93.37159
G0 F4500 X104.845 Y115.310
G1 F2280 X100.746 Y111.211 E93.56440
G0 F4500 X100.180 Y111.211
G1 F2280 X104.279 Y115.310 E93.75720
G0 F4500 X103.714 Y115.310
G1 F2280 X99.615 Y111.211 E93.95001
G0 F4500 X99.049 Y111.211
G1 F2280 X103.148 Y115.310 E94.14281
G0 F4500 X102.582 Y115.310
G1 F2280 X98.483 Y111.211 E94.33561
G0 F4500 X97.918 Y111.211
G1 F2280 X102.017 Y115.311 E94.52844
G0 F4500 X101.452 Y115.311
G1 F2280 X97.352 Y111.211 E94.72129
G0 F4500 X96.786 Y111.211
G1 F2280 X100.886 Y115.311 E94.91415
G0 F4500 X100.320 Y115.311
G1 F2280 X99.200 Y114.190 E94.96685
G0 F4500 X99.142 Y114.132
G1 F2280 X96.220 Y111.211 E95.10427
G0 F4500 X95.655 Y111.211
G1 F2280 X98.578 Y114.134 E95.24176
G0 F4500 X98.014 Y114.136
G1 F2280 X95.089 Y111.211 E95.37934
G0 F4500 X94.800 Y110.922
G1 F2280 X90.325 Y106.447 E95.58983
G0 F4500 X90.095 Y105.651
G1 F2280 X94.800 Y110.356 E95.81114
G0 F4500 X94.800 Y109.791
G1 F2280 X89.931 Y104.922 E96.04016
G0 F4500 X89.823 Y104.248
G1 F2280 X94.800 Y109.225 E96.27427
G0 F4500 X94.800 Y108.659
G1 F2280 X89.756 Y103.615 E96.51152
G0 F4500 X89.720 Y103.014
G1 F2280 X94.800 Y108.093 E96.75044
G0 F4500 X94.800 Y107.528
G1 F2280 X89.704 Y102.432 E96.99014
G0 F4500 X89.719 Y101.881
G1 F2280 X94.800 Y106.962 E97.22914
G0 F4500 X95.214 Y106.811
G1 F2280 X89.759 Y101.355 E97.48575
G0 F4500 X89.815 Y100.846
G1 F2280 X95.780 Y106.811 E97.76632
G0 F4500 X96.346 Y106.811
G1 F2280 X89.887 Y100.352 E98.07014
G0 F4500 X89.982 Y99.881
G1 F2280 X96.911 Y106.811 E98.39608
G0 F4500 X97.477 Y106.811
G1 F2280 X90.085 Y99.419 E98.74378
G0 F4500 X90.205 Y98.973
G1 F2280 X98.043 Y106.811 E99.11245
G0 F4500 X98.608 Y106.811
G1 F2280 X97.164 Y105.367 E99.18037
G0 F4500 X97.730 Y105.367
G1 F2280 X99.174 Y106.811 E99.24829
G0 F4500 X99.740 Y106.811
G1 F2280 X98.296 Y105.367 E99.31621
G0 F4500 X98.862 Y105.367
G1 F2280 X100.305 Y106.811 E99.38411
G0 F4500 X100.871 Y106.811
G1 F2280 X99.427 Y105.367 E99.45203
G0 F4500 X99.993 Y105.367
G1 F2280 X101.437 Y106.811 E99.51996
G0 F4500 X102.002 Y106.811
G1 F2280 X100.559 Y105.367 E99.58785
G0 F4500 X101.124 Y105.367
G1 F2280 X102.568 Y106.811 E99.65577
G0 F4500 X103.134 Y106.811
G1 F2280 X101.690 Y105.367 E99.72370
G0 F4500 X102.256 Y105.367
G1 F2280 X103.700 Y106.811 E99.79162
G0 F4500 X104.265 Y106.811
G1 F2280 X102.822 Y105.368 E99.85949
G0 F4500 X103.388 Y105.368
G1 F2280 X104.831 Y106.811 E99.92737
G0 F4500 X105.397 Y106.811
G1 F2280 X103.953 Y105.368 E99.99526
G0 F4500 X104.519 Y105.368
G1 F2280 X105.962 Y106.811 E100.06314
G0 F4500 X106.528 Y106.811
G1 F2280 X105.085 Y105.368 E100.13101
G0 F4500 X105.650 Y105.368
G1 F2280 X107.094 Y106.811 E100.19891
G0 F4500 X107.659 Y106.811
G1 F2280 X106.216 Y105.368 E100.26678
G0 F4500 X106.782 Y105.368
G1 F2280 X108.225 Y106.811 E100.33466
G0 F4500 X108.791 Y106.811
G1 F2280 X107.348 Y105.368 E100.40253
G0 F4500 X107.913 Y105.368
G1 F2280 X109.356 Y106.811 E100.47041
G0 F4500 X109.922 Y106.811
G1 F2280 X108.391 Y105.280 E100.54242
G0 F4500 X108.576 Y104.899
G1 F2280 X110.488 Y106.811 E100.63236
G0 F4500 X111.053 Y106.811
G1 F2280 X108.761 Y104.518 E100.74019
G0 F4500 X108.924 Y104.115
G1 F2280 X113.627 Y108.819 E100.96143
G0 F4500 X113.420 Y109.177
G1 F2280 X111.198 Y106.956 E101.06592
G0 F4500 X113.830 Y108.456
G1 F2280 X109.055 Y103.681 E101.29052
G0 F4500 X109.137 Y103.197
G1 F2280 X114.017 Y108.077 E101.52006
G0 F4500 X114.199 Y107.694
G1 F2280 X109.191 Y102.686 E101.75562
G0 F4500 X109.170 Y102.099
G1 F2280 X114.364 Y107.293 E101.99993
G0 F4500 X114.523 Y106.886
G1 F2280 X109.061 Y101.424 E102.25685
G0 F4500 X108.802 Y100.600
G1 F2280 X114.667 Y106.464 E102.53269
G0 F4500 X114.798 Y106.029
G1 F2280 X107.760 Y98.992 E102.86372
G0 F4500 X107.453 Y98.685
G1 F2280 X103.615 Y94.847 E103.04424
G0 F4500 X103.951 Y94.617
G1 F2280 X114.919 Y105.585 E103.56015
G0 F4500 X115.021 Y105.122
G1 F2280 X104.235 Y94.335 E104.06751
G0 F4500 X104.468 Y94.003
G1 F2280 X115.113 Y104.648 E104.56822
G0 F4500 X115.186 Y104.155
G1 F2280 X104.646 Y93.615 E105.06399
G0 F4500 X104.750 Y93.154
G1 F2280 X115.240 Y103.644 E105.55740
G0 F4500 X115.279 Y103.117
G1 F2280 X104.752 Y92.589 E106.05259
G0 F4500 X104.488 Y91.760
G1 F2280 X115.296 Y102.568 E106.56096
G0 F4500 X115.279 Y101.986
G1 F2280 X103.022 Y89.729 E107.13749
G0 F4500 X102.442 Y89.714
G1 F2280 X103.599 Y90.871 E107.19191
G0 F4500 X102.770 Y90.607
G1 F2280 X101.898 Y89.736 E107.23291
G0 F4500 X101.367 Y89.771
G1 F2280 X102.206 Y90.610 E107.27237
G0 F4500 X101.745 Y90.714
G1 F2280 X100.853 Y89.823 E107.31430
G0 F4500 X100.365 Y89.900
G1 F2280 X101.356 Y90.891 E107.36092
G0 F4500 X101.027 Y91.127
G1 F2280 X99.889 Y89.989 E107.41445
G0 F4500 X99.426 Y90.092
G1 F2280 X100.746 Y91.412 E107.47653
G0 F4500 X100.516 Y91.748
G1 F2280 X98.982 Y90.214 E107.54869
G0 F4500 X98.545 Y90.342
G1 F2280 X100.344 Y92.141 E107.63331
G0 F4500 X100.244 Y92.607
G1 F2280 X98.128 Y90.491 E107.73284
G0 F4500 X97.719 Y90.648
G1 F2280 X100.250 Y93.178 E107.85187
G0 F4500 X100.576 Y94.070
G1 F2280 X97.321 Y90.816 E108.00495
G0 F4500 X96.933 Y90.994
G1 F2280 X102.758 Y96.818 E108.27891
G0 F4500 X102.193 Y96.819
G1 F2280 X96.553 Y91.179 E108.54420
G0 F4500 X96.193 Y91.385
G1 F2280 X101.673 Y96.865 E108.80197
G0 F4500 X101.170 Y96.927
G1 F2280 X95.833 Y91.590 E109.05300
G0 F4500 X95.490 Y91.813
G1 F2280 X100.703 Y97.026 E109.29820
G0 F4500 X100.258 Y97.147
G1 F2280 X95.148 Y92.037 E109.53856
G0 F4500 X94.825 Y92.280
G1 F2280 X99.836 Y97.290 E109.77424
G0 F4500 X99.429 Y97.449
G1 F2280 X94.504 Y92.524 E110.00590
G0 F4500 X94.195 Y92.780
G1 F2280 X99.043 Y97.629 E110.23396
G0 F4500 X98.685 Y97.836
G1 F2280 X93.892 Y93.043 E110.45941
G0 F4500 X93.601 Y93.319
G1 F2280 X98.331 Y98.048 E110.68187
G0 F4500 X98.008 Y98.291
G1 F2280 X93.318 Y93.601 E110.90247
G0 F4500 X93.046 Y93.895
G1 F2280 X97.691 Y98.540 E111.12096
G0 F4500 X97.406 Y98.821
G1 F2280 X92.779 Y94.193 E111.33862
G0 F4500 X92.524 Y94.504
G1 F2280 X97.124 Y99.104 E111.55499
G0 F4500 X96.871 Y99.417
G1 F2280 X92.276 Y94.821 E111.77115
G0 F4500 X92.038 Y95.149
G1 F2280 X96.646 Y99.757 E111.98789
G0 F4500 X96.428 Y100.105
G1 F2280 X91.808 Y95.485 E112.20520
G0 F4500 X91.589 Y95.832
G1 F2280 X96.247 Y100.489 E112.42428
G0 F4500 X96.085 Y100.893
G1 F2280 X91.380 Y96.188 E112.64559
G0 F4500 X91.178 Y96.552
G1 F2280 X95.952 Y101.326 E112.87014
G0 F4500 X95.865 Y101.804
G1 F2280 X90.990 Y96.930 E113.09942
G0 F4500 X90.808 Y97.313
G1 F2280 X95.810 Y102.315 E113.33470
G0 F4500 X95.816 Y102.887
G1 F2280 X90.641 Y97.712 E113.57812
G0 F4500 X90.482 Y98.118
G1 F2280 X95.916 Y103.552 E113.83372
G0 F4500 X96.165 Y104.368
G1 F2280 X90.339 Y98.542 E114.10775
G0 F4500 X90.655 Y107.343
G1 F2280 X97.451 Y114.139 E114.42742
G0 F4500 X96.633 Y113.886
G1 F2280 X91.138 Y108.391 E114.68589
G0 F4500 X91.984 Y109.803
G1 F2280 X95.197 Y113.016 E114.83702
G0 F4500 X99.040 Y114.297
G0 X99.200 Y114.756
G1 F2280 X99.755 Y115.311 E114.86312
G0 F4500 X101.160 Y111.101
G0 X94.959 Y111.053
G0 X94.959 Y106.971
G0 X108.268 Y105.238
G0 X109.081 Y102.924
G0 X108.640 Y100.458
G0 X107.000 Y98.416
G0 X105.706 Y97.504
G1 F2280 X103.221 Y95.018 E114.98003
G0 F4500 X102.754 Y95.117
G1 F2280 X104.801 Y97.164 E115.07632
G0 F4500 X104.041 Y96.970
G1 F2280 X102.184 Y95.112 E115.16369
G0 F4500 X101.297 Y94.792
G1 F2280 X103.366 Y96.860 E115.26098
G0 F4500 X104.677 Y92.863
G0 X104.269 Y89.844
G1 F2280 X115.169 Y100.744 E115.77369
G0 F4500 X115.242 Y101.383
G1 F2280 X103.630 Y89.771 E116.31988
G0 F4500 X104.946 Y89.956
G1 F2280 X115.057 Y100.066 E116.79545
G0 F4500 X114.894 Y99.338
G1 F2280 X105.677 Y90.121 E117.22898
G0 F4500 X106.477 Y90.355
G1 F2280 X114.659 Y98.537 E117.61384
G0 F4500 X114.325 Y97.638
G1 F2280 X107.374 Y90.687 E117.94079
G0 F4500 X108.427 Y91.174
G1 F2280 X113.832 Y96.579 E118.19503
G0 F4500 X112.954 Y95.135
G1 F2280 X109.891 Y92.072 E118.33910
;LAYER:3
M117 Nb = 4 / 56
G0 F4500 X109.709 Y91.818 Z0.860
;TYPE:WALL-INNER
G1 F2940 X110.358 Y92.286 E118.36572
G1 X110.972 Y92.786 E118.39205
G1 X111.539 Y93.313 E118.41780
G1 X112.067 Y93.864 E118.44318
G1 X112.578 Y94.464 E118.46939
G1 X113.046 Y95.088 E118.49534
G1 X113.470 Y95.734 E118.52104
G1 X113.865 Y96.419 E118.54734
G1 X114.217 Y97.124 E118.57355
G1 X114.511 Y97.817 E118.59858
G1 X114.778 Y98.569 E118.62512
G1 X114.994 Y99.321 E118.65115
G1 X115.168 Y100.101 E118.67773
G1 X115.288 Y100.849 E118.70293
G1 X115.364 Y101.623 E118.72879
G1 X115.395 Y102.425 E118.75549
G1 X115.398 Y102.537 E118.75921
G1 X115.378 Y103.193 E118.78104
G1 X115.314 Y103.969 E118.80694
G1 X115.202 Y104.739 E118.83282
G1 X115.041 Y105.519 E118.85931
G1 X114.837 Y106.268 E118.88513
G1 X114.590 Y106.999 E118.91079
G1 X114.295 Y107.726 E118.93689
G1 X113.961 Y108.424 E118.96262
G1 X113.579 Y109.113 E118.98883
G1 X113.154 Y109.778 E119.01508
G1 X112.703 Y110.399 E119.04060
G1 X112.200 Y111.009 E119.06690
G1 X111.668 Y111.580 E119.09286
G1 X111.112 Y112.110 E119.11840
G1 X110.498 Y112.627 E119.14510
G1 X109.869 Y113.095 E119.17118
G1 X109.216 Y113.521 E119.19711
G1 X108.542 Y113.904 E119.22289
G1 X107.860 Y114.240 E119.24818
G1 X105.900 Y114.239 E119.31337
G1 X105.900 Y115.410 E119.35232
G1 X99.100 Y115.411 E119.57849
G1 X99.100 Y114.236 E119.61757
G1 X98.294 Y114.240 E119.64438
G1 X97.137 Y114.239 E119.68286
G1 X96.551 Y113.956 E119.70450
G1 X95.958 Y113.625 E119.72709
G1 X95.287 Y113.202 E119.75347
G1 X94.666 Y112.755 E119.77892
G1 X94.062 Y112.264 E119.80481
G1 X93.481 Y111.729 E119.83108
G1 X92.933 Y111.159 E119.85738
G1 X92.440 Y110.580 E119.88267
G1 X91.968 Y109.954 E119.90875
G1 X91.538 Y109.306 E119.93461
G1 X91.151 Y108.636 E119.96035
G1 X90.805 Y107.946 E119.98602
G1 X90.493 Y107.216 E120.01242
G1 X90.194 Y106.378 E120.04202
G1 X90.012 Y105.728 E120.06447
G1 X89.844 Y104.982 E120.08990
G1 X89.717 Y104.214 E120.11579
G1 X89.638 Y103.442 E120.14160
G1 X89.602 Y102.530 E120.17196
G1 X89.620 Y101.869 E120.19395
G1 X89.623 Y101.756 E120.19771
G1 X89.681 Y101.099 E120.21965
G1 X89.789 Y100.333 E120.24538
G1 X89.943 Y99.576 E120.27107
G1 X90.150 Y98.799 E120.29782
G1 X90.388 Y98.084 E120.32288
G1 X90.678 Y97.359 E120.34885
G1 X91.014 Y96.648 E120.37501
G1 X91.391 Y95.963 E120.40101
G1 X91.804 Y95.305 E120.42685
G1 X92.256 Y94.677 E120.45259
G1 X92.746 Y94.075 E120.47840
G1 X93.281 Y93.492 E120.50472
G1 X93.842 Y92.952 E120.53062
G1 X94.425 Y92.455 E120.55610
G1 X95.054 Y91.981 E120.58230
G1 X95.698 Y91.555 E120.60798
G1 X96.369 Y91.167 E120.63376
G1 X97.079 Y90.811 E120.66018
G1 X97.796 Y90.504 E120.68612
G1 X98.536 Y90.239 E120.71226
G1 X98.656 Y90.197 E120.71649
G1 X99.277 Y90.024 E120.73793
G1 X100.031 Y89.854 E120.76364
G1 X100.801 Y89.728 E120.78959
G1 X101.589 Y89.647 E120.81594
G1 X102.364 Y89.614 E120.84174
G1 X102.495 Y89.611 E120.84609
G1 X103.140 Y89.630 E120.86756
G1 X103.916 Y89.693 E120.89345
G1 X104.685 Y89.801 E120.91928
G1 X105.452 Y89.958 E120.94532
G1 X106.210 Y90.159 E120.97140
G1 X106.938 Y90.403 E120.99694
G1 X107.670 Y90.698 E121.02319
G1 X108.383 Y91.034 E121.04940
G1 X109.062 Y91.409 E121.07520
G1 X109.709 Y91.818 E121.10066
G0 F4500 X104.644 Y92.483
G1 F2940 X104.546 Y92.116 E121.11329
G1 X104.384 Y91.773 E121.12591
G1 X104.168 Y91.462 E121.13851
G1 X103.899 Y91.194 E121.15113
G1 X103.588 Y90.976 E121.16377
G1 X103.244 Y90.815 E121.17640
G1 X102.878 Y90.717 E121.18900
G1 X102.500 Y90.684 E121.20162
G1 X102.122 Y90.717 E121.21424
G1 X101.756 Y90.815 E121.22684
G1 X101.412 Y90.976 E121.23948
G1 X101.101 Y91.194 E121.25211
G1 X100.832 Y91.462 E121.26474
G1 X100.616 Y91.773 E121.27733
G1 X100.454 Y92.116 E121.28995
G1 X100.356 Y92.483 E121.30258
G1 X100.323 Y92.860 E121.31517
G1 X100.356 Y93.238 E121.32779
G1 X100.454 Y93.607 E121.34049
G1 X100.616 Y93.950 E121.35310
G1 X100.832 Y94.261 E121.36570
G1 X101.101 Y94.530 E121.37835
G1 X101.412 Y94.747 E121.39096
G1 X101.756 Y94.907 E121.40358
G1 X102.122 Y95.005 E121.41619
G1 X102.500 Y95.038 E121.42881
G1 X102.878 Y95.005 E121.44143
G1 X103.244 Y94.907 E121.45403
G1 X103.588 Y94.747 E121.46665
G1 X103.899 Y94.530 E121.47926
G1 X104.168 Y94.261 E121.49191
G1 X104.384 Y93.950 E121.50451
G1 X104.546 Y93.607 E121.51712
G1 X104.644 Y93.240 E121.52976
G1 X104.677 Y92.861 E121.54241
G1 X104.644 Y92.483 E121.55503
G0 F4500 X103.730 Y97.007
G1 F2940 X102.910 Y96.922 E121.58245
G1 X102.501 Y96.910 E121.59606
G1 X102.084 Y96.921 E121.60993
G1 X101.303 Y97.003 E121.63605
G1 X100.508 Y97.171 E121.66308
G1 X99.750 Y97.419 E121.68960
G1 X99.345 Y97.589 E121.70421
G1 X98.672 Y97.946 E121.72955
G1 X98.031 Y98.388 E121.75545
G1 X97.456 Y98.896 E121.78097
G1 X96.960 Y99.465 E121.80607
G1 X96.538 Y100.103 E121.83152
G1 X96.238 Y100.741 E121.85496
G1 X96.105 Y101.130 E121.86864
G1 X95.951 Y101.822 E121.89222
G1 X95.912 Y102.179 E121.90416
G1 X95.901 Y102.537 E121.91607
G1 X95.916 Y102.909 E121.92846
G1 X96.023 Y103.592 E121.95145
G1 X96.235 Y104.274 E121.97521
G1 X96.394 Y104.641 E121.98851
G1 X96.728 Y105.266 E122.01208
G1 X97.710 Y105.268 E122.04474
G1 X108.273 Y105.267 E122.39607
G1 X108.605 Y104.641 E122.41963
G1 X108.757 Y104.296 E122.43217
G1 X108.973 Y103.612 E122.45603
G1 X109.081 Y102.929 E122.47903
G1 X109.100 Y102.509 E122.49301
G1 X109.054 Y101.851 E122.51495
G1 X108.891 Y101.112 E122.54012
G1 X108.770 Y100.759 E122.55253
G1 X108.477 Y100.134 E122.57549
G1 X108.270 Y99.788 E122.58890
G1 X108.048 Y99.474 E122.60169
G1 X107.567 Y98.919 E122.62612
G1 X107.277 Y98.644 E122.63941
G1 X106.696 Y98.185 E122.66404
G1 X106.027 Y97.775 E122.69014
G1 X105.283 Y97.430 E122.71741
G1 X104.541 Y97.185 E122.74340
G1 X103.730 Y97.007 E122.77102
G0 F4500 X106.695 Y98.185
G0 X108.476 Y100.135
G0 X109.100 Y102.509
G0 X111.100 Y106.911
G1 F2940 X94.900 Y106.911 E123.30983
G1 X94.900 Y111.111 E123.44952
G1 X111.100 Y111.111 E123.98834
G1 X111.100 Y106.911 E124.12803
G0 F4500 X110.700 Y107.311
;TYPE:WALL-OUTER
G1 F2460 X95.300 Y107.311 E124.64024
G1 X95.300 Y110.711 E124.75332
G1 X110.700 Y110.711 E125.26553
G1 X110.700 Y107.311 E125.37861
G0 F4500 X110.700 Y107.011
G0 X108.508 Y104.609
G0 X108.245 Y104.466
G1 F2460 X108.382 Y104.155 E125.38992
G1 X108.582 Y103.520 E125.41206
G1 X108.682 Y102.888 E125.43334
G1 X108.699 Y102.514 E125.44579
G1 X108.657 Y101.901 E125.46623
G1 X108.589 Y101.533 E125.47868
G1 X108.508 Y101.229 E125.48914
G1 X108.399 Y100.910 E125.50035
G1 X108.123 Y100.322 E125.52196
G1 X107.935 Y100.007 E125.53416
G1 X107.733 Y99.721 E125.54580
G1 X107.278 Y99.196 E125.56891
G1 X107.015 Y98.947 E125.58096
G1 X106.467 Y98.514 E125.60419
G1 X105.838 Y98.128 E125.62873
G1 X105.136 Y97.803 E125.65446
G1 X104.435 Y97.571 E125.67902
G1 X103.661 Y97.402 E125.70537
G1 X103.275 Y97.352 E125.71832
G1 X102.888 Y97.321 E125.73123
G1 X102.500 Y97.310 E125.74414
G1 X102.110 Y97.320 E125.75711
G1 X101.366 Y97.398 E125.78199
G1 X100.612 Y97.558 E125.80763
G1 X99.890 Y97.794 E125.83290
G1 X99.516 Y97.951 E125.84639
G1 X98.880 Y98.289 E125.87034
G1 X98.278 Y98.703 E125.89464
G1 X97.741 Y99.179 E125.91851
G1 X97.279 Y99.708 E125.94187
G1 X96.888 Y100.299 E125.96544
G1 X96.609 Y100.892 E125.98724
G1 X96.488 Y101.247 E125.99971
G1 X96.347 Y101.879 E126.02125
G1 X96.301 Y102.535 E126.04312
G1 X96.315 Y102.870 E126.05427
G1 X96.414 Y103.501 E126.07552
G1 X96.610 Y104.135 E126.09759
G1 X96.755 Y104.467 E126.10964
G1 X96.968 Y104.867 E126.12471
G1 X108.032 Y104.867 E126.49270
G1 X108.245 Y104.466 E126.50780
G0 F4500 X108.508 Y104.609
G0 X114.687 Y107.028
G0 X114.966 Y107.137
G1 F2460 X114.660 Y107.890 E126.53484
G1 X114.316 Y108.609 E126.56135
G1 X113.925 Y109.313 E126.58813
G1 X113.487 Y109.999 E126.61520
G1 X113.012 Y110.653 E126.64208
G1 X112.503 Y111.271 E126.66871
G1 X111.959 Y111.855 E126.69526
G1 X111.372 Y112.414 E126.72222
G1 X110.752 Y112.937 E126.74920
G1 X110.026 Y113.477 E126.77929
G1 X109.433 Y113.857 E126.80272
G1 X108.734 Y114.255 E126.82947
G1 X107.954 Y114.639 E126.85839
G1 X107.796 Y114.640 E126.86364
G1 X106.300 Y114.639 E126.91340
G1 X106.300 Y115.810 E126.95235
G1 X98.700 Y115.811 E127.20512
G1 X98.700 Y114.638 E127.24414
G1 X98.296 Y114.640 E127.25757
G1 X97.046 Y114.639 E127.29915
G1 X96.363 Y114.309 E127.32438
G1 X95.749 Y113.966 E127.34777
G1 X95.068 Y113.537 E127.37454
G1 X94.416 Y113.068 E127.40125
G1 X93.802 Y112.568 E127.42759
G1 X93.202 Y112.015 E127.45473
G1 X92.645 Y111.436 E127.48145
G1 X92.131 Y110.834 E127.50778
G1 X91.640 Y110.183 E127.53490
G1 X91.197 Y109.514 E127.56159
G1 X90.800 Y108.827 E127.58798
G1 X90.435 Y108.099 E127.61506
G1 X90.120 Y107.361 E127.64175
G1 X89.814 Y106.503 E127.67205
G1 X89.627 Y105.836 E127.69509
G1 X89.449 Y105.050 E127.72190
G1 X89.321 Y104.270 E127.74818
G1 X89.239 Y103.467 E127.77503
G1 X89.201 Y102.529 E127.80626
G1 X89.224 Y101.727 E127.83294
G1 X89.282 Y101.065 E127.85504
G1 X89.394 Y100.271 E127.88171
G1 X89.556 Y99.472 E127.90883
G1 X89.760 Y98.707 E127.93516
G1 X90.013 Y97.945 E127.96187
G1 X90.316 Y97.188 E127.98899
G1 X90.659 Y96.462 E128.01569
G1 X91.040 Y95.769 E128.04200
G1 X91.467 Y95.089 E128.06870
G1 X91.943 Y94.427 E128.09582
G1 X92.450 Y93.805 E128.12251
G1 X92.986 Y93.222 E128.14885
G1 X93.574 Y92.656 E128.17600
G1 X94.180 Y92.139 E128.20249
G1 X94.822 Y91.656 E128.22921
G1 X95.497 Y91.209 E128.25614
G1 X96.183 Y90.812 E128.28250
G1 X96.908 Y90.449 E128.30947
G1 X97.651 Y90.131 E128.33635
G1 X98.405 Y89.861 E128.36299
G1 X99.178 Y89.637 E128.38975
G1 X99.963 Y89.459 E128.41653
G1 X100.745 Y89.331 E128.44288
G1 X101.547 Y89.249 E128.46970
G1 X102.361 Y89.214 E128.49679
G1 X102.498 Y89.211 E128.50135
G1 X103.162 Y89.230 E128.52345
G1 X103.953 Y89.294 E128.54984
G1 X104.755 Y89.407 E128.57678
G1 X105.549 Y89.569 E128.60373
G1 X106.316 Y89.773 E128.63013
G1 X107.078 Y90.028 E128.65685
G1 X107.835 Y90.333 E128.68400
G1 X108.556 Y90.673 E128.71051
G1 X109.267 Y91.066 E128.73753
G1 X109.948 Y91.496 E128.76432
G1 X110.601 Y91.967 E128.79110
G1 X111.222 Y92.474 E128.81776
G1 X111.814 Y93.022 E128.84459
G1 X112.365 Y93.596 E128.87106
G1 X112.890 Y94.213 E128.89800
G1 X113.369 Y94.852 E128.92456
G1 X113.818 Y95.535 E128.95175
G1 X114.214 Y96.221 E128.97809
G1 X114.574 Y96.942 E129.00490
G1 X114.888 Y97.684 E129.03170
G1 X115.161 Y98.454 E129.05887
G1 X115.381 Y99.217 E129.08528
G1 X115.559 Y100.014 E129.11244
G1 X115.685 Y100.797 E129.13882
G1 X115.764 Y101.599 E129.16562
G1 X115.795 Y102.413 E129.19272
G1 X115.799 Y102.531 E129.19664
G1 X115.778 Y103.218 E129.21950
G1 X115.712 Y104.010 E129.24594
G1 X115.597 Y104.807 E129.27272
G1 X115.431 Y105.608 E129.29993
G1 X115.220 Y106.385 E129.32671
G1 X114.966 Y107.137 E129.35311
G0 F4500 X114.687 Y107.028
G0 X103.852 Y94.434
G0 X103.641 Y94.222
G1 F2460 X103.860 Y94.003 E129.36341
G1 X104.037 Y93.749 E129.37370
G1 X104.169 Y93.469 E129.38400
G1 X104.249 Y93.170 E129.39429
G1 X104.276 Y92.861 E129.40461
G1 X104.249 Y92.553 E129.41489
G1 X104.169 Y92.254 E129.42519
G1 X104.037 Y91.974 E129.43548
G1 X103.860 Y91.720 E129.44578
G1 X103.641 Y91.501 E129.45608
G1 X103.387 Y91.323 E129.46640
G1 X103.107 Y91.192 E129.47668
G1 X102.808 Y91.112 E129.48698
G1 X102.500 Y91.085 E129.49726
G1 X102.192 Y91.112 E129.50754
G1 X101.893 Y91.192 E129.51784
G1 X101.613 Y91.323 E129.52812
G1 X101.359 Y91.501 E129.53843
G1 X101.140 Y91.720 E129.54874
G1 X100.963 Y91.974 E129.55903
G1 X100.831 Y92.254 E129.56933
G1 X100.751 Y92.553 E129.57962
G1 X100.724 Y92.860 E129.58987
G1 X100.751 Y93.169 E129.60019
G1 X100.831 Y93.469 E129.61052
G1 X100.963 Y93.749 E129.62081
G1 X101.140 Y94.003 E129.63111
G1 X101.359 Y94.222 E129.64141
G1 X101.613 Y94.399 E129.65171
G1 X101.893 Y94.530 E129.66199
G1 X102.192 Y94.610 E129.67228
G1 X102.500 Y94.637 E129.68257
G1 X102.808 Y94.610 E129.69285
G1 X103.107 Y94.530 E129.70314
G1 X103.387 Y94.399 E129.71343
G1 X103.641 Y94.222 E129.72372
G0 F4500 X103.270 Y95.002
;TYPE:SKIN
G1 F2940 X101.378 Y96.894 E129.81272
G0 F4500 X102.010 Y96.828
G1 F2940 X107.914 Y90.924 E130.09042
G0 F4500 X108.299 Y91.104
G1 F2940 X102.591 Y96.812 E130.35891
G0 F4500 X103.125 Y96.843
G1 F2940 X108.665 Y91.304 E130.61947
G0 F4500 X109.028 Y91.506
G1 F2940 X103.638 Y96.896 E130.87300
G0 F4500 X104.112 Y96.988
G1 F2940 X109.375 Y91.725 E131.12056
G0 F4500 X109.718 Y91.947
G1 F2940 X104.575 Y97.091 E131.36249
G0 F4500 X105.000 Y97.232
G1 F2940 X110.047 Y92.185 E131.59989
G0 F4500 X110.372 Y92.425
G1 F2940 X105.416 Y97.382 E131.83302
G0 F4500 X105.802 Y97.560
G1 F2940 X110.684 Y92.679 E132.06264
G0 F4500 X110.990 Y92.939
G1 F2940 X106.179 Y97.750 E132.28893
G0 F4500 X106.529 Y97.966
G1 F2940 X111.283 Y93.211 E132.51257
G0 F4500 X111.570 Y93.490
G1 F2940 X106.867 Y98.193 E132.73378
G0 F4500 X107.183 Y98.443
G1 F2940 X111.846 Y93.780 E132.95311
G0 F4500 X112.115 Y94.077
G1 F2940 X107.485 Y98.706 E133.17087
G0 F4500 X107.763 Y98.994
G1 F2940 X112.375 Y94.382 E133.38781
G0 F4500 X112.626 Y94.697
G1 F2940 X108.026 Y99.296 E133.60415
G0 F4500 X108.271 Y99.617
G1 F2940 X112.869 Y95.020 E133.82041
G0 F4500 X113.100 Y95.354
G1 F2940 X108.491 Y99.963 E134.03720
G0 F4500 X108.683 Y100.337
G1 F2940 X113.324 Y95.696 E134.25550
G0 F4500 X113.535 Y96.050
G1 F2940 X108.864 Y100.722 E134.47523
G0 F4500 X109.001 Y101.150
G1 F2940 X113.743 Y96.409 E134.69826
G0 F4500 X113.934 Y96.783
G1 F2940 X109.103 Y101.614 E134.92549
G0 F4500 X109.171 Y102.111
G1 F2940 X114.123 Y97.160 E135.15839
G0 F4500 X114.291 Y97.558
G1 F2940 X109.192 Y102.656 E135.39821
G0 F4500 X109.124 Y103.290
G1 F2940 X114.454 Y97.960 E135.64892
G0 F4500 X114.602 Y98.377
G1 F2940 X108.943 Y104.037 E135.91512
G0 F4500 X108.505 Y105.040
G1 F2940 X114.740 Y98.805 E136.20840
G0 F4500 X114.867 Y99.244
G1 F2940 X107.300 Y106.811 E136.56433
G0 F4500 X107.866 Y106.811
G1 F2940 X114.975 Y99.702 E136.89871
G0 F4500 X107.524 Y90.747
G1 F2940 X104.641 Y93.630 E137.03432
G0 F4500 X104.769 Y92.937
G1 F2940 X107.121 Y90.585 E137.14495
G0 F4500 X106.709 Y90.431
G1 F2940 X104.728 Y92.412 E137.23813
G0 F4500 X104.593 Y91.982
G1 F2940 X106.285 Y90.289 E137.31774
G0 F4500 X105.844 Y90.165
G1 F2940 X104.395 Y91.614 E137.38590
G0 F4500 X104.144 Y91.299
G1 F2940 X105.395 Y90.048 E137.44474
G0 F4500 X104.926 Y89.951
G1 F2940 X103.844 Y91.034 E137.49566
G0 F4500 X103.491 Y90.821
G1 F2940 X104.445 Y89.867 E137.54053
G0 F4500 X103.948 Y89.798
G1 F2940 X103.079 Y90.668 E137.58143
G0 F4500 X102.589 Y90.592
G1 F2940 X103.428 Y89.753 E137.62090
G0 F4500 X102.893 Y89.722
G1 F2940 X101.958 Y90.657 E137.66488
G0 F4500 X101.744 Y89.739
G1 F2940 X89.723 Y101.761 E138.23033
G0 F4500 X89.707 Y102.343
G1 F2940 X102.335 Y89.714 E138.82434
G0 F4500 X101.124 Y89.794
G1 F2940 X89.777 Y101.141 E139.35806
G0 F4500 X89.868 Y100.484
G1 F2940 X100.469 Y89.883 E139.85670
G0 F4500 X100.294 Y92.321
G1 F2940 X89.717 Y102.898 E140.35421
G0 F4500 X89.738 Y103.442
G1 F2940 X100.230 Y92.951 E140.84770
G0 F4500 X100.305 Y93.442
G1 F2940 X89.791 Y103.955 E141.34222
G0 F4500 X89.859 Y104.453
G1 F2940 X100.458 Y93.854 E141.84077
G0 F4500 X100.671 Y94.207
G1 F2940 X89.939 Y104.939 E142.34557
G0 F4500 X90.042 Y105.402
G1 F2940 X100.936 Y94.507 E142.85801
G0 F4500 X101.252 Y94.757
G1 F2940 X90.153 Y105.856 E143.38007
G0 F4500 X90.277 Y106.298
G1 F2940 X96.386 Y100.189 E143.66742
G0 F4500 X96.000 Y101.141
G1 F2940 X90.422 Y106.718 E143.92977
G0 F4500 X90.571 Y107.135
G1 F2940 X95.845 Y101.861 E144.17784
G0 F4500 X95.803 Y102.469
G1 F2940 X90.738 Y107.533 E144.41606
G0 F4500 X90.909 Y107.929
G1 F2940 X95.830 Y103.007 E144.64755
G0 F4500 X95.907 Y103.497
G1 F2940 X91.097 Y108.306 E144.87378
G0 F4500 X91.291 Y108.678
G1 F2940 X96.027 Y103.942 E145.09655
G0 F4500 X96.166 Y104.368
G1 F2940 X91.498 Y109.036 E145.31611
G0 F4500 X91.713 Y109.387
G1 F2940 X96.343 Y104.757 E145.53390
G0 F4500 X96.539 Y105.126
G1 F2940 X94.855 Y106.811 E145.61313
G0 F4500 X94.799 Y106.867
G1 F2940 X91.939 Y109.727 E145.74765
G0 F4500 X92.173 Y110.059
G1 F2940 X94.799 Y107.432 E145.87120
G0 F4500 X94.799 Y107.998
G1 F2940 X92.416 Y110.382 E145.98331
G0 F4500 X92.669 Y110.694
G1 F2940 X94.799 Y108.564 E146.08350
G0 F4500 X94.799 Y109.129
G1 F2940 X92.930 Y110.999 E146.17143
G0 F4500 X93.202 Y111.292
G1 F2940 X94.799 Y109.695 E146.24655
G0 F4500 X94.799 Y110.261
G1 F2940 X93.480 Y111.580 E146.30859
G0 F4500 X93.768 Y111.857
G1 F2940 X94.799 Y110.826 E146.35709
G0 F4500 X94.982 Y111.210
G1 F2940 X94.062 Y112.130 E146.40036
G0 F4500 X94.371 Y112.386
G1 F2940 X95.547 Y111.210 E146.45568
G0 F4500 X96.113 Y111.210
G1 F2940 X94.683 Y112.640 E146.52294
G0 F4500 X95.010 Y112.878
G1 F2940 X96.679 Y111.210 E146.60142
G0 F4500 X97.244 Y111.210
G1 F2940 X95.339 Y113.115 E146.69103
G0 F4500 X95.685 Y113.335
G1 F2940 X97.810 Y111.210 E146.79098
G0 F4500 X98.376 Y111.210
G1 F2940 X96.034 Y113.552 E146.90114
G0 F4500 X96.396 Y113.755
G1 F2940 X98.941 Y111.210 E147.02085
G0 F4500 X99.507 Y111.210
G1 F2940 X96.767 Y113.950 E147.14973
G0 F4500 X97.150 Y114.133
G1 F2940 X100.073 Y111.210 E147.28722
G0 F4500 X100.638 Y111.210
G1 F2940 X97.712 Y114.136 E147.42485
G0 F4500 X98.278 Y114.136
G1 F2940 X101.204 Y111.210 E147.56248
G0 F4500 X101.770 Y111.210
G1 F2940 X98.845 Y114.134 E147.70004
G0 F4500 X99.200 Y114.346
G1 F2940 X102.336 Y111.210 E147.84755
G0 F4500 X102.901 Y111.210
G1 F2940 X99.200 Y114.911 E148.02163
G0 F4500 X99.366 Y115.310
G1 F2940 X103.467 Y111.210 E148.21451
G0 F4500 X104.033 Y111.210
G1 F2940 X99.932 Y115.310 E148.40738
G0 F4500 X94.959 Y111.052
G0 X94.959 Y106.970
G0 X99.946 Y106.811
G1 F2940 X101.392 Y105.365 E148.47540
G0 F4500 X100.827 Y105.365
G1 F2940 X99.381 Y106.811 E148.54341
G0 F4500 X98.815 Y106.811
G1 F2940 X100.261 Y105.365 E148.61143
G0 F4500 X100.512 Y106.811
G1 F2940 X101.958 Y105.365 E148.67944
G0 F4500 X102.523 Y105.365
G1 F2940 X101.078 Y106.811 E148.74744
G0 F4500 X101.643 Y106.811
G1 F2940 X103.089 Y105.365 E148.81545
G0 F4500 X103.654 Y105.365
G1 F2940 X102.209 Y106.811 E148.88344
G0 F4500 X102.775 Y106.811
G1 F2940 X104.220 Y105.365 E148.95143
G0 F4500 X104.786 Y105.365
G1 F2940 X103.340 Y106.811 E149.01945
G0 F4500 X103.906 Y106.811
G1 F2940 X105.351 Y105.365 E149.08744
G0 F4500 X105.917 Y105.365
G1 F2940 X104.472 Y106.811 E149.15543
G0 F4500 X105.037 Y106.811
G1 F2940 X106.483 Y105.365 E149.22345
G0 F4500 X107.048 Y105.365
G1 F2940 X105.603 Y106.811 E149.29144
G0 F4500 X106.169 Y106.811
G1 F2940 X107.614 Y105.365 E149.35943
G0 F4500 X108.180 Y105.365
G1 F2940 X106.734 Y106.811 E149.42745
G0 F4500 X108.431 Y106.811
G1 F2940 X115.076 Y100.166 E149.74001
G0 F4500 X115.154 Y100.654
G1 F2940 X108.997 Y106.811 E150.02962
G0 F4500 X109.563 Y106.811
G1 F2940 X115.216 Y101.157 E150.29554
G0 F4500 X115.264 Y101.676
G1 F2940 X110.129 Y106.811 E150.53707
G0 F4500 X110.694 Y106.811
G1 F2940 X115.285 Y102.220 E150.75302
G0 F4500 X115.289 Y102.782
G1 F2940 X111.200 Y106.871 E150.94535
G0 F4500 X111.200 Y107.437
G1 F2940 X115.261 Y103.375 E151.13639
G0 F4500 X115.206 Y103.996
G1 F2940 X111.200 Y108.002 E151.32482
G0 F4500 X111.200 Y108.568
G1 F2940 X115.112 Y104.656 E151.50883
G0 F4500 X114.969 Y105.364
G1 F2940 X111.200 Y109.134 E151.68614
G0 F4500 X111.200 Y109.699
G1 F2940 X114.770 Y106.129 E151.85406
G0 F4500 X114.491 Y106.973
G1 F2940 X111.200 Y110.265 E152.00888
G0 F4500 X111.200 Y110.831
G1 F2940 X114.071 Y107.960 E152.14393
G0 F4500 X113.414 Y109.182
G1 F2940 X109.159 Y113.437 E152.34407
G0 F4500 X107.944 Y114.087
G1 F2940 X110.821 Y111.210 E152.47939
G0 F4500 X110.255 Y111.210
G1 F2940 X107.326 Y114.139 E152.61716
G0 F4500 X106.761 Y114.139
G1 F2940 X109.689 Y111.210 E152.75491
G0 F4500 X109.124 Y111.210
G1 F2940 X106.195 Y114.139 E152.89268
G0 F4500 X105.800 Y114.534
G1 F2940 X105.024 Y115.310 E152.92918
G0 F4500 X105.590 Y115.310
G1 F2940 X105.800 Y115.100 E152.93906
G0 F4500 X104.458 Y115.310
G1 F2940 X108.558 Y111.210 E153.13191
G0 F4500 X107.992 Y111.210
G1 F2940 X103.893 Y115.310 E153.32474
G0 F4500 X103.327 Y115.310
G1 F2940 X107.427 Y111.210 E153.51759
G0 F4500 X106.861 Y111.210
G1 F2940 X102.761 Y115.310 E153.71044
G0 F4500 X102.195 Y115.310
G1 F2940 X106.295 Y111.210 E153.90329
G0 F4500 X105.730 Y111.210
G1 F2940 X101.629 Y115.310 E154.09617
G0 F4500 X101.063 Y115.310
G1 F2940 X105.164 Y111.210 E154.28904
G0 F4500 X104.598 Y111.210
G1 F2940 X100.498 Y115.310 E154.48190
G0 F4500 X94.959 Y111.052
G0 X94.959 Y106.970
G0 X98.249 Y106.811
G1 F2940 X99.695 Y105.365 E154.54991
G0 F4500 X99.130 Y105.365
G1 F2940 X97.683 Y106.811 E154.61795
G0 F4500 X97.118 Y106.811
G1 F2940 X98.564 Y105.365 E154.68597
G0 F4500 X97.998 Y105.365
G1 F2940 X96.552 Y106.811 E154.75398
G0 F4500 X95.986 Y106.811
G1 F2940 X97.432 Y105.365 E154.82200
G0 F4500 X96.867 Y105.365
G1 F2940 X95.421 Y106.811 E154.89001
G0 F4500 X90.003 Y99.784
G1 F2940 X99.772 Y90.014 E155.34954
G0 F4500 X99.022 Y90.199
G1 F2940 X90.191 Y99.030 E155.76492
G0 F4500 X90.453 Y98.202
G1 F2940 X98.186 Y90.469 E156.12866
G0 F4500 X97.239 Y90.851
G1 F2940 X90.838 Y97.251 E156.42972
G0 F4500 X91.432 Y96.092
G1 F2940 X96.069 Y91.455 E156.64783
G0 F4500 X94.075 Y92.883
G1 F2940 X92.840 Y94.118 E156.70592
G0 F4500 X98.823 Y97.752
G1 F2940 X101.621 Y94.954 E156.83753
G0 F4500 X102.051 Y95.089
G1 F2940 X99.864 Y97.276 E156.94040
G0 F4500 X100.672 Y97.034
G1 F2940 X102.575 Y95.131 E157.02991
;LAYER:4
M117 Nb = 5 / 56
G0 F4500 X102.500 Y95.037 Z1.060
;TYPE:WALL-INNER
G1 F3600 X102.878 Y95.004 E157.04253
G1 X103.244 Y94.906 E157.05513
G1 X103.588 Y94.746 E157.06775
G1 X103.899 Y94.529 E157.08036
G1 X104.168 Y94.260 E157.09302
G1 X104.384 Y93.949 E157.10561
G1 X104.546 Y93.606 E157.11823
G1 X104.644 Y93.239 E157.13086
G1 X104.677 Y92.860 E157.14352
G1 X104.644 Y92.483 E157.15610
G1 X104.546 Y92.114 E157.16880
G1 X104.384 Y91.771 E157.18142
G1 X104.168 Y91.461 E157.19398
G1 X103.899 Y91.193 E157.20661
G1 X103.588 Y90.975 E157.21925
G1 X103.244 Y90.814 E157.23188
G1 X102.878 Y90.716 E157.24448
G1 X102.500 Y90.683 E157.25710
G1 X102.122 Y90.716 E157.26972
G1 X101.756 Y90.814 E157.28232
G1 X101.412 Y90.975 E157.29495
G1 X101.101 Y91.193 E157.30759
G1 X100.832 Y91.461 E157.32022
G1 X100.616 Y91.771 E157.33278
G1 X100.454 Y92.114 E157.34540
G1 X100.356 Y92.482 E157.35807
G1 X100.323 Y92.859 E157.37065
G1 X100.356 Y93.237 E157.38327
G1 X100.454 Y93.606 E157.39597
G1 X100.616 Y93.949 E157.40859
G1 X100.832 Y94.260 E157.42118
G1 X101.101 Y94.529 E157.43384
G1 X101.412 Y94.746 E157.44645
G1 X101.756 Y94.906 E157.45907
G1 X102.122 Y95.004 E157.47167
G1 X102.500 Y95.037 E157.48429
G0 F4500 X102.501 Y96.909
G1 F3600 X102.084 Y96.920 E157.49816
G1 X101.310 Y97.000 E157.52404
G1 X100.516 Y97.168 E157.55104
G1 X99.748 Y97.418 E157.57790
G1 X99.023 Y97.747 E157.60438
G1 X98.324 Y98.168 E157.63152
G1 X97.739 Y98.629 E157.65629
G1 X97.182 Y99.188 E157.68254
G1 X96.753 Y99.755 E157.70619
G1 X96.535 Y100.110 E157.72004
G1 X96.240 Y100.734 E157.74300
G1 X96.099 Y101.146 E157.75748
G1 X95.958 Y101.781 E157.77912
G1 X95.912 Y102.175 E157.79231
G1 X95.901 Y102.535 E157.80429
G1 X95.915 Y102.896 E157.81631
G1 X95.960 Y103.267 E157.82874
G1 X96.122 Y103.948 E157.85202
G1 X96.250 Y104.314 E157.86492
G1 X96.712 Y105.265 E157.90008
G1 X108.272 Y105.265 E158.28457
G1 X108.610 Y104.629 E158.30852
G1 X108.862 Y103.996 E158.33118
G1 X108.974 Y103.602 E158.34481
G1 X109.081 Y102.933 E158.36734
G1 X109.100 Y102.501 E158.38172
G1 X109.054 Y101.854 E158.40330
G1 X108.976 Y101.429 E158.41767
G1 X108.787 Y100.804 E158.43939
G1 X108.626 Y100.423 E158.45314
G1 X108.271 Y99.786 E158.47740
G1 X107.843 Y99.220 E158.50100
G1 X107.561 Y98.912 E158.51489
G1 X107.277 Y98.643 E158.52790
G1 X106.701 Y98.187 E158.55233
G1 X106.032 Y97.777 E158.57843
G1 X105.284 Y97.429 E158.60587
G1 X104.547 Y97.185 E158.63169
G1 X103.729 Y97.006 E158.65954
G1 X102.942 Y96.922 E158.68587
G1 X102.501 Y96.909 E158.70054
G0 F4500 X100.358 Y93.237
G0 X100.833 Y91.462
G0 X102.329 Y89.613
G1 F3600 X102.498 Y89.609 E158.70616
G1 X103.110 Y89.628 E158.72653
G1 X103.277 Y89.633 E158.73209
G1 X103.889 Y89.689 E158.75253
G1 X104.658 Y89.794 E158.77834
G1 X105.425 Y89.950 E158.80437
G1 X106.177 Y90.148 E158.83024
G1 X106.913 Y90.393 E158.85604
G1 X107.625 Y90.676 E158.88152
G1 X108.351 Y91.018 E158.90821
G1 X109.024 Y91.386 E158.93372
G1 X109.694 Y91.808 E158.96006
G1 X110.322 Y92.258 E158.98576
G1 X110.934 Y92.754 E159.01196
G1 X111.504 Y93.277 E159.03769
G1 X112.053 Y93.847 E159.06401
G1 X112.164 Y93.965 E159.06940
G1 X112.553 Y94.433 E159.08964
G1 X113.025 Y95.058 E159.11569
G1 X113.447 Y95.695 E159.14110
G1 X113.848 Y96.386 E159.16767
G1 X114.192 Y97.072 E159.19320
G1 X114.505 Y97.804 E159.21968
G1 X114.766 Y98.535 E159.24549
G1 X114.990 Y99.302 E159.27207
G1 X115.159 Y100.056 E159.29777
G1 X115.282 Y100.812 E159.32324
G1 X115.362 Y101.588 E159.34919
G1 X115.394 Y102.385 E159.37572
G1 X115.398 Y102.535 E159.38071
G1 X115.379 Y103.158 E159.40144
G1 X115.317 Y103.933 E159.42730
G1 X115.208 Y104.702 E159.45313
G1 X115.049 Y105.479 E159.47951
G1 X114.846 Y106.236 E159.50558
G1 X114.602 Y106.961 E159.53102
G1 X114.308 Y107.691 E159.55720
G1 X113.976 Y108.389 E159.58291
G1 X113.591 Y109.088 E159.60945
G1 X113.174 Y109.746 E159.63536
G1 X112.724 Y110.369 E159.66092
G1 X112.218 Y110.986 E159.68746
G1 X111.698 Y111.548 E159.71293
G1 X111.122 Y112.099 E159.73944
G1 X111.029 Y112.187 E159.74370
G1 X110.538 Y112.594 E159.76491
G1 X109.915 Y113.061 E159.79080
G1 X109.261 Y113.489 E159.81680
G1 X108.581 Y113.882 E159.84292
G1 X107.858 Y114.239 E159.86974
G1 X105.900 Y114.238 E159.93486
G1 X105.900 Y115.409 E159.97381
G1 X99.100 Y115.410 E160.19998
G1 X99.100 Y114.236 E160.23903
G1 X98.224 Y114.239 E160.26816
G1 X97.137 Y114.238 E160.30432
G1 X96.538 Y113.949 E160.32644
G1 X95.997 Y113.646 E160.34706
G1 X95.329 Y113.227 E160.37329
G1 X94.686 Y112.768 E160.39957
G1 X94.098 Y112.292 E160.42473
G1 X93.515 Y111.758 E160.45102
G1 X92.958 Y111.184 E160.47763
G1 X92.470 Y110.614 E160.50258
G1 X91.989 Y109.981 E160.52902
G1 X91.557 Y109.333 E160.55493
G1 X91.170 Y108.669 E160.58049
G1 X90.814 Y107.963 E160.60679
G1 X90.509 Y107.253 E160.63249
G1 X90.247 Y106.528 E160.65813
G1 X90.020 Y105.756 E160.68489
G1 X89.854 Y105.031 E160.70963
G1 X89.720 Y104.228 E160.73671
G1 X89.641 Y103.462 E160.76232
G1 X89.606 Y102.680 E160.78836
G1 X89.602 Y102.530 E160.79335
G1 X89.619 Y101.906 E160.81411
G1 X89.623 Y101.757 E160.81907
G1 X89.679 Y101.128 E160.84007
G1 X89.785 Y100.359 E160.86589
G1 X89.939 Y99.594 E160.89184
G1 X90.132 Y98.860 E160.91709
G1 X90.379 Y98.110 E160.94335
G1 X90.668 Y97.382 E160.96940
G1 X90.996 Y96.684 E160.99505
G1 X91.370 Y95.999 E161.02101
G1 X91.785 Y95.334 E161.04708
G1 X92.233 Y94.707 E161.07271
G1 X92.731 Y94.091 E161.09906
G1 X92.836 Y93.965 E161.10451
G1 X93.371 Y93.396 E161.13049
G1 X93.807 Y92.984 E161.15044
G1 X94.406 Y92.470 E161.17669
G1 X95.019 Y92.006 E161.20226
G1 X95.676 Y91.567 E161.22854
G1 X96.337 Y91.182 E161.25399
G1 X97.041 Y90.827 E161.28021
G1 X97.765 Y90.515 E161.30643
G1 X98.657 Y90.195 E161.33795
G1 X99.226 Y90.037 E161.35759
G1 X100.016 Y89.855 E161.38456
G1 X100.751 Y89.734 E161.40933
G1 X101.555 Y89.649 E161.43622
G1 X102.329 Y89.613 E161.46199
G0 F4500 X100.358 Y92.483
G0 X95.958 Y101.782
G0 X94.900 Y106.909
G1 F3600 X94.900 Y111.109 E161.60168
G1 X111.100 Y111.109 E162.14050
G1 X111.100 Y106.909 E162.28019
G1 X94.900 Y106.909 E162.81901
G0 F4500 X95.300 Y107.309
;TYPE:WALL-OUTER
G1 F3000 X95.300 Y110.709 E162.93209
G1 X110.700 Y110.709 E163.44430
G1 X110.700 Y107.309 E163.55738
G1 X95.300 Y107.309 E164.06959
G0 F4500 X95.300 Y107.009
G0 X96.963 Y105.165
G0 X96.963 Y104.865
G1 F3000 X108.032 Y104.865 E164.43774
G1 X108.247 Y104.461 E164.45296
G1 X108.483 Y103.867 E164.47422
G1 X108.583 Y103.515 E164.48639
G1 X108.682 Y102.892 E164.50738
G1 X108.699 Y102.506 E164.52023
G1 X108.657 Y101.905 E164.54026
G1 X108.587 Y101.523 E164.55318
G1 X108.410 Y100.940 E164.57345
G1 X108.266 Y100.599 E164.58576
G1 X107.935 Y100.005 E164.60837
G1 X107.535 Y99.476 E164.63043
G1 X107.015 Y98.946 E164.65513
G1 X106.472 Y98.516 E164.67817
G1 X105.843 Y98.130 E164.70271
G1 X105.136 Y97.802 E164.72863
G1 X104.441 Y97.571 E164.75299
G1 X103.661 Y97.401 E164.77954
G1 X102.919 Y97.321 E164.80437
G1 X102.500 Y97.309 E164.81831
G1 X102.110 Y97.319 E164.83128
G1 X101.372 Y97.396 E164.85596
G1 X100.619 Y97.555 E164.88156
G1 X99.893 Y97.791 E164.90695
G1 X99.210 Y98.102 E164.93191
G1 X98.552 Y98.498 E164.95745
G1 X98.005 Y98.928 E164.98060
G1 X97.485 Y99.451 E165.00513
G1 X97.084 Y99.981 E165.02723
G1 X96.887 Y100.301 E165.03973
G1 X96.611 Y100.885 E165.06121
G1 X96.484 Y101.255 E165.07422
G1 X96.353 Y101.848 E165.09442
G1 X96.311 Y102.204 E165.10635
G1 X96.301 Y102.533 E165.11729
G1 X96.314 Y102.864 E165.12831
G1 X96.355 Y103.197 E165.13947
G1 X96.506 Y103.835 E165.16128
G1 X96.620 Y104.159 E165.17270
G1 X96.963 Y104.865 E165.19881
G0 F4500 X96.963 Y105.165
G0 X90.416 Y107.288
G0 X90.135 Y107.395
G1 F3000 X89.862 Y106.639 E165.22554
G1 X89.636 Y105.869 E165.25223
G1 X89.592 Y105.715 E165.25756
G1 X89.457 Y105.089 E165.27886
G1 X89.325 Y104.295 E165.30563
G1 X89.243 Y103.507 E165.33198
G1 X89.207 Y102.693 E165.35908
G1 X89.201 Y102.541 E165.36414
G1 X89.224 Y101.726 E165.39126
G1 X89.279 Y101.102 E165.41209
G1 X89.389 Y100.298 E165.43908
G1 X89.548 Y99.511 E165.46579
G1 X89.749 Y98.743 E165.49219
G1 X90.000 Y97.980 E165.51891
G1 X90.301 Y97.222 E165.54603
G1 X90.638 Y96.506 E165.57235
G1 X91.028 Y95.791 E165.59944
G1 X91.454 Y95.109 E165.62619
G1 X91.914 Y94.466 E165.65248
G1 X92.424 Y93.835 E165.67947
G1 X92.532 Y93.705 E165.68509
G1 X93.091 Y93.110 E165.71224
G1 X93.536 Y92.689 E165.73262
G1 X94.155 Y92.158 E165.75974
G1 X94.796 Y91.673 E165.78648
G1 X95.455 Y91.234 E165.81281
G1 X96.154 Y90.826 E165.83973
G1 X96.873 Y90.464 E165.86651
G1 X97.615 Y90.144 E165.89338
G1 X98.533 Y89.815 E165.92582
G1 X99.140 Y89.646 E165.94677
G1 X99.923 Y89.466 E165.97350
G1 X100.716 Y89.335 E166.00023
G1 X101.511 Y89.251 E166.02682
G1 X102.322 Y89.214 E166.05382
G1 X102.499 Y89.209 E166.05971
G1 X103.308 Y89.234 E166.08663
G1 X103.920 Y89.290 E166.10707
G1 X104.720 Y89.399 E166.13392
G1 X105.509 Y89.559 E166.16070
G1 X106.286 Y89.763 E166.18742
G1 X107.042 Y90.014 E166.21391
G1 X107.801 Y90.316 E166.24108
G1 X108.529 Y90.659 E166.26785
G1 X109.234 Y91.045 E166.29458
G1 X109.913 Y91.472 E166.32126
G1 X110.560 Y91.935 E166.34772
G1 X111.192 Y92.448 E166.37479
G1 X111.779 Y92.987 E166.40130
G1 X112.344 Y93.573 E166.42838
G1 X112.460 Y93.696 E166.43400
G1 X112.867 Y94.185 E166.45516
G1 X113.353 Y94.829 E166.48199
G1 X113.797 Y95.500 E166.50875
G1 X114.195 Y96.187 E166.53516
G1 X114.562 Y96.918 E166.56237
G1 X114.878 Y97.659 E166.58916
G1 X115.145 Y98.405 E166.61551
G1 X115.373 Y99.187 E166.64261
G1 X115.550 Y99.973 E166.66940
G1 X115.679 Y100.757 E166.69583
G1 X115.761 Y101.559 E166.72264
G1 X115.794 Y102.373 E166.74974
G1 X115.799 Y102.529 E166.75493
G1 X115.779 Y103.178 E166.77653
G1 X115.716 Y103.971 E166.80298
G1 X115.603 Y104.768 E166.82976
G1 X115.440 Y105.566 E166.85685
G1 X115.231 Y106.345 E166.88367
G1 X114.978 Y107.099 E166.91013
G1 X114.674 Y107.853 E166.93717
G1 X114.327 Y108.582 E166.96402
G1 X113.944 Y109.279 E166.99047
G1 X113.509 Y109.965 E167.01749
G1 X113.042 Y110.611 E167.04400
G1 X112.525 Y111.242 E167.07113
G1 X111.979 Y111.832 E167.09787
G1 X111.397 Y112.390 E167.12469
G1 X110.783 Y112.910 E167.15145
G1 X110.142 Y113.390 E167.17808
G1 X109.467 Y113.833 E167.20494
G1 X108.773 Y114.233 E167.23158
G1 X107.953 Y114.638 E167.26200
G1 X106.300 Y114.639 E167.31698
G1 X106.300 Y115.809 E167.35589
G1 X98.700 Y115.810 E167.60867
G1 X98.700 Y114.637 E167.64768
G1 X97.046 Y114.638 E167.70269
G1 X96.352 Y114.303 E167.72832
G1 X95.783 Y113.984 E167.75002
G1 X95.110 Y113.562 E167.77644
G1 X94.446 Y113.088 E167.80358
G1 X93.831 Y112.590 E167.82990
G1 X93.229 Y112.039 E167.85704
G1 X92.671 Y111.463 E167.88371
G1 X92.566 Y111.353 E167.88877
G1 X92.155 Y110.861 E167.91009
G1 X91.662 Y110.212 E167.93720
G1 X91.224 Y109.554 E167.96349
G1 X90.813 Y108.849 E167.99063
G1 X90.452 Y108.132 E168.01733
G1 X90.135 Y107.395 E168.04402
G0 F4500 X90.416 Y107.288
G0 X101.186 Y94.466
G0 X101.359 Y94.221
G1 F3000 X101.613 Y94.398 E168.05431
G1 X101.893 Y94.529 E168.06460
G1 X102.192 Y94.609 E168.07489
G1 X102.500 Y94.636 E168.08517
G1 X102.808 Y94.609 E168.09546
G1 X103.107 Y94.529 E168.10575
G1 X103.387 Y94.398 E168.11603
G1 X103.641 Y94.221 E168.12633
G1 X103.860 Y94.002 E168.13663
G1 X104.037 Y93.748 E168.14693
G1 X104.169 Y93.468 E168.15722
G1 X104.249 Y93.169 E168.16752
G1 X104.276 Y92.860 E168.17784
G1 X104.249 Y92.552 E168.18812
G1 X104.169 Y92.252 E168.19845
G1 X104.037 Y91.972 E168.20874
G1 X103.860 Y91.719 E168.21901
G1 X103.641 Y91.500 E168.22931
G1 X103.387 Y91.322 E168.23963
G1 X103.107 Y91.191 E168.24991
G1 X102.808 Y91.111 E168.26020
G1 X102.500 Y91.084 E168.27049
G1 X102.192 Y91.111 E168.28077
G1 X101.893 Y91.191 E168.29107
G1 X101.613 Y91.322 E168.30135
G1 X101.359 Y91.500 E168.31166
G1 X101.140 Y91.719 E168.32196
G1 X100.963 Y91.972 E168.33223
G1 X100.831 Y92.252 E168.34253
G1 X100.751 Y92.552 E168.35286
G1 X100.724 Y92.859 E168.36311
G1 X100.751 Y93.168 E168.37342
G1 X100.831 Y93.468 E168.38375
G1 X100.963 Y93.748 E168.39405
G1 X101.140 Y94.002 E168.40434
G1 X101.359 Y94.221 E168.41464
G0 F4500 X101.288 Y94.783
;TYPE:SKIN
G1 F3600 X103.371 Y96.866 E168.51262
G0 F4500 X102.756 Y96.816
G1 F3600 X96.933 Y90.993 E168.78652
G0 F4500 X96.556 Y91.182
G1 F3600 X102.190 Y96.816 E169.05152
G0 F4500 X101.669 Y96.860
G1 F3600 X96.191 Y91.382 E169.30919
G0 F4500 X95.833 Y91.590
G1 F3600 X101.170 Y96.927 E169.56023
G0 F4500 X100.703 Y97.026
G1 F3600 X95.488 Y91.811 E169.80553
G0 F4500 X95.148 Y92.037
G1 F3600 X100.257 Y97.146 E170.04584
G0 F4500 X102.181 Y95.110
G1 F3600 X104.042 Y96.971 E170.13337
G0 F4500 X104.799 Y97.162
G1 F3600 X102.752 Y95.115 E170.22966
G0 F4500 X103.219 Y95.016
G1 F3600 X105.727 Y97.524 E170.34763
G0 F4500 X107.311 Y98.543
G1 F3600 X103.612 Y94.844 E170.52162
G0 F4500 X103.949 Y94.615
G1 F3600 X114.917 Y105.583 E171.03752
G0 F4500 X114.798 Y106.029
G1 F3600 X107.859 Y99.091 E171.36388
G0 F4500 X104.233 Y94.334
G1 F3600 X115.020 Y105.120 E171.87125
G0 F4500 X115.114 Y104.648
G1 F3600 X104.467 Y94.002 E172.37203
G0 F4500 X104.645 Y93.614
G1 F3600 X115.184 Y104.153 E172.86775
G0 F4500 X115.239 Y103.642
G1 F3600 X104.750 Y93.154 E173.36110
G0 F4500 X104.752 Y92.590
G1 F3600 X115.279 Y103.117 E173.85625
G0 F4500 X115.296 Y102.568
G1 F3600 X104.491 Y91.763 E174.36449
G0 F4500 X103.596 Y90.868
G1 F3600 X102.438 Y89.710 E174.41896
G0 F4500 X101.895 Y89.733
G1 F3600 X102.768 Y90.605 E174.46000
G0 F4500 X102.204 Y90.607
G1 F3600 X101.366 Y89.770 E174.49939
G0 F4500 X100.854 Y89.823
G1 F3600 X101.743 Y90.712 E174.54120
G0 F4500 X101.355 Y90.890
G1 F3600 X100.364 Y89.899 E174.58782
G0 F4500 X99.887 Y89.987
G1 F3600 X101.025 Y91.125 E174.64135
G0 F4500 X100.744 Y91.410
G1 F3600 X99.427 Y90.093 E174.70329
G0 F4500 X98.977 Y90.209
G1 F3600 X100.515 Y91.747 E174.77564
G0 F4500 X100.343 Y92.140
G1 F3600 X98.544 Y90.342 E174.86023
G0 F4500 X98.128 Y90.491
G1 F3600 X100.244 Y92.607 E174.95976
G0 F4500 X100.250 Y93.178
G1 F3600 X97.716 Y90.645 E175.07893
G0 F4500 X97.321 Y90.815
G1 F3600 X100.582 Y94.077 E175.23234
G0 F4500 X100.456 Y92.115
G0 X101.757 Y90.815
G0 X103.019 Y89.725
G1 F3600 X115.277 Y101.983 E175.80892
G0 F4500 X115.240 Y101.380
G1 F3600 X103.625 Y89.766 E176.35523
G0 F4500 X104.267 Y89.842
G1 F3600 X115.169 Y100.744 E176.86803
G0 F4500 X115.059 Y100.068
G1 F3600 X104.945 Y89.955 E177.34374
G0 F4500 X105.676 Y90.120
G1 F3600 X114.895 Y99.339 E177.77737
G0 F4500 X114.660 Y98.538
G1 F3600 X106.475 Y90.353 E178.16237
G0 F4500 X107.370 Y90.682
G1 F3600 X114.324 Y97.636 E178.48946
G0 F4500 X113.832 Y96.578
G1 F3600 X108.428 Y91.175 E178.74363
G0 F4500 X109.892 Y92.073
G1 F3600 X112.957 Y95.138 E178.88779
G0 F4500 X108.812 Y100.609
G1 F3600 X114.664 Y106.461 E179.16305
G0 F4500 X114.522 Y106.885
G1 F3600 X109.080 Y101.443 E179.41903
G0 F4500 X109.170 Y102.099
G1 F3600 X114.361 Y107.290 E179.66320
G0 F4500 X114.197 Y107.691
G1 F3600 X109.191 Y102.686 E179.89864
G0 F4500 X109.138 Y103.198
G1 F3600 X114.014 Y108.074 E180.12799
G0 F4500 X113.826 Y108.452
G1 F3600 X109.054 Y103.680 E180.35245
G0 F4500 X108.922 Y104.113
G1 F3600 X113.625 Y108.817 E180.57369
G0 F4500 X113.417 Y109.174
G1 F3600 X111.198 Y106.956 E180.67804
G0 F4500 X111.051 Y106.808
G1 F3600 X108.760 Y104.518 E180.78578
G0 F4500 X108.577 Y104.900
G1 F3600 X110.485 Y106.808 E180.87553
G0 F4500 X109.919 Y106.808
G1 F3600 X108.381 Y105.269 E180.94789
G0 F4500 X107.910 Y105.365
G1 F3600 X109.354 Y106.808 E181.01579
G0 F4500 X108.788 Y106.808
G1 F3600 X107.345 Y105.365 E181.08367
G0 F4500 X106.779 Y105.365
G1 F3600 X108.222 Y106.808 E181.15154
G0 F4500 X107.657 Y106.808
G1 F3600 X106.213 Y105.365 E181.21944
G0 F4500 X105.648 Y105.365
G1 F3600 X107.091 Y106.808 E181.28731
G0 F4500 X106.525 Y106.808
G1 F3600 X105.082 Y105.365 E181.35519
G0 F4500 X104.516 Y105.365
G1 F3600 X105.959 Y106.808 E181.42306
G0 F4500 X105.394 Y106.808
G1 F3600 X103.951 Y105.365 E181.49094
G0 F4500 X103.385 Y105.365
G1 F3600 X104.828 Y106.808 E181.55881
G0 F4500 X104.262 Y106.808
G1 F3600 X102.819 Y105.365 E181.62668
G0 F4500 X102.254 Y105.365
G1 F3600 X103.697 Y106.808 E181.69456
G0 F4500 X103.131 Y106.808
G1 F3600 X101.688 Y105.365 E181.76243
G0 F4500 X101.122 Y105.365
G1 F3600 X102.565 Y106.808 E181.83031
G0 F4500 X102.000 Y106.808
G1 F3600 X100.556 Y105.365 E181.89820
G0 F4500 X99.991 Y105.365
G1 F3600 X101.434 Y106.808 E181.96608
G0 F4500 X100.868 Y106.808
G1 F3600 X99.425 Y105.365 E182.03395
G0 F4500 X98.859 Y105.365
G1 F3600 X100.303 Y106.808 E182.10185
G0 F4500 X111.041 Y106.968
G0 X111.041 Y111.050
G0 X100.177 Y111.208
G1 F3600 X104.277 Y115.307 E182.29468
G0 F4500 X104.842 Y115.307
G1 F3600 X100.742 Y111.208 E182.48751
G0 F4500 X101.308 Y111.208
G1 F3600 X105.408 Y115.307 E182.68033
G0 F4500 X105.800 Y115.133
G1 F3600 X101.874 Y111.208 E182.86498
G0 F4500 X102.439 Y111.208
G1 F3600 X105.800 Y114.568 E183.02305
G0 F4500 X105.934 Y114.136
G1 F3600 X103.005 Y111.208 E183.16079
G0 F4500 X103.571 Y111.208
G1 F3600 X106.500 Y114.136 E183.29854
G0 F4500 X107.066 Y114.137
G1 F3600 X104.137 Y111.208 E183.43631
G0 F4500 X104.702 Y111.208
G1 F3600 X107.632 Y114.137 E183.57411
G0 F4500 X108.077 Y114.017
G1 F3600 X105.268 Y111.208 E183.70623
G0 F4500 X105.834 Y111.208
G1 F3600 X108.456 Y113.830 E183.82956
G0 F4500 X108.818 Y113.627
G1 F3600 X106.399 Y111.208 E183.94335
G0 F4500 X106.965 Y111.208
G1 F3600 X109.177 Y113.419 E184.04737
G0 F4500 X109.520 Y113.197
G1 F3600 X107.531 Y111.208 E184.14093
G0 F4500 X108.096 Y111.208
G1 F3600 X109.862 Y112.973 E184.22397
G0 F4500 X110.185 Y112.731
G1 F3600 X108.662 Y111.208 E184.29561
G0 F4500 X109.228 Y111.208
G1 F3600 X110.508 Y112.487 E184.35579
G0 F4500 X110.817 Y112.231
G1 F3600 X109.793 Y111.208 E184.40393
G0 F4500 X110.359 Y111.208
G1 F3600 X111.116 Y111.964 E184.43952
G0 F4500 X111.405 Y111.688
G1 F3600 X111.061 Y111.062 E184.46203
G1 X111.691 Y111.408 E184.48593
G0 F4500 X111.962 Y111.114
G1 F3600 X111.198 Y110.350 E184.52187
G0 F4500 X111.198 Y109.784
G1 F3600 X112.229 Y110.814 E184.57034
G0 F4500 X112.483 Y110.503
G1 F3600 X111.198 Y109.219 E184.63076
G0 F4500 X111.198 Y108.653
G1 F3600 X112.732 Y110.187 E184.70291
G0 F4500 X112.969 Y109.858
G1 F3600 X111.198 Y108.087 E184.78622
G0 F4500 X111.198 Y107.521
G1 F3600 X113.197 Y109.520 E184.88024
G0 F4500 X103.711 Y115.307
G1 F3600 X99.611 Y111.208 E185.07307
G0 F4500 X99.045 Y111.208
G1 F3600 X103.145 Y115.307 E185.26590
G0 F4500 X102.579 Y115.307
G1 F3600 X98.480 Y111.208 E185.45870
G0 F4500 X97.914 Y111.208
G1 F3600 X102.015 Y115.308 E185.65158
G0 F4500 X101.449 Y115.308
G1 F3600 X97.348 Y111.208 E185.84445
G0 F4500 X96.783 Y111.208
G1 F3600 X100.883 Y115.308 E186.03730
G0 F4500 X100.317 Y115.308
G1 F3600 X99.200 Y114.190 E186.08987
G0 F4500 X99.143 Y114.134
G1 F3600 X96.217 Y111.208 E186.22750
G0 F4500 X95.651 Y111.208
G1 F3600 X98.578 Y114.134 E186.36515
G0 F4500 X98.013 Y114.135
G1 F3600 X95.086 Y111.208 E186.50283
G0 F4500 X94.800 Y110.922
G1 F3600 X90.327 Y106.449 E186.71323
G0 F4500 X90.099 Y105.655
G1 F3600 X94.800 Y110.356 E186.93435
G0 F4500 X94.800 Y109.791
G1 F3600 X89.938 Y104.928 E187.16306
G0 F4500 X89.824 Y104.249
G1 F3600 X94.800 Y109.225 E187.39712
G0 F4500 X94.800 Y108.659
G1 F3600 X89.756 Y103.615 E187.63437
G0 F4500 X89.720 Y103.014
G1 F3600 X94.800 Y108.093 E187.87330
